%
(Router Sled - End Cap_01)
(May 26th )
(T1  D=0.25 CR=0 - ZMIN=-0.84 - flat end mill)
G90 G94
G17
G20
G28 G91 Z0
G90

(2D Contour1)
M9
T1 M6
S10000 M3
G54
M9
G0 X-1.0125 Y-2.45
Z0.1644
G1 Z-0.125 F30
Y-0.8643 F60
G2 X-0.9762 Y-0.7762 I0.125
X-1.0643 Y-0.8125 I-0.0881 J0.0887
G1 X-1.4357
G2 X-1.5238 Y-0.7762 J0.125
X-1.4875 Y-0.8643 I-0.0887 J-0.0881
G1 Y-2.6357
G2 X-1.5238 Y-2.7238 I-0.125
X-1.4357 Y-2.6875 I0.0881 J-0.0887
G1 X-1.0643
G2 X-0.9762 Y-2.7238 J-0.125
X-1.0125 Y-2.6357 I0.0887 J0.0881
G1 Y-2.45
Z-0.25 F30
Y-0.8643 F60
G2 X-0.9762 Y-0.7762 I0.125
X-1.0643 Y-0.8125 I-0.0881 J0.0887
G1 X-1.4357
G2 X-1.5238 Y-0.7762 J0.125
X-1.4875 Y-0.8643 I-0.0887 J-0.0881
G1 Y-2.6357
G2 X-1.5238 Y-2.7238 I-0.125
X-1.4357 Y-2.6875 I0.0881 J-0.0887
G1 X-1.0643
G2 X-0.9762 Y-2.7238 J-0.125
X-1.0125 Y-2.6357 I0.0887 J0.0881
G1 Y-2.45
Z-0.375 F30
Y-0.8643 F60
G2 X-0.9762 Y-0.7762 I0.125
X-1.0643 Y-0.8125 I-0.0881 J0.0887
G1 X-1.4357
G2 X-1.5238 Y-0.7762 J0.125
X-1.4875 Y-0.8643 I-0.0887 J-0.0881
G1 Y-2.6357
G2 X-1.5238 Y-2.7238 I-0.125
X-1.4357 Y-2.6875 I0.0881 J-0.0887
G1 X-1.0643
G2 X-0.9762 Y-2.7238 J-0.125
X-1.0125 Y-2.6357 I0.0887 J0.0881
G1 Y-2.45
Z-0.5 F30
Y-0.8643 F60
G2 X-0.9762 Y-0.7762 I0.125
X-1.0643 Y-0.8125 I-0.0881 J0.0887
G1 X-1.4357
G2 X-1.5238 Y-0.7762 J0.125
X-1.4875 Y-0.8643 I-0.0887 J-0.0881
G1 Y-2.6357
G2 X-1.5238 Y-2.7238 I-0.125
X-1.4357 Y-2.6875 I0.0881 J-0.0887
G1 X-1.0643
G2 X-0.9762 Y-2.7238 J-0.125
X-1.0125 Y-2.6357 I0.0887 J0.0881
G1 Y-2.45
Z-0.625 F30
Y-0.8643 F60
G2 X-0.9762 Y-0.7762 I0.125
X-1.0643 Y-0.8125 I-0.0881 J0.0887
G1 X-1.4357
G2 X-1.5238 Y-0.7762 J0.125
X-1.4875 Y-0.8643 I-0.0887 J-0.0881
G1 Y-2.6357
G2 X-1.5238 Y-2.7238 I-0.125
X-1.4357 Y-2.6875 I0.0881 J-0.0887
G1 X-1.0643
G2 X-0.9762 Y-2.7238 J-0.125
X-1.0125 Y-2.6357 I0.0887 J0.0881
G1 Y-2.45
Z-0.75 F30
Y-0.8643 F60
G2 X-0.9762 Y-0.7762 I0.125
X-1.0643 Y-0.8125 I-0.0881 J0.0887
G1 X-1.4357
G2 X-1.5238 Y-0.7762 J0.125
X-1.4875 Y-0.8643 I-0.0887 J-0.0881
G1 Y-2.6357
G2 X-1.5238 Y-2.7238 I-0.125
X-1.4357 Y-2.6875 I0.0881 J-0.0887
G1 X-1.0643
G2 X-0.9762 Y-2.7238 J-0.125
X-1.0125 Y-2.6357 I0.0887 J0.0881
G1 Y-2.45
Z-0.84 F30
Y-0.8643 F60
G2 X-0.9762 Y-0.7762 I0.125
X-1.0643 Y-0.8125 I-0.0881 J0.0887
G1 X-1.4357
G2 X-1.5238 Y-0.7762 J0.125
X-1.4875 Y-0.8643 I-0.0887 J-0.0881
G1 Y-2.6357
G2 X-1.5238 Y-2.7238 I-0.125
X-1.4357 Y-2.6875 I0.0881 J-0.0887
G1 X-1.0643
G2 X-0.9762 Y-2.7238 J-0.125
X-1.0125 Y-2.6357 I0.0887 J0.0881
G1 Y-2.45
G0 Z0.1644
X0 Y-4.3687
G1 Z-0.125 F30
X-3.1125 F60
G2 X-4.2375 Y-3.2437 J1.125
G1 Y3.2437
G2 X-3.1125 Y4.3687 I1.125
G1 X0.55
G2 X0.675 Y4.2437 J-0.125
G1 Y3.708
G2 X0.6384 Y3.6196 I-0.125
X0.7268 Y3.6562 I0.0884 J-0.0884
G1 X0.7375
G2 X0.7765 Y3.65 J-0.125
G1 X2.4485
G2 X2.4875 Y3.6562 I0.039 J-0.1188
G1 X2.4982
G2 X2.5866 Y3.6196 J-0.125
X2.55 Y3.708 I0.0884 J0.0884
G1 Y4.2437
G2 X2.675 Y4.3687 I0.125
G1 X4.1125
G2 X4.2375 Y4.2437 J-0.125
G1 Y-4.2437
G2 X4.1125 Y-4.3687 I-0.125
G1 X2.675
G2 X2.55 Y-4.2437 J0.125
G1 Y-3.708
G2 X2.5866 Y-3.6196 I0.125
X2.4982 Y-3.6562 I-0.0884 J0.0884
G1 X2.4875
G2 X2.4485 Y-3.65 J0.125
G1 X0.7765
G2 X0.7375 Y-3.6562 I-0.039 J0.1188
G1 X0.7268
G2 X0.6384 Y-3.6196 J0.125
X0.675 Y-3.708 I-0.0884 J-0.0884
G1 Y-4.2437
G2 X0.55 Y-4.3687 I-0.125
G1 X0
Z-0.25 F30
X-3.1125 F60
G2 X-4.2375 Y-3.2437 J1.125
G1 Y3.2437
G2 X-3.1125 Y4.3687 I1.125
G1 X0.55
G2 X0.675 Y4.2437 J-0.125
G1 Y3.708
G2 X0.6384 Y3.6196 I-0.125
X0.7268 Y3.6562 I0.0884 J-0.0884
G1 X0.7375
G2 X0.7765 Y3.65 J-0.125
G1 X2.4485
G2 X2.4875 Y3.6562 I0.039 J-0.1188
G1 X2.4982
G2 X2.5866 Y3.6196 J-0.125
X2.55 Y3.708 I0.0884 J0.0884
G1 Y4.2437
G2 X2.675 Y4.3687 I0.125
G1 X4.1125
G2 X4.2375 Y4.2437 J-0.125
G1 Y-4.2437
G2 X4.1125 Y-4.3687 I-0.125
G1 X2.675
G2 X2.55 Y-4.2437 J0.125
G1 Y-3.708
G2 X2.5866 Y-3.6196 I0.125
X2.4982 Y-3.6562 I-0.0884 J0.0884
G1 X2.4875
G2 X2.4485 Y-3.65 J0.125
G1 X0.7765
G2 X0.7375 Y-3.6562 I-0.039 J0.1188
G1 X0.7268
G2 X0.6384 Y-3.6196 J0.125
X0.675 Y-3.708 I-0.0884 J-0.0884
G1 Y-4.2437
G2 X0.55 Y-4.3687 I-0.125
G1 X0
Z-0.375 F30
X-3.1125 F60
G2 X-4.2375 Y-3.2437 J1.125
G1 Y3.2437
G2 X-3.1125 Y4.3687 I1.125
G1 X0.55
G2 X0.675 Y4.2437 J-0.125
G1 Y3.708
G2 X0.6384 Y3.6196 I-0.125
X0.7268 Y3.6562 I0.0884 J-0.0884
G1 X0.7375
G2 X0.7765 Y3.65 J-0.125
G1 X2.4485
G2 X2.4875 Y3.6562 I0.039 J-0.1188
G1 X2.4982
G2 X2.5866 Y3.6196 J-0.125
X2.55 Y3.708 I0.0884 J0.0884
G1 Y4.2437
G2 X2.675 Y4.3687 I0.125
G1 X4.1125
G2 X4.2375 Y4.2437 J-0.125
G1 Y-4.2437
G2 X4.1125 Y-4.3687 I-0.125
G1 X2.675
G2 X2.55 Y-4.2437 J0.125
G1 Y-3.708
G2 X2.5866 Y-3.6196 I0.125
X2.4982 Y-3.6562 I-0.0884 J0.0884
G1 X2.4875
G2 X2.4485 Y-3.65 J0.125
G1 X0.7765
G2 X0.7375 Y-3.6562 I-0.039 J0.1188
G1 X0.7268
G2 X0.6384 Y-3.6196 J0.125
X0.675 Y-3.708 I-0.0884 J-0.0884
G1 Y-4.2437
G2 X0.55 Y-4.3687 I-0.125
G1 X0
Z-0.5 F30
X-3.1125 F60
G2 X-4.2375 Y-3.2437 J1.125
G1 Y3.2437
G2 X-3.1125 Y4.3687 I1.125
G1 X0.55
G2 X0.675 Y4.2437 J-0.125
G1 Y3.708
G2 X0.6384 Y3.6196 I-0.125
X0.7268 Y3.6562 I0.0884 J-0.0884
G1 X0.7375
G2 X0.7765 Y3.65 J-0.125
G1 X2.4485
G2 X2.4875 Y3.6562 I0.039 J-0.1188
G1 X2.4982
G2 X2.5866 Y3.6196 J-0.125
X2.55 Y3.708 I0.0884 J0.0884
G1 Y4.2437
G2 X2.675 Y4.3687 I0.125
G1 X4.1125
G2 X4.2375 Y4.2437 J-0.125
G1 Y-4.2437
G2 X4.1125 Y-4.3687 I-0.125
G1 X2.675
G2 X2.55 Y-4.2437 J0.125
G1 Y-3.708
G2 X2.5866 Y-3.6196 I0.125
X2.4982 Y-3.6562 I-0.0884 J0.0884
G1 X2.4875
G2 X2.4485 Y-3.65 J0.125
G1 X0.7765
G2 X0.7375 Y-3.6562 I-0.039 J0.1188
G1 X0.7268
G2 X0.6384 Y-3.6196 J0.125
X0.675 Y-3.708 I-0.0884 J-0.0884
G1 Y-4.2437
G2 X0.55 Y-4.3687 I-0.125
G1 X0
Z-0.625 F30
X-3.1125 F60
G2 X-4.2375 Y-3.2437 J1.125
G1 Y3.2437
G2 X-3.1125 Y4.3687 I1.125
G1 X0.55
G2 X0.675 Y4.2437 J-0.125
G1 Y3.708
G2 X0.6384 Y3.6196 I-0.125
X0.7268 Y3.6562 I0.0884 J-0.0884
G1 X0.7375
G2 X0.7765 Y3.65 J-0.125
G1 X2.4485
G2 X2.4875 Y3.6562 I0.039 J-0.1188
G1 X2.4982
G2 X2.5866 Y3.6196 J-0.125
X2.55 Y3.708 I0.0884 J0.0884
G1 Y4.2437
G2 X2.675 Y4.3687 I0.125
G1 X4.1125
G2 X4.2375 Y4.2437 J-0.125
G1 Y-4.2437
G2 X4.1125 Y-4.3687 I-0.125
G1 X2.675
G2 X2.55 Y-4.2437 J0.125
G1 Y-3.708
G2 X2.5866 Y-3.6196 I0.125
X2.4982 Y-3.6562 I-0.0884 J0.0884
G1 X2.4875
G2 X2.4485 Y-3.65 J0.125
G1 X0.7765
G2 X0.7375 Y-3.6562 I-0.039 J0.1188
G1 X0.7268
G2 X0.6384 Y-3.6196 J0.125
X0.675 Y-3.708 I-0.0884 J-0.0884
G1 Y-4.2437
G2 X0.55 Y-4.3687 I-0.125
G1 X0
Z-0.75 F30
X-3.1125 F60
G2 X-4.2375 Y-3.2437 J1.125
G1 Y-0.35
Z-0.705
Y0.35
Z-0.75 F30
Y3.2437 F60
G2 X-3.1125 Y4.3687 I1.125
G1 X0.55
G2 X0.675 Y4.2437 J-0.125
G1 Y3.708
G2 X0.6384 Y3.6196 I-0.125
X0.7268 Y3.6562 I0.0884 J-0.0884
G1 X0.7375
G2 X0.7765 Y3.65 J-0.125
G1 X2.4485
G2 X2.4875 Y3.6562 I0.039 J-0.1188
G1 X2.4982
G2 X2.5866 Y3.6196 J-0.125
X2.55 Y3.708 I0.0884 J0.0884
G1 Y4.2437
G2 X2.675 Y4.3687 I0.125
G1 X4.1125
G2 X4.2375 Y4.2437 J-0.125
G1 Y2.4719
Z-0.705
Y1.7719
Z-0.75 F30
Y-1.7719 F60
Z-0.705
Y-2.4719
Z-0.75 F30
Y-4.2437 F60
G2 X4.1125 Y-4.3687 I-0.125
G1 X2.675
G2 X2.55 Y-4.2437 J0.125
G1 Y-3.708
G2 X2.5866 Y-3.6196 I0.125
X2.4982 Y-3.6562 I-0.0884 J0.0884
G1 X2.4875
G2 X2.4485 Y-3.65 J0.125
G1 X0.7765
G2 X0.7375 Y-3.6562 I-0.039 J0.1188
G1 X0.7268
G2 X0.6384 Y-3.6196 J0.125
X0.675 Y-3.708 I-0.0884 J-0.0884
G1 Y-4.2437
G2 X0.55 Y-4.3687 I-0.125
G1 X0
Z-0.84 F30
X-3.1125 F60
G2 X-4.2375 Y-3.2437 J1.125
G1 Y-0.35
Z-0.705
Y0.35
Z-0.84 F30
Y3.2437 F60
G2 X-3.1125 Y4.3687 I1.125
G1 X0.55
G2 X0.675 Y4.2437 J-0.125
G1 Y3.708
G2 X0.6384 Y3.6196 I-0.125
X0.7268 Y3.6562 I0.0884 J-0.0884
G1 X0.7375
G2 X0.7765 Y3.65 J-0.125
G1 X2.4485
G2 X2.4875 Y3.6562 I0.039 J-0.1188
G1 X2.4982
G2 X2.5866 Y3.6196 J-0.125
X2.55 Y3.708 I0.0884 J0.0884
G1 Y4.2437
G2 X2.675 Y4.3687 I0.125
G1 X4.1125
G2 X4.2375 Y4.2437 J-0.125
G1 Y2.4719
Z-0.705
Y1.7719
Z-0.84 F30
Y-1.7719 F60
Z-0.705
Y-2.4719
Z-0.84 F30
Y-4.2437 F60
G2 X4.1125 Y-4.3687 I-0.125
G1 X2.675
G2 X2.55 Y-4.2437 J0.125
G1 Y-3.708
G2 X2.5866 Y-3.6196 I0.125
X2.4982 Y-3.6562 I-0.0884 J0.0884
G1 X2.4875
G2 X2.4485 Y-3.65 J0.125
G1 X0.7765
G2 X0.7375 Y-3.6562 I-0.039 J0.1188
G1 X0.7268
G2 X0.6384 Y-3.6196 J0.125
X0.675 Y-3.708 I-0.0884 J-0.0884
G1 Y-4.2437
G2 X0.55 Y-4.3687 I-0.125
G1 X0
G0 Z0.1644
X-1.0125 Y1.05
G1 Z-0.125 F30
Y2.6357 F60
G2 X-0.9762 Y2.7238 I0.125
X-1.0643 Y2.6875 I-0.0881 J0.0887
G1 X-1.4357
G2 X-1.5238 Y2.7238 J0.125
X-1.4875 Y2.6357 I-0.0887 J-0.0881
G1 Y0.8643
G2 X-1.5238 Y0.7762 I-0.125
X-1.4357 Y0.8125 I0.0881 J-0.0887
G1 X-1.0643
G2 X-0.9762 Y0.7762 J-0.125
X-1.0125 Y0.8643 I0.0887 J0.0881
G1 Y1.05
Z-0.25 F30
Y2.6357 F60
G2 X-0.9762 Y2.7238 I0.125
X-1.0643 Y2.6875 I-0.0881 J0.0887
G1 X-1.4357
G2 X-1.5238 Y2.7238 J0.125
X-1.4875 Y2.6357 I-0.0887 J-0.0881
G1 Y0.8643
G2 X-1.5238 Y0.7762 I-0.125
X-1.4357 Y0.8125 I0.0881 J-0.0887
G1 X-1.0643
G2 X-0.9762 Y0.7762 J-0.125
X-1.0125 Y0.8643 I0.0887 J0.0881
G1 Y1.05
Z-0.375 F30
Y2.6357 F60
G2 X-0.9762 Y2.7238 I0.125
X-1.0643 Y2.6875 I-0.0881 J0.0887
G1 X-1.4357
G2 X-1.5238 Y2.7238 J0.125
X-1.4875 Y2.6357 I-0.0887 J-0.0881
G1 Y0.8643
G2 X-1.5238 Y0.7762 I-0.125
X-1.4357 Y0.8125 I0.0881 J-0.0887
G1 X-1.0643
G2 X-0.9762 Y0.7762 J-0.125
X-1.0125 Y0.8643 I0.0887 J0.0881
G1 Y1.05
Z-0.5 F30
Y2.6357 F60
G2 X-0.9762 Y2.7238 I0.125
X-1.0643 Y2.6875 I-0.0881 J0.0887
G1 X-1.4357
G2 X-1.5238 Y2.7238 J0.125
X-1.4875 Y2.6357 I-0.0887 J-0.0881
G1 Y0.8643
G2 X-1.5238 Y0.7762 I-0.125
X-1.4357 Y0.8125 I0.0881 J-0.0887
G1 X-1.0643
G2 X-0.9762 Y0.7762 J-0.125
X-1.0125 Y0.8643 I0.0887 J0.0881
G1 Y1.05
Z-0.625 F30
Y2.6357 F60
G2 X-0.9762 Y2.7238 I0.125
X-1.0643 Y2.6875 I-0.0881 J0.0887
G1 X-1.4357
G2 X-1.5238 Y2.7238 J0.125
X-1.4875 Y2.6357 I-0.0887 J-0.0881
G1 Y0.8643
G2 X-1.5238 Y0.7762 I-0.125
X-1.4357 Y0.8125 I0.0881 J-0.0887
G1 X-1.0643
G2 X-0.9762 Y0.7762 J-0.125
X-1.0125 Y0.8643 I0.0887 J0.0881
G1 Y1.05
Z-0.75 F30
Y2.6357 F60
G2 X-0.9762 Y2.7238 I0.125
X-1.0643 Y2.6875 I-0.0881 J0.0887
G1 X-1.4357
G2 X-1.5238 Y2.7238 J0.125
X-1.4875 Y2.6357 I-0.0887 J-0.0881
G1 Y0.8643
G2 X-1.5238 Y0.7762 I-0.125
X-1.4357 Y0.8125 I0.0881 J-0.0887
G1 X-1.0643
G2 X-0.9762 Y0.7762 J-0.125
X-1.0125 Y0.8643 I0.0887 J0.0881
G1 Y1.05
Z-0.84 F30
Y2.6357 F60
G2 X-0.9762 Y2.7238 I0.125
X-1.0643 Y2.6875 I-0.0881 J0.0887
G1 X-1.4357
G2 X-1.5238 Y2.7238 J0.125
X-1.4875 Y2.6357 I-0.0887 J-0.0881
G1 Y0.8643
G2 X-1.5238 Y0.7762 I-0.125
X-1.4357 Y0.8125 I0.0881 J-0.0887
G1 X-1.0643
G2 X-0.9762 Y0.7762 J-0.125
X-1.0125 Y0.8643 I0.0887 J0.0881
G1 Y1.05
G0 Z0.15
M9
G28 G91 Z0
G28 X0 Y0
M30
%
