%
(Router Sled - Sled_01)
(May 27th )
(T1  D=0.25 CR=0 - ZMIN=-0.84 - flat end mill)
G90 G94
G17
G20
G28 G91 Z0
G90

(2D Contour5)
M9
T1 M6
S10000 M3
G54
M9
G0 X-3.6688 Y-4.775
Z0.2394
G1 Z-0.175 F30
G18 G2 X-3.6438 Z-0.2 I0.025
G1 X-3.6188 F60
G17 G3 X-3.5938 Y-4.75 J0.025
G1 Y4.75
G2 X-2.2188 Y6.125 I1.375
G1 X2.2188
G2 X3.5938 Y4.75 J-1.375
G1 Y-4.75
G2 X2.2187 Y-6.125 I-1.375
G1 X-2.2188
G2 X-3.5938 Y-4.75 J1.375
G0 Z0.125
X-3.6688 Y-4.775
G1 Z-0.375 F30
G18 G2 X-3.6438 Z-0.4 I0.025
G1 X-3.6188 F60
G17 G3 X-3.5938 Y-4.75 J0.025
G1 Y4.75
G2 X-2.2188 Y6.125 I1.375
G1 X2.2188
G2 X3.5938 Y4.75 J-1.375
G1 Y-4.75
G2 X2.2187 Y-6.125 I-1.375
G1 X-2.2188
G2 X-3.5938 Y-4.75 J1.375
G0 Z0.125
X-3.6688 Y-4.775
G1 Z-0.575 F30
G18 G2 X-3.6438 Z-0.6 I0.025
G1 X-3.6188 F60
G17 G3 X-3.5938 Y-4.75 J0.025
G1 Y4.75
G2 X-2.2188 Y6.125 I1.375
G1 X2.2188
G2 X3.5938 Y4.75 J-1.375
G1 Y-4.75
G2 X2.2187 Y-6.125 I-1.375
G1 X-2.2188
G2 X-3.5938 Y-4.75 J1.375
G0 Z0.125
X-3.6688 Y-4.775
G1 Z-0.695 F30
G18 G2 X-3.6438 Z-0.72 I0.025
G1 X-3.6188 F60
G17 G3 X-3.5938 Y-4.75 J0.025
G1 Y-2.7
Z-0.705
Y-2.05
Z-0.72 F30
Y2.05 F60
Z-0.705
Y2.7
Z-0.72 F30
Y4.75 F60
G2 X-2.2188 Y6.125 I1.375
G1 X-0.325
Z-0.705
X0.325
Z-0.72 F30
X2.2188 F60
G2 X3.5938 Y4.75 J-1.375
G1 Y2.7
Z-0.705
Y2.05
Z-0.72 F30
Y-2.05 F60
Z-0.705
Y-2.7
Z-0.72 F30
Y-4.75 F60
G2 X2.2187 Y-6.125 I-1.375
G1 X0.325
Z-0.705
X-0.325
Z-0.72 F30
X-2.2188 F60
G2 X-3.5938 Y-4.75 J1.375
G0 Z0.125
X-3.6688 Y-4.775
G1 Z-0.815 F30
G18 G2 X-3.6438 Z-0.84 I0.025
G1 X-3.6188 F60
G17 G3 X-3.5938 Y-4.75 J0.025
G1 Y-2.7
Z-0.705
Y-2.05
Z-0.84 F30
Y2.05 F60
Z-0.705
Y2.7
Z-0.84 F30
Y4.75 F60
G2 X-2.2188 Y6.125 I1.375
G1 X-0.325
Z-0.705
X0.325
Z-0.84 F30
X2.2188 F60
G2 X3.5938 Y4.75 J-1.375
G1 Y2.7
Z-0.705
Y2.05
Z-0.84 F30
Y-2.05 F60
Z-0.705
Y-2.7
Z-0.84 F30
Y-4.75 F60
G2 X2.2187 Y-6.125 I-1.375
G1 X0.325
Z-0.705
X-0.325
Z-0.84 F30
X-2.2188 F60
G2 X-3.5938 Y-4.75 J1.375
G0 Z0.15

(Circular3)
M9
Z0.275
X1.8405 Y-2.0131
Z-0.085
G1 Z-0.14 F60
G18 G3 X1.8155 Z-0.165 I-0.025
G1 X1.803
G17 G3 X1.778 Y-2.0381 J-0.025
X2.178 I0.2
X1.778 I-0.2
X1.803 Y-2.0631 I0.025
G1 X1.8155
G18 G2 X1.8405 Z-0.14 K0.025
G0 Z0.125
Y-2.0131
Z-0.1475
G1 Z-0.2025 F60
G3 X1.8155 Z-0.2275 I-0.025
G1 X1.803
G17 G3 X1.778 Y-2.0381 J-0.025
X2.178 I0.2
X1.778 I-0.2
X1.803 Y-2.0631 I0.025
G1 X1.8155
G18 G2 X1.8405 Z-0.2025 K0.025
G0 Z0.125
Y-2.0131
Z-0.21
G1 Z-0.265 F60
G3 X1.8155 Z-0.29 I-0.025
G1 X1.803
G17 G3 X1.778 Y-2.0381 J-0.025
X2.178 I0.2
X1.778 I-0.2
X1.803 Y-2.0631 I0.025
G1 X1.8155
G18 G2 X1.8405 Z-0.265 K0.025
G0 Z0.125
X-2.1595 Y-2.0131
Z-0.085
G1 Z-0.14 F60
G3 X-2.1845 Z-0.165 I-0.025
G1 X-2.197
G17 G3 X-2.222 Y-2.0381 J-0.025
X-1.822 I0.2
X-2.222 I-0.2
X-2.197 Y-2.0631 I0.025
G1 X-2.1845
G18 G2 X-2.1595 Z-0.14 K0.025
G0 Z0.125
Y-2.0131
Z-0.1475
G1 Z-0.2025 F60
G3 X-2.1845 Z-0.2275 I-0.025
G1 X-2.197
G17 G3 X-2.222 Y-2.0381 J-0.025
X-1.822 I0.2
X-2.222 I-0.2
X-2.197 Y-2.0631 I0.025
G1 X-2.1845
G18 G2 X-2.1595 Z-0.2025 K0.025
G0 Z0.125
Y-2.0131
Z-0.21
G1 Z-0.265 F60
G3 X-2.1845 Z-0.29 I-0.025
G1 X-2.197
G17 G3 X-2.222 Y-2.0381 J-0.025
X-1.822 I0.2
X-2.222 I-0.2
X-2.197 Y-2.0631 I0.025
G1 X-2.1845
G18 G2 X-2.1595 Z-0.265 K0.025
G0 Z0.125
Y1.9869
Z-0.085
G1 Z-0.14 F60
G3 X-2.1845 Z-0.165 I-0.025
G1 X-2.197
G17 G3 X-2.222 Y1.9619 J-0.025
X-1.822 I0.2
X-2.222 I-0.2
X-2.197 Y1.9369 I0.025
G1 X-2.1845
G18 G2 X-2.1595 Z-0.14 K0.025
G0 Z0.125
Y1.9869
Z-0.1475
G1 Z-0.2025 F60
G3 X-2.1845 Z-0.2275 I-0.025
G1 X-2.197
G17 G3 X-2.222 Y1.9619 J-0.025
X-1.822 I0.2
X-2.222 I-0.2
X-2.197 Y1.9369 I0.025
G1 X-2.1845
G18 G2 X-2.1595 Z-0.2025 K0.025
G0 Z0.125
Y1.9869
Z-0.21
G1 Z-0.265 F60
G3 X-2.1845 Z-0.29 I-0.025
G1 X-2.197
G17 G3 X-2.222 Y1.9619 J-0.025
X-1.822 I0.2
X-2.222 I-0.2
X-2.197 Y1.9369 I0.025
G1 X-2.1845
G18 G2 X-2.1595 Z-0.265 K0.025
G0 Z0.125
X1.8405 Y1.9869
Z-0.085
G1 Z-0.14 F60
G3 X1.8155 Z-0.165 I-0.025
G1 X1.803
G17 G3 X1.778 Y1.9619 J-0.025
X2.178 I0.2
X1.778 I-0.2
X1.803 Y1.9369 I0.025
G1 X1.8155
G18 G2 X1.8405 Z-0.14 K0.025
G0 Z0.125
Y1.9869
Z-0.1475
G1 Z-0.2025 F60
G3 X1.8155 Z-0.2275 I-0.025
G1 X1.803
G17 G3 X1.778 Y1.9619 J-0.025
X2.178 I0.2
X1.778 I-0.2
X1.803 Y1.9369 I0.025
G1 X1.8155
G18 G2 X1.8405 Z-0.2025 K0.025
G0 Z0.125
Y1.9869
Z-0.21
G1 Z-0.265 F60
G3 X1.8155 Z-0.29 I-0.025
G1 X1.803
G17 G3 X1.778 Y1.9619 J-0.025
X2.178 I0.2
X1.778 I-0.2
X1.803 Y1.9369 I0.025
G1 X1.8155
G18 G2 X1.8405 Z-0.265 K0.025
G0 Z0.275
G17

(Drill3)
M9
G0 X1.978 Y-2.0381
Z0.275
Z0.125
Z-0.165
G1 Z-0.84 F30
G0 Z0.125
X-2.022
Z-0.165
G1 Z-0.84 F30
G0 Z0.125
Y1.9619
Z-0.165
G1 Z-0.84 F30
G0 Z0.125
X1.978
Z-0.165
G1 Z-0.84 F30
G0 Z0.125
Z0.275
M9
G28 G91 Z0
G28 X0 Y0
M30
%
