%
(Router Sled - Side_01)
(May 26th )
(T1  D=0.25 CR=0 - ZMIN=-0.84 - flat end mill)
G90 G94
G17
G20
G28 G91 Z0
G90

(2D Contour1)
M9
T1 M6
S10000 M3
G54
M9
G0 X19.2922 Y-2.2613
Z0.2394
G1 Z-0.2 F30
G2 X19.275 Y-2.2625 I-0.0172 J0.1238 F60
G1 X15.6143
G2 X15.5264 Y-2.2264 J0.125
X15.5625 Y-2.3143 I-0.0889 J-0.0879
G1 Y-2.8625
G2 X15.4375 Y-2.9875 I-0.125
G1 X12.5625
G2 X12.4375 Y-2.8625 J0.125
G1 Y-2.3143
G2 X12.4741 Y-2.2259 I0.125
X12.3857 Y-2.2625 I-0.0884 J0.0884
G1 X8.6143
G2 X8.5264 Y-2.2264 J0.125
X8.5625 Y-2.3143 I-0.0889 J-0.0879
G1 Y-2.8625
G2 X8.4375 Y-2.9875 I-0.125
G1 X5.5625
G2 X5.4375 Y-2.8625 J0.125
G1 Y-2.3143
G2 X5.4741 Y-2.2259 I0.125
X5.3857 Y-2.2625 I-0.0884 J0.0884
G1 X1.6143
G2 X1.5262 Y-2.2262 J0.125
X1.5625 Y-2.3143 I-0.0887 J-0.0881
G1 Y-2.8625
G2 X1.4375 Y-2.9875 I-0.125
G1 X-1.4375
G2 X-1.5625 Y-2.8625 J0.125
G1 Y-2.3143
G2 X-1.5262 Y-2.2262 I0.125
X-1.6143 Y-2.2625 I-0.0881 J0.0887
G1 X-5.3857
G2 X-5.4736 Y-2.2264 J0.125
X-5.4375 Y-2.3143 I-0.0889 J-0.0879
G1 Y-2.8625
G2 X-5.5625 Y-2.9875 I-0.125
G1 X-8.4375
G2 X-8.5625 Y-2.8625 J0.125
G1 Y-2.3143
G2 X-8.5259 Y-2.2259 I0.125
X-8.6143 Y-2.2625 I-0.0884 J0.0884
G1 X-12.3857
G2 X-12.4741 Y-2.2259 J0.125
X-12.4375 Y-2.3143 I-0.0884 J-0.0884
G1 Y-2.8625
G2 X-12.5625 Y-2.9875 I-0.125
G1 X-15.4375
G2 X-15.5625 Y-2.8625 J0.125
G1 Y-2.3143
G2 X-15.5264 Y-2.2264 I0.125
X-15.6143 Y-2.2625 I-0.0879 J0.0889
G1 X-19.275
G2 X-19.4 Y-2.1375 J0.125
G1 Y-0.8143
G2 X-19.3639 Y-0.7264 I0.125
X-19.4518 Y-0.7625 I-0.0879 J0.0889
G1 X-19.875
G2 X-20.125 Y-0.5125 J0.25
G1 Y1.2375
G2 X-19.875 Y1.4875 I0.25
G1 X-19.4518
G2 X-19.3639 Y1.4514 J-0.125
X-19.4 Y1.5393 I0.0889 J0.0879
G1 Y2.8625
G2 X-19.275 Y2.9875 I0.125
G1 X19.275
G2 X19.4 Y2.8625 J-0.125
G1 Y1.5393
G2 X19.3639 Y1.4514 I-0.125
X19.4518 Y1.4875 I0.0879 J-0.0889
G1 X19.875
G2 X20.125 Y1.2375 J-0.25
G1 Y-0.5125
G2 X19.875 Y-0.7625 I-0.25
G1 X19.4518
G2 X19.3639 Y-0.7264 J0.125
X19.4 Y-0.8143 I-0.0889 J-0.0879
G1 Y-2.1375
G2 X19.2922 Y-2.2613 I-0.125
G1 Z-0.4 F30
G2 X19.275 Y-2.2625 I-0.0172 J0.1238 F60
G1 X15.6143
G2 X15.5264 Y-2.2264 J0.125
X15.5625 Y-2.3143 I-0.0889 J-0.0879
G1 Y-2.8625
G2 X15.4375 Y-2.9875 I-0.125
G1 X12.5625
G2 X12.4375 Y-2.8625 J0.125
G1 Y-2.3143
G2 X12.4741 Y-2.2259 I0.125
X12.3857 Y-2.2625 I-0.0884 J0.0884
G1 X8.6143
G2 X8.5264 Y-2.2264 J0.125
X8.5625 Y-2.3143 I-0.0889 J-0.0879
G1 Y-2.8625
G2 X8.4375 Y-2.9875 I-0.125
G1 X5.5625
G2 X5.4375 Y-2.8625 J0.125
G1 Y-2.3143
G2 X5.4741 Y-2.2259 I0.125
X5.3857 Y-2.2625 I-0.0884 J0.0884
G1 X1.6143
G2 X1.5262 Y-2.2262 J0.125
X1.5625 Y-2.3143 I-0.0887 J-0.0881
G1 Y-2.8625
G2 X1.4375 Y-2.9875 I-0.125
G1 X-1.4375
G2 X-1.5625 Y-2.8625 J0.125
G1 Y-2.3143
G2 X-1.5262 Y-2.2262 I0.125
X-1.6143 Y-2.2625 I-0.0881 J0.0887
G1 X-5.3857
G2 X-5.4736 Y-2.2264 J0.125
X-5.4375 Y-2.3143 I-0.0889 J-0.0879
G1 Y-2.8625
G2 X-5.5625 Y-2.9875 I-0.125
G1 X-8.4375
G2 X-8.5625 Y-2.8625 J0.125
G1 Y-2.3143
G2 X-8.5259 Y-2.2259 I0.125
X-8.6143 Y-2.2625 I-0.0884 J0.0884
G1 X-12.3857
G2 X-12.4741 Y-2.2259 J0.125
X-12.4375 Y-2.3143 I-0.0884 J-0.0884
G1 Y-2.8625
G2 X-12.5625 Y-2.9875 I-0.125
G1 X-15.4375
G2 X-15.5625 Y-2.8625 J0.125
G1 Y-2.3143
G2 X-15.5264 Y-2.2264 I0.125
X-15.6143 Y-2.2625 I-0.0879 J0.0889
G1 X-19.275
G2 X-19.4 Y-2.1375 J0.125
G1 Y-0.8143
G2 X-19.3639 Y-0.7264 I0.125
X-19.4518 Y-0.7625 I-0.0879 J0.0889
G1 X-19.875
G2 X-20.125 Y-0.5125 J0.25
G1 Y1.2375
G2 X-19.875 Y1.4875 I0.25
G1 X-19.4518
G2 X-19.3639 Y1.4514 J-0.125
X-19.4 Y1.5393 I0.0889 J0.0879
G1 Y2.8625
G2 X-19.275 Y2.9875 I0.125
G1 X19.275
G2 X19.4 Y2.8625 J-0.125
G1 Y1.5393
G2 X19.3639 Y1.4514 I-0.125
X19.4518 Y1.4875 I0.0879 J-0.0889
G1 X19.875
G2 X20.125 Y1.2375 J-0.25
G1 Y-0.5125
G2 X19.875 Y-0.7625 I-0.25
G1 X19.4518
G2 X19.3639 Y-0.7264 J0.125
X19.4 Y-0.8143 I-0.0889 J-0.0879
G1 Y-2.1375
G2 X19.2922 Y-2.2613 I-0.125
G1 Z-0.6 F30
G2 X19.275 Y-2.2625 I-0.0172 J0.1238 F60
G1 X15.6143
G2 X15.5264 Y-2.2264 J0.125
X15.5625 Y-2.3143 I-0.0889 J-0.0879
G1 Y-2.8625
G2 X15.4375 Y-2.9875 I-0.125
G1 X12.5625
G2 X12.4375 Y-2.8625 J0.125
G1 Y-2.3143
G2 X12.4741 Y-2.2259 I0.125
X12.3857 Y-2.2625 I-0.0884 J0.0884
G1 X8.6143
G2 X8.5264 Y-2.2264 J0.125
X8.5625 Y-2.3143 I-0.0889 J-0.0879
G1 Y-2.8625
G2 X8.4375 Y-2.9875 I-0.125
G1 X5.5625
G2 X5.4375 Y-2.8625 J0.125
G1 Y-2.3143
G2 X5.4741 Y-2.2259 I0.125
X5.3857 Y-2.2625 I-0.0884 J0.0884
G1 X1.6143
G2 X1.5262 Y-2.2262 J0.125
X1.5625 Y-2.3143 I-0.0887 J-0.0881
G1 Y-2.8625
G2 X1.4375 Y-2.9875 I-0.125
G1 X-1.4375
G2 X-1.5625 Y-2.8625 J0.125
G1 Y-2.3143
G2 X-1.5262 Y-2.2262 I0.125
X-1.6143 Y-2.2625 I-0.0881 J0.0887
G1 X-5.3857
G2 X-5.4736 Y-2.2264 J0.125
X-5.4375 Y-2.3143 I-0.0889 J-0.0879
G1 Y-2.8625
G2 X-5.5625 Y-2.9875 I-0.125
G1 X-8.4375
G2 X-8.5625 Y-2.8625 J0.125
G1 Y-2.3143
G2 X-8.5259 Y-2.2259 I0.125
X-8.6143 Y-2.2625 I-0.0884 J0.0884
G1 X-12.3857
G2 X-12.4741 Y-2.2259 J0.125
X-12.4375 Y-2.3143 I-0.0884 J-0.0884
G1 Y-2.8625
G2 X-12.5625 Y-2.9875 I-0.125
G1 X-15.4375
G2 X-15.5625 Y-2.8625 J0.125
G1 Y-2.3143
G2 X-15.5264 Y-2.2264 I0.125
X-15.6143 Y-2.2625 I-0.0879 J0.0889
G1 X-19.275
G2 X-19.4 Y-2.1375 J0.125
G1 Y-0.8143
G2 X-19.3639 Y-0.7264 I0.125
X-19.4518 Y-0.7625 I-0.0879 J0.0889
G1 X-19.875
G2 X-20.125 Y-0.5125 J0.25
G1 Y1.2375
G2 X-19.875 Y1.4875 I0.25
G1 X-19.4518
G2 X-19.3639 Y1.4514 J-0.125
X-19.4 Y1.5393 I0.0889 J0.0879
G1 Y2.8625
G2 X-19.275 Y2.9875 I0.125
G1 X19.275
G2 X19.4 Y2.8625 J-0.125
G1 Y1.5393
G2 X19.3639 Y1.4514 I-0.125
X19.4518 Y1.4875 I0.0879 J-0.0889
G1 X19.875
G2 X20.125 Y1.2375 J-0.25
G1 Y-0.5125
G2 X19.875 Y-0.7625 I-0.25
G1 X19.4518
G2 X19.3639 Y-0.7264 J0.125
X19.4 Y-0.8143 I-0.0889 J-0.0879
G1 Y-2.1375
G2 X19.2922 Y-2.2613 I-0.125
G1 Z-0.72 F30
G2 X19.275 Y-2.2625 I-0.0172 J0.1238 F60
G1 X15.6143
G2 X15.5264 Y-2.2264 J0.125
X15.5625 Y-2.3143 I-0.0889 J-0.0879
G1 Y-2.8625
G2 X15.4375 Y-2.9875 I-0.125
G1 X12.5625
G2 X12.4375 Y-2.8625 J0.125
G1 Y-2.3143
G2 X12.4741 Y-2.2259 I0.125
X12.3857 Y-2.2625 I-0.0884 J0.0884
G1 X8.6143
G2 X8.5264 Y-2.2264 J0.125
X8.5625 Y-2.3143 I-0.0889 J-0.0879
G1 Y-2.8625
G2 X8.4375 Y-2.9875 I-0.125
G1 X5.5625
G2 X5.4375 Y-2.8625 J0.125
G1 Y-2.3143
G2 X5.4741 Y-2.2259 I0.125
X5.3857 Y-2.2625 I-0.0884 J0.0884
G1 X1.6143
G2 X1.5262 Y-2.2262 J0.125
X1.5625 Y-2.3143 I-0.0887 J-0.0881
G1 Y-2.8625
G2 X1.4375 Y-2.9875 I-0.125
G1 X-1.4375
G2 X-1.5625 Y-2.8625 J0.125
G1 Y-2.3143
G2 X-1.5262 Y-2.2262 I0.125
X-1.6143 Y-2.2625 I-0.0881 J0.0887
G1 X-5.3857
G2 X-5.4736 Y-2.2264 J0.125
X-5.4375 Y-2.3143 I-0.0889 J-0.0879
G1 Y-2.8625
G2 X-5.5625 Y-2.9875 I-0.125
G1 X-8.4375
G2 X-8.5625 Y-2.8625 J0.125
G1 Y-2.3143
G2 X-8.5259 Y-2.2259 I0.125
X-8.6143 Y-2.2625 I-0.0884 J0.0884
G1 X-12.3857
G2 X-12.4741 Y-2.2259 J0.125
X-12.4375 Y-2.3143 I-0.0884 J-0.0884
G1 Y-2.8625
G2 X-12.5625 Y-2.9875 I-0.125
G1 X-15.4375
G2 X-15.5625 Y-2.8625 J0.125
G1 Y-2.3143
G2 X-15.5264 Y-2.2264 I0.125
X-15.6143 Y-2.2625 I-0.0879 J0.0889
G1 X-19.275
G2 X-19.4 Y-2.1375 J0.125
G1 Y-0.8143
G2 X-19.3639 Y-0.7264 I0.125
X-19.4518 Y-0.7625 I-0.0879 J0.0889
G1 X-19.875
G2 X-20.125 Y-0.5125 J0.25
G1 Y1.2375
G2 X-19.875 Y1.4875 I0.25
G1 X-19.4518
G2 X-19.3639 Y1.4514 J-0.125
X-19.4 Y1.5393 I0.0889 J0.0879
G1 Y2.8625
G2 X-19.275 Y2.9875 I0.125
G1 X-14.7813
Z-0.705
X-14.1313
Z-0.72 F30
X-5.1437 F60
Z-0.705
X-4.4937
Z-0.72 F30
X4.4937 F60
Z-0.705
X5.1437
Z-0.72 F30
X14.1313 F60
Z-0.705
X14.7813
Z-0.72 F30
X19.275 F60
G2 X19.4 Y2.8625 J-0.125
G1 Y1.5393
G2 X19.3639 Y1.4514 I-0.125
X19.4518 Y1.4875 I0.0879 J-0.0889
G1 X19.875
G2 X20.125 Y1.2375 J-0.25
G1 Y-0.5125
G2 X19.875 Y-0.7625 I-0.25
G1 X19.4518
G2 X19.3639 Y-0.7264 J0.125
X19.4 Y-0.8143 I-0.0889 J-0.0879
G1 Y-2.1375
G2 X19.2922 Y-2.2613 I-0.125
G1 Z-0.84 F30
G2 X19.275 Y-2.2625 I-0.0172 J0.1238 F60
G1 X15.6143
G2 X15.5264 Y-2.2264 J0.125
X15.5625 Y-2.3143 I-0.0889 J-0.0879
G1 Y-2.8625
G2 X15.4375 Y-2.9875 I-0.125
G1 X12.5625
G2 X12.4375 Y-2.8625 J0.125
G1 Y-2.3143
G2 X12.4741 Y-2.2259 I0.125
X12.3857 Y-2.2625 I-0.0884 J0.0884
G1 X8.6143
G2 X8.5264 Y-2.2264 J0.125
X8.5625 Y-2.3143 I-0.0889 J-0.0879
G1 Y-2.8625
G2 X8.4375 Y-2.9875 I-0.125
G1 X5.5625
G2 X5.4375 Y-2.8625 J0.125
G1 Y-2.3143
G2 X5.4741 Y-2.2259 I0.125
X5.3857 Y-2.2625 I-0.0884 J0.0884
G1 X1.6143
G2 X1.5262 Y-2.2262 J0.125
X1.5625 Y-2.3143 I-0.0887 J-0.0881
G1 Y-2.8625
G2 X1.4375 Y-2.9875 I-0.125
G1 X-1.4375
G2 X-1.5625 Y-2.8625 J0.125
G1 Y-2.3143
G2 X-1.5262 Y-2.2262 I0.125
X-1.6143 Y-2.2625 I-0.0881 J0.0887
G1 X-5.3857
G2 X-5.4736 Y-2.2264 J0.125
X-5.4375 Y-2.3143 I-0.0889 J-0.0879
G1 Y-2.8625
G2 X-5.5625 Y-2.9875 I-0.125
G1 X-8.4375
G2 X-8.5625 Y-2.8625 J0.125
G1 Y-2.3143
G2 X-8.5259 Y-2.2259 I0.125
X-8.6143 Y-2.2625 I-0.0884 J0.0884
G1 X-12.3857
G2 X-12.4741 Y-2.2259 J0.125
X-12.4375 Y-2.3143 I-0.0884 J-0.0884
G1 Y-2.8625
G2 X-12.5625 Y-2.9875 I-0.125
G1 X-15.4375
G2 X-15.5625 Y-2.8625 J0.125
G1 Y-2.3143
G2 X-15.5264 Y-2.2264 I0.125
X-15.6143 Y-2.2625 I-0.0879 J0.0889
G1 X-19.275
G2 X-19.4 Y-2.1375 J0.125
G1 Y-0.8143
G2 X-19.3639 Y-0.7264 I0.125
X-19.4518 Y-0.7625 I-0.0879 J0.0889
G1 X-19.875
G2 X-20.125 Y-0.5125 J0.25
G1 Y1.2375
G2 X-19.875 Y1.4875 I0.25
G1 X-19.4518
G2 X-19.3639 Y1.4514 J-0.125
X-19.4 Y1.5393 I0.0889 J0.0879
G1 Y2.8625
G2 X-19.275 Y2.9875 I0.125
G1 X-14.7813
Z-0.705
X-14.1313
Z-0.84 F30
X-5.1437 F60
Z-0.705
X-4.4937
Z-0.84 F30
X4.4937 F60
Z-0.705
X5.1437
Z-0.84 F30
X14.1313 F60
Z-0.705
X14.7813
Z-0.84 F30
X19.275 F60
G2 X19.4 Y2.8625 J-0.125
G1 Y1.5393
G2 X19.3639 Y1.4514 I-0.125
X19.4518 Y1.4875 I0.0879 J-0.0889
G1 X19.875
G2 X20.125 Y1.2375 J-0.25
G1 Y-0.5125
G2 X19.875 Y-0.7625 I-0.25
G1 X19.4518
G2 X19.3639 Y-0.7264 J0.125
X19.4 Y-0.8143 I-0.0889 J-0.0879
G1 Y-2.1375
G2 X19.2922 Y-2.2613 I-0.125
G0 Z0.15
M9
G28 G91 Z0
G28 X0 Y0
M30
%
