%
(Router Sled - Base_01)
(May 26th )
(T1  D=0.25 CR=0 - ZMIN=-0.84 - flat end mill)
G90 G94
G17
G20
G28 G91 Z0
G90

(2D Contour2)
M9
T1 M6
S10000 M3
G54
M9
G0 X15.875 Y0
Z0.2394
G1 Z-0.2 F30
G2 X15 Y-0.875 I-0.875 F60
G1 X-15
G2 Y0.875 J0.875
G1 X15
G2 X15.875 Y0 J-0.875
G1 Z-0.4 F30
G2 X15 Y-0.875 I-0.875 F60
G1 X-15
G2 Y0.875 J0.875
G1 X15
G2 X15.875 Y0 J-0.875
G1 Z-0.6 F30
G2 X15 Y-0.875 I-0.875 F60
G1 X-15
G2 Y0.875 J0.875
G1 X15
G2 X15.875 Y0 J-0.875
G1 Z-0.715 F30
G2 X15 Y-0.875 I-0.875 F60
G1 X-15
G2 Y0.875 J0.875
G1 X15
G2 X15.875 Y0 J-0.875
G1 Z-0.84 F30
G2 X15 Y-0.875 I-0.875 F60
G1 X13.1821
Z-0.715
X12.5321
Z-0.84 F30
X8.8964 F60
Z-0.715
X8.2464
Z-0.84 F30
X4.6107 F60
Z-0.715
X3.9607
Z-0.84 F30
X0.325 F60
Z-0.715
X-0.325
Z-0.84 F30
X-3.9607 F60
Z-0.715
X-4.6107
Z-0.84 F30
X-8.2464 F60
Z-0.715
X-8.8964
Z-0.84 F30
X-12.5321 F60
Z-0.715
X-13.1821
Z-0.84 F30
X-15 F60
G2 Y0.875 J0.875
G1 X-13.1821
Z-0.715
X-12.5321
Z-0.84 F30
X-8.8964 F60
Z-0.715
X-8.2464
Z-0.84 F30
X-4.6107 F60
Z-0.715
X-3.9607
Z-0.84 F30
X-0.325 F60
Z-0.715
X0.325
Z-0.84 F30
X3.9607 F60
Z-0.715
X4.6107
Z-0.84 F30
X8.2464 F60
Z-0.715
X8.8964
Z-0.84 F30
X12.5321 F60
Z-0.715
X13.1821
Z-0.84 F30
X15 F60
G2 X15.875 Y0 J-0.875
G0 Z0.2394
X19.275 Y4.375
G1 Z-0.2 F30
X15.5 F60
G3 X15.375 Y4.25 J-0.125
G1 Y3.7018
G3 X15.4111 Y3.6139 I0.125
X15.3232 Y3.65 I-0.0879 J-0.0889
G1 X12.6768
G3 X12.5889 Y3.6139 J-0.125
X12.625 Y3.7018 I-0.0889 J0.0879
G1 Y4.25
G3 X12.5 Y4.375 I-0.125
G1 X8.5
G3 X8.375 Y4.25 J-0.125
G1 Y3.7018
G3 X8.4111 Y3.6139 I0.125
X8.3232 Y3.65 I-0.0879 J-0.0889
G1 X5.6768
G3 X5.5889 Y3.6139 J-0.125
X5.625 Y3.7018 I-0.0889 J0.0879
G1 Y4.25
G3 X5.5 Y4.375 I-0.125
G1 X1.5
G3 X1.375 Y4.25 J-0.125
G1 Y3.7018
G3 X1.4113 Y3.6137 I0.125
X1.3232 Y3.65 I-0.0881 J-0.0887
G1 X-1.3232
G3 X-1.4113 Y3.6137 J-0.125
X-1.375 Y3.7018 I-0.0887 J0.0881
G1 Y4.25
G3 X-1.5 Y4.375 I-0.125
G1 X-5.5
G3 X-5.625 Y4.25 J-0.125
G1 Y3.7018
G3 X-5.5889 Y3.6139 I0.125
X-5.6768 Y3.65 I-0.0879 J-0.0889
G1 X-8.3232
G3 X-8.4111 Y3.6139 J-0.125
X-8.375 Y3.7018 I-0.0889 J0.0879
G1 Y4.25
G3 X-8.5 Y4.375 I-0.125
G1 X-12.5
G3 X-12.625 Y4.25 J-0.125
G1 Y3.7018
G3 X-12.5889 Y3.6139 I0.125
X-12.6768 Y3.65 I-0.0879 J-0.0889
G1 X-15.3232
G3 X-15.4111 Y3.6139 J-0.125
X-15.375 Y3.7018 I-0.0889 J0.0879
G1 Y4.25
G3 X-15.5 Y4.375 I-0.125
G1 X-19.275
G3 X-19.4 Y4.25 J-0.125
G1 Y2.9268
G3 X-19.3639 Y2.8389 I0.125
X-19.4518 Y2.875 I-0.0879 J-0.0889
G1 X-19.875
G3 X-20.125 Y2.625 J-0.25
G1 Y0.875
G3 X-19.875 Y0.625 I0.25
G1 X-19.4518
G3 X-19.3639 Y0.6611 J0.125
X-19.4 Y0.5732 I0.0889 J-0.0879
G1 Y-0.5732
G3 X-19.3639 Y-0.6611 I0.125
X-19.4518 Y-0.625 I-0.0879 J-0.0889
G1 X-19.875
G3 X-20.125 Y-0.875 J-0.25
G1 Y-2.625
G3 X-19.875 Y-2.875 I0.25
G1 X-19.4518
G3 X-19.3639 Y-2.8389 J0.125
X-19.4 Y-2.9268 I0.0889 J-0.0879
G1 Y-4.25
G3 X-19.275 Y-4.375 I0.125
G1 X-15.5
G3 X-15.375 Y-4.25 J0.125
G1 Y-3.7018
G3 X-15.4111 Y-3.6139 I-0.125
X-15.3232 Y-3.65 I0.0879 J0.0889
G1 X-12.6768
G3 X-12.5889 Y-3.6139 J0.125
X-12.625 Y-3.7018 I0.0889 J-0.0879
G1 Y-4.25
G3 X-12.5 Y-4.375 I0.125
G1 X-8.5
G3 X-8.375 Y-4.25 J0.125
G1 Y-3.7018
G3 X-8.4111 Y-3.6139 I-0.125
X-8.3232 Y-3.65 I0.0879 J0.0889
G1 X-5.6768
G3 X-5.5889 Y-3.6139 J0.125
X-5.625 Y-3.7018 I0.0889 J-0.0879
G1 Y-4.25
G3 X-5.5 Y-4.375 I0.125
G1 X-1.5
G3 X-1.375 Y-4.25 J0.125
G1 Y-3.7018
G3 X-1.4113 Y-3.6137 I-0.125
X-1.3232 Y-3.65 I0.0881 J0.0887
G1 X1.3232
G3 X1.4113 Y-3.6137 J0.125
X1.375 Y-3.7018 I0.0887 J-0.0881
G1 Y-4.25
G3 X1.5 Y-4.375 I0.125
G1 X5.5
G3 X5.625 Y-4.25 J0.125
G1 Y-3.7018
G3 X5.5889 Y-3.6139 I-0.125
X5.6768 Y-3.65 I0.0879 J0.0889
G1 X8.3232
G3 X8.4111 Y-3.6139 J0.125
X8.375 Y-3.7018 I0.0889 J-0.0879
G1 Y-4.25
G3 X8.5 Y-4.375 I0.125
G1 X12.5
G3 X12.625 Y-4.25 J0.125
G1 Y-3.7018
G3 X12.5889 Y-3.6139 I-0.125
X12.6768 Y-3.65 I0.0879 J0.0889
G1 X15.3232
G3 X15.4111 Y-3.6139 J0.125
X15.375 Y-3.7018 I0.0889 J-0.0879
G1 Y-4.25
G3 X15.5 Y-4.375 I0.125
G1 X19.275
G3 X19.4 Y-4.25 J0.125
G1 Y-2.9268
G3 X19.3639 Y-2.8389 I-0.125
X19.4518 Y-2.875 I0.0879 J0.0889
G1 X19.875
G3 X20.125 Y-2.625 J0.25
G1 Y-0.875
G3 X19.875 Y-0.625 I-0.25
G1 X19.4518
G3 X19.3639 Y-0.6611 J-0.125
X19.4 Y-0.5732 I-0.0889 J0.0879
G1 Y0.5732
G3 X19.3639 Y0.6611 I-0.125
X19.4518 Y0.625 I0.0879 J0.0889
G1 X19.875
G3 X20.125 Y0.875 J0.25
G1 Y2.625
G3 X19.875 Y2.875 I-0.25
G1 X19.4518
G3 X19.3639 Y2.8389 J-0.125
X19.4 Y2.9268 I-0.0889 J0.0879
G1 Y4.25
G3 X19.275 Y4.375 I-0.125
G1 Z-0.4 F30
X15.5 F60
G3 X15.375 Y4.25 J-0.125
G1 Y3.7018
G3 X15.4111 Y3.6139 I0.125
X15.3232 Y3.65 I-0.0879 J-0.0889
G1 X12.6768
G3 X12.5889 Y3.6139 J-0.125
X12.625 Y3.7018 I-0.0889 J0.0879
G1 Y4.25
G3 X12.5 Y4.375 I-0.125
G1 X8.5
G3 X8.375 Y4.25 J-0.125
G1 Y3.7018
G3 X8.4111 Y3.6139 I0.125
X8.3232 Y3.65 I-0.0879 J-0.0889
G1 X5.6768
G3 X5.5889 Y3.6139 J-0.125
X5.625 Y3.7018 I-0.0889 J0.0879
G1 Y4.25
G3 X5.5 Y4.375 I-0.125
G1 X1.5
G3 X1.375 Y4.25 J-0.125
G1 Y3.7018
G3 X1.4113 Y3.6137 I0.125
X1.3232 Y3.65 I-0.0881 J-0.0887
G1 X-1.3232
G3 X-1.4113 Y3.6137 J-0.125
X-1.375 Y3.7018 I-0.0887 J0.0881
G1 Y4.25
G3 X-1.5 Y4.375 I-0.125
G1 X-5.5
G3 X-5.625 Y4.25 J-0.125
G1 Y3.7018
G3 X-5.5889 Y3.6139 I0.125
X-5.6768 Y3.65 I-0.0879 J-0.0889
G1 X-8.3232
G3 X-8.4111 Y3.6139 J-0.125
X-8.375 Y3.7018 I-0.0889 J0.0879
G1 Y4.25
G3 X-8.5 Y4.375 I-0.125
G1 X-12.5
G3 X-12.625 Y4.25 J-0.125
G1 Y3.7018
G3 X-12.5889 Y3.6139 I0.125
X-12.6768 Y3.65 I-0.0879 J-0.0889
G1 X-15.3232
G3 X-15.4111 Y3.6139 J-0.125
X-15.375 Y3.7018 I-0.0889 J0.0879
G1 Y4.25
G3 X-15.5 Y4.375 I-0.125
G1 X-19.275
G3 X-19.4 Y4.25 J-0.125
G1 Y2.9268
G3 X-19.3639 Y2.8389 I0.125
X-19.4518 Y2.875 I-0.0879 J-0.0889
G1 X-19.875
G3 X-20.125 Y2.625 J-0.25
G1 Y0.875
G3 X-19.875 Y0.625 I0.25
G1 X-19.4518
G3 X-19.3639 Y0.6611 J0.125
X-19.4 Y0.5732 I0.0889 J-0.0879
G1 Y-0.5732
G3 X-19.3639 Y-0.6611 I0.125
X-19.4518 Y-0.625 I-0.0879 J-0.0889
G1 X-19.875
G3 X-20.125 Y-0.875 J-0.25
G1 Y-2.625
G3 X-19.875 Y-2.875 I0.25
G1 X-19.4518
G3 X-19.3639 Y-2.8389 J0.125
X-19.4 Y-2.9268 I0.0889 J-0.0879
G1 Y-4.25
G3 X-19.275 Y-4.375 I0.125
G1 X-15.5
G3 X-15.375 Y-4.25 J0.125
G1 Y-3.7018
G3 X-15.4111 Y-3.6139 I-0.125
X-15.3232 Y-3.65 I0.0879 J0.0889
G1 X-12.6768
G3 X-12.5889 Y-3.6139 J0.125
X-12.625 Y-3.7018 I0.0889 J-0.0879
G1 Y-4.25
G3 X-12.5 Y-4.375 I0.125
G1 X-8.5
G3 X-8.375 Y-4.25 J0.125
G1 Y-3.7018
G3 X-8.4111 Y-3.6139 I-0.125
X-8.3232 Y-3.65 I0.0879 J0.0889
G1 X-5.6768
G3 X-5.5889 Y-3.6139 J0.125
X-5.625 Y-3.7018 I0.0889 J-0.0879
G1 Y-4.25
G3 X-5.5 Y-4.375 I0.125
G1 X-1.5
G3 X-1.375 Y-4.25 J0.125
G1 Y-3.7018
G3 X-1.4113 Y-3.6137 I-0.125
X-1.3232 Y-3.65 I0.0881 J0.0887
G1 X1.3232
G3 X1.4113 Y-3.6137 J0.125
X1.375 Y-3.7018 I0.0887 J-0.0881
G1 Y-4.25
G3 X1.5 Y-4.375 I0.125
G1 X5.5
G3 X5.625 Y-4.25 J0.125
G1 Y-3.7018
G3 X5.5889 Y-3.6139 I-0.125
X5.6768 Y-3.65 I0.0879 J0.0889
G1 X8.3232
G3 X8.4111 Y-3.6139 J0.125
X8.375 Y-3.7018 I0.0889 J-0.0879
G1 Y-4.25
G3 X8.5 Y-4.375 I0.125
G1 X12.5
G3 X12.625 Y-4.25 J0.125
G1 Y-3.7018
G3 X12.5889 Y-3.6139 I-0.125
X12.6768 Y-3.65 I0.0879 J0.0889
G1 X15.3232
G3 X15.4111 Y-3.6139 J0.125
X15.375 Y-3.7018 I0.0889 J-0.0879
G1 Y-4.25
G3 X15.5 Y-4.375 I0.125
G1 X19.275
G3 X19.4 Y-4.25 J0.125
G1 Y-2.9268
G3 X19.3639 Y-2.8389 I-0.125
X19.4518 Y-2.875 I0.0879 J0.0889
G1 X19.875
G3 X20.125 Y-2.625 J0.25
G1 Y-0.875
G3 X19.875 Y-0.625 I-0.25
G1 X19.4518
G3 X19.3639 Y-0.6611 J-0.125
X19.4 Y-0.5732 I-0.0889 J0.0879
G1 Y0.5732
G3 X19.3639 Y0.6611 I-0.125
X19.4518 Y0.625 I0.0879 J0.0889
G1 X19.875
G3 X20.125 Y0.875 J0.25
G1 Y2.625
G3 X19.875 Y2.875 I-0.25
G1 X19.4518
G3 X19.3639 Y2.8389 J-0.125
X19.4 Y2.9268 I-0.0889 J0.0879
G1 Y4.25
G3 X19.275 Y4.375 I-0.125
G1 Z-0.6 F30
X15.5 F60
G3 X15.375 Y4.25 J-0.125
G1 Y3.7018
G3 X15.4111 Y3.6139 I0.125
X15.3232 Y3.65 I-0.0879 J-0.0889
G1 X12.6768
G3 X12.5889 Y3.6139 J-0.125
X12.625 Y3.7018 I-0.0889 J0.0879
G1 Y4.25
G3 X12.5 Y4.375 I-0.125
G1 X8.5
G3 X8.375 Y4.25 J-0.125
G1 Y3.7018
G3 X8.4111 Y3.6139 I0.125
X8.3232 Y3.65 I-0.0879 J-0.0889
G1 X5.6768
G3 X5.5889 Y3.6139 J-0.125
X5.625 Y3.7018 I-0.0889 J0.0879
G1 Y4.25
G3 X5.5 Y4.375 I-0.125
G1 X1.5
G3 X1.375 Y4.25 J-0.125
G1 Y3.7018
G3 X1.4113 Y3.6137 I0.125
X1.3232 Y3.65 I-0.0881 J-0.0887
G1 X-1.3232
G3 X-1.4113 Y3.6137 J-0.125
X-1.375 Y3.7018 I-0.0887 J0.0881
G1 Y4.25
G3 X-1.5 Y4.375 I-0.125
G1 X-5.5
G3 X-5.625 Y4.25 J-0.125
G1 Y3.7018
G3 X-5.5889 Y3.6139 I0.125
X-5.6768 Y3.65 I-0.0879 J-0.0889
G1 X-8.3232
G3 X-8.4111 Y3.6139 J-0.125
X-8.375 Y3.7018 I-0.0889 J0.0879
G1 Y4.25
G3 X-8.5 Y4.375 I-0.125
G1 X-12.5
G3 X-12.625 Y4.25 J-0.125
G1 Y3.7018
G3 X-12.5889 Y3.6139 I0.125
X-12.6768 Y3.65 I-0.0879 J-0.0889
G1 X-15.3232
G3 X-15.4111 Y3.6139 J-0.125
X-15.375 Y3.7018 I-0.0889 J0.0879
G1 Y4.25
G3 X-15.5 Y4.375 I-0.125
G1 X-19.275
G3 X-19.4 Y4.25 J-0.125
G1 Y2.9268
G3 X-19.3639 Y2.8389 I0.125
X-19.4518 Y2.875 I-0.0879 J-0.0889
G1 X-19.875
G3 X-20.125 Y2.625 J-0.25
G1 Y0.875
G3 X-19.875 Y0.625 I0.25
G1 X-19.4518
G3 X-19.3639 Y0.6611 J0.125
X-19.4 Y0.5732 I0.0889 J-0.0879
G1 Y-0.5732
G3 X-19.3639 Y-0.6611 I0.125
X-19.4518 Y-0.625 I-0.0879 J-0.0889
G1 X-19.875
G3 X-20.125 Y-0.875 J-0.25
G1 Y-2.625
G3 X-19.875 Y-2.875 I0.25
G1 X-19.4518
G3 X-19.3639 Y-2.8389 J0.125
X-19.4 Y-2.9268 I0.0889 J-0.0879
G1 Y-4.25
G3 X-19.275 Y-4.375 I0.125
G1 X-15.5
G3 X-15.375 Y-4.25 J0.125
G1 Y-3.7018
G3 X-15.4111 Y-3.6139 I-0.125
X-15.3232 Y-3.65 I0.0879 J0.0889
G1 X-12.6768
G3 X-12.5889 Y-3.6139 J0.125
X-12.625 Y-3.7018 I0.0889 J-0.0879
G1 Y-4.25
G3 X-12.5 Y-4.375 I0.125
G1 X-8.5
G3 X-8.375 Y-4.25 J0.125
G1 Y-3.7018
G3 X-8.4111 Y-3.6139 I-0.125
X-8.3232 Y-3.65 I0.0879 J0.0889
G1 X-5.6768
G3 X-5.5889 Y-3.6139 J0.125
X-5.625 Y-3.7018 I0.0889 J-0.0879
G1 Y-4.25
G3 X-5.5 Y-4.375 I0.125
G1 X-1.5
G3 X-1.375 Y-4.25 J0.125
G1 Y-3.7018
G3 X-1.4113 Y-3.6137 I-0.125
X-1.3232 Y-3.65 I0.0881 J0.0887
G1 X1.3232
G3 X1.4113 Y-3.6137 J0.125
X1.375 Y-3.7018 I0.0887 J-0.0881
G1 Y-4.25
G3 X1.5 Y-4.375 I0.125
G1 X5.5
G3 X5.625 Y-4.25 J0.125
G1 Y-3.7018
G3 X5.5889 Y-3.6139 I-0.125
X5.6768 Y-3.65 I0.0879 J0.0889
G1 X8.3232
G3 X8.4111 Y-3.6139 J0.125
X8.375 Y-3.7018 I0.0889 J-0.0879
G1 Y-4.25
G3 X8.5 Y-4.375 I0.125
G1 X12.5
G3 X12.625 Y-4.25 J0.125
G1 Y-3.7018
G3 X12.5889 Y-3.6139 I-0.125
X12.6768 Y-3.65 I0.0879 J0.0889
G1 X15.3232
G3 X15.4111 Y-3.6139 J0.125
X15.375 Y-3.7018 I0.0889 J-0.0879
G1 Y-4.25
G3 X15.5 Y-4.375 I0.125
G1 X19.275
G3 X19.4 Y-4.25 J0.125
G1 Y-2.9268
G3 X19.3639 Y-2.8389 I-0.125
X19.4518 Y-2.875 I0.0879 J0.0889
G1 X19.875
G3 X20.125 Y-2.625 J0.25
G1 Y-0.875
G3 X19.875 Y-0.625 I-0.25
G1 X19.4518
G3 X19.3639 Y-0.6611 J-0.125
X19.4 Y-0.5732 I-0.0889 J0.0879
G1 Y0.5732
G3 X19.3639 Y0.6611 I-0.125
X19.4518 Y0.625 I0.0879 J0.0889
G1 X19.875
G3 X20.125 Y0.875 J0.25
G1 Y2.625
G3 X19.875 Y2.875 I-0.25
G1 X19.4518
G3 X19.3639 Y2.8389 J-0.125
X19.4 Y2.9268 I-0.0889 J0.0879
G1 Y4.25
G3 X19.275 Y4.375 I-0.125
G1 Z-0.715 F30
X15.5 F60
G3 X15.375 Y4.25 J-0.125
G1 Y3.7018
G3 X15.4111 Y3.6139 I0.125
X15.3232 Y3.65 I-0.0879 J-0.0889
G1 X12.6768
G3 X12.5889 Y3.6139 J-0.125
X12.625 Y3.7018 I-0.0889 J0.0879
G1 Y4.25
G3 X12.5 Y4.375 I-0.125
G1 X8.5
G3 X8.375 Y4.25 J-0.125
G1 Y3.7018
G3 X8.4111 Y3.6139 I0.125
X8.3232 Y3.65 I-0.0879 J-0.0889
G1 X5.6768
G3 X5.5889 Y3.6139 J-0.125
X5.625 Y3.7018 I-0.0889 J0.0879
G1 Y4.25
G3 X5.5 Y4.375 I-0.125
G1 X1.5
G3 X1.375 Y4.25 J-0.125
G1 Y3.7018
G3 X1.4113 Y3.6137 I0.125
X1.3232 Y3.65 I-0.0881 J-0.0887
G1 X-1.3232
G3 X-1.4113 Y3.6137 J-0.125
X-1.375 Y3.7018 I-0.0887 J0.0881
G1 Y4.25
G3 X-1.5 Y4.375 I-0.125
G1 X-5.5
G3 X-5.625 Y4.25 J-0.125
G1 Y3.7018
G3 X-5.5889 Y3.6139 I0.125
X-5.6768 Y3.65 I-0.0879 J-0.0889
G1 X-8.3232
G3 X-8.4111 Y3.6139 J-0.125
X-8.375 Y3.7018 I-0.0889 J0.0879
G1 Y4.25
G3 X-8.5 Y4.375 I-0.125
G1 X-12.5
G3 X-12.625 Y4.25 J-0.125
G1 Y3.7018
G3 X-12.5889 Y3.6139 I0.125
X-12.6768 Y3.65 I-0.0879 J-0.0889
G1 X-15.3232
G3 X-15.4111 Y3.6139 J-0.125
X-15.375 Y3.7018 I-0.0889 J0.0879
G1 Y4.25
G3 X-15.5 Y4.375 I-0.125
G1 X-19.275
G3 X-19.4 Y4.25 J-0.125
G1 Y2.9268
G3 X-19.3639 Y2.8389 I0.125
X-19.4518 Y2.875 I-0.0879 J-0.0889
G1 X-19.875
G3 X-20.125 Y2.625 J-0.25
G1 Y0.875
G3 X-19.875 Y0.625 I0.25
G1 X-19.4518
G3 X-19.3639 Y0.6611 J0.125
X-19.4 Y0.5732 I0.0889 J-0.0879
G1 Y-0.5732
G3 X-19.3639 Y-0.6611 I0.125
X-19.4518 Y-0.625 I-0.0879 J-0.0889
G1 X-19.875
G3 X-20.125 Y-0.875 J-0.25
G1 Y-2.625
G3 X-19.875 Y-2.875 I0.25
G1 X-19.4518
G3 X-19.3639 Y-2.8389 J0.125
X-19.4 Y-2.9268 I0.0889 J-0.0879
G1 Y-4.25
G3 X-19.275 Y-4.375 I0.125
G1 X-15.5
G3 X-15.375 Y-4.25 J0.125
G1 Y-3.7018
G3 X-15.4111 Y-3.6139 I-0.125
X-15.3232 Y-3.65 I0.0879 J0.0889
G1 X-12.6768
G3 X-12.5889 Y-3.6139 J0.125
X-12.625 Y-3.7018 I0.0889 J-0.0879
G1 Y-4.25
G3 X-12.5 Y-4.375 I0.125
G1 X-8.5
G3 X-8.375 Y-4.25 J0.125
G1 Y-3.7018
G3 X-8.4111 Y-3.6139 I-0.125
X-8.3232 Y-3.65 I0.0879 J0.0889
G1 X-5.6768
G3 X-5.5889 Y-3.6139 J0.125
X-5.625 Y-3.7018 I0.0889 J-0.0879
G1 Y-4.25
G3 X-5.5 Y-4.375 I0.125
G1 X-1.5
G3 X-1.375 Y-4.25 J0.125
G1 Y-3.7018
G3 X-1.4113 Y-3.6137 I-0.125
X-1.3232 Y-3.65 I0.0881 J0.0887
G1 X1.3232
G3 X1.4113 Y-3.6137 J0.125
X1.375 Y-3.7018 I0.0887 J-0.0881
G1 Y-4.25
G3 X1.5 Y-4.375 I0.125
G1 X5.5
G3 X5.625 Y-4.25 J0.125
G1 Y-3.7018
G3 X5.5889 Y-3.6139 I-0.125
X5.6768 Y-3.65 I0.0879 J0.0889
G1 X8.3232
G3 X8.4111 Y-3.6139 J0.125
X8.375 Y-3.7018 I0.0889 J-0.0879
G1 Y-4.25
G3 X8.5 Y-4.375 I0.125
G1 X12.5
G3 X12.625 Y-4.25 J0.125
G1 Y-3.7018
G3 X12.5889 Y-3.6139 I-0.125
X12.6768 Y-3.65 I0.0879 J0.0889
G1 X15.3232
G3 X15.4111 Y-3.6139 J0.125
X15.375 Y-3.7018 I0.0889 J-0.0879
G1 Y-4.25
G3 X15.5 Y-4.375 I0.125
G1 X19.275
G3 X19.4 Y-4.25 J0.125
G1 Y-2.9268
G3 X19.3639 Y-2.8389 I-0.125
X19.4518 Y-2.875 I0.0879 J0.0889
G1 X19.875
G3 X20.125 Y-2.625 J0.25
G1 Y-0.875
G3 X19.875 Y-0.625 I-0.25
G1 X19.4518
G3 X19.3639 Y-0.6611 J-0.125
X19.4 Y-0.5732 I-0.0889 J0.0879
G1 Y0.5732
G3 X19.3639 Y0.6611 I-0.125
X19.4518 Y0.625 I0.0879 J0.0889
G1 X19.875
G3 X20.125 Y0.875 J0.25
G1 Y2.625
G3 X19.875 Y2.875 I-0.25
G1 X19.4518
G3 X19.3639 Y2.8389 J-0.125
X19.4 Y2.9268 I-0.0889 J0.0879
G1 Y4.25
G3 X19.275 Y4.375 I-0.125
G1 Z-0.84 F30
X15.5 F60
G3 X15.375 Y4.25 J-0.125
G1 Y3.7018
G3 X15.4111 Y3.6139 I0.125
X15.3232 Y3.65 I-0.0879 J-0.0889
G1 X12.6768
G3 X12.5889 Y3.6139 J-0.125
X12.625 Y3.7018 I-0.0889 J0.0879
G1 Y4.25
G3 X12.5 Y4.375 I-0.125
G1 X10.825
Z-0.715
X10.175
Z-0.84 F30
X8.5 F60
G3 X8.375 Y4.25 J-0.125
G1 Y3.7018
G3 X8.4111 Y3.6139 I0.125
X8.3232 Y3.65 I-0.0879 J-0.0889
G1 X5.6768
G3 X5.5889 Y3.6139 J-0.125
X5.625 Y3.7018 I-0.0889 J0.0879
G1 Y4.25
G3 X5.5 Y4.375 I-0.125
G1 X3.825
Z-0.715
X3.175
Z-0.84 F30
X1.5 F60
G3 X1.375 Y4.25 J-0.125
G1 Y3.7018
G3 X1.4113 Y3.6137 I0.125
X1.3232 Y3.65 I-0.0881 J-0.0887
G1 X-1.3232
G3 X-1.4113 Y3.6137 J-0.125
X-1.375 Y3.7018 I-0.0887 J0.0881
G1 Y4.25
G3 X-1.5 Y4.375 I-0.125
G1 X-3.175
Z-0.715
X-3.825
Z-0.84 F30
X-5.5 F60
G3 X-5.625 Y4.25 J-0.125
G1 Y3.7018
G3 X-5.5889 Y3.6139 I0.125
X-5.6768 Y3.65 I-0.0879 J-0.0889
G1 X-8.3232
G3 X-8.4111 Y3.6139 J-0.125
X-8.375 Y3.7018 I-0.0889 J0.0879
G1 Y4.25
G3 X-8.5 Y4.375 I-0.125
G1 X-10.175
Z-0.715
X-10.825
Z-0.84 F30
X-12.5 F60
G3 X-12.625 Y4.25 J-0.125
G1 Y3.7018
G3 X-12.5889 Y3.6139 I0.125
X-12.6768 Y3.65 I-0.0879 J-0.0889
G1 X-15.3232
G3 X-15.4111 Y3.6139 J-0.125
X-15.375 Y3.7018 I-0.0889 J0.0879
G1 Y4.25
G3 X-15.5 Y4.375 I-0.125
G1 X-19.275
G3 X-19.4 Y4.25 J-0.125
G1 Y2.9268
G3 X-19.3639 Y2.8389 I0.125
X-19.4518 Y2.875 I-0.0879 J-0.0889
G1 X-19.875
G3 X-20.125 Y2.625 J-0.25
G1 Y0.875
G3 X-19.875 Y0.625 I0.25
G1 X-19.4518
G3 X-19.3639 Y0.6611 J0.125
X-19.4 Y0.5732 I0.0889 J-0.0879
G1 Y-0.5732
G3 X-19.3639 Y-0.6611 I0.125
X-19.4518 Y-0.625 I-0.0879 J-0.0889
G1 X-19.875
G3 X-20.125 Y-0.875 J-0.25
G1 Y-2.625
G3 X-19.875 Y-2.875 I0.25
G1 X-19.4518
G3 X-19.3639 Y-2.8389 J0.125
X-19.4 Y-2.9268 I0.0889 J-0.0879
G1 Y-4.25
G3 X-19.275 Y-4.375 I0.125
G1 X-15.5
G3 X-15.375 Y-4.25 J0.125
G1 Y-3.7018
G3 X-15.4111 Y-3.6139 I-0.125
X-15.3232 Y-3.65 I0.0879 J0.0889
G1 X-12.6768
G3 X-12.5889 Y-3.6139 J0.125
X-12.625 Y-3.7018 I0.0889 J-0.0879
G1 Y-4.25
G3 X-12.5 Y-4.375 I0.125
G1 X-10.825
Z-0.715
X-10.175
Z-0.84 F30
X-8.5 F60
G3 X-8.375 Y-4.25 J0.125
G1 Y-3.7018
G3 X-8.4111 Y-3.6139 I-0.125
X-8.3232 Y-3.65 I0.0879 J0.0889
G1 X-5.6768
G3 X-5.5889 Y-3.6139 J0.125
X-5.625 Y-3.7018 I0.0889 J-0.0879
G1 Y-4.25
G3 X-5.5 Y-4.375 I0.125
G1 X-3.825
Z-0.715
X-3.175
Z-0.84 F30
X-1.5 F60
G3 X-1.375 Y-4.25 J0.125
G1 Y-3.7018
G3 X-1.4113 Y-3.6137 I-0.125
X-1.3232 Y-3.65 I0.0881 J0.0887
G1 X1.3232
G3 X1.4113 Y-3.6137 J0.125
X1.375 Y-3.7018 I0.0887 J-0.0881
G1 Y-4.25
G3 X1.5 Y-4.375 I0.125
G1 X3.175
Z-0.715
X3.825
Z-0.84 F30
X5.5 F60
G3 X5.625 Y-4.25 J0.125
G1 Y-3.7018
G3 X5.5889 Y-3.6139 I-0.125
X5.6768 Y-3.65 I0.0879 J0.0889
G1 X8.3232
G3 X8.4111 Y-3.6139 J0.125
X8.375 Y-3.7018 I0.0889 J-0.0879
G1 Y-4.25
G3 X8.5 Y-4.375 I0.125
G1 X10.175
Z-0.715
X10.825
Z-0.84 F30
X12.5 F60
G3 X12.625 Y-4.25 J0.125
G1 Y-3.7018
G3 X12.5889 Y-3.6139 I-0.125
X12.6768 Y-3.65 I0.0879 J0.0889
G1 X15.3232
G3 X15.4111 Y-3.6139 J0.125
X15.375 Y-3.7018 I0.0889 J-0.0879
G1 Y-4.25
G3 X15.5 Y-4.375 I0.125
G1 X19.275
G3 X19.4 Y-4.25 J0.125
G1 Y-2.9268
G3 X19.3639 Y-2.8389 I-0.125
X19.4518 Y-2.875 I0.0879 J0.0889
G1 X19.875
G3 X20.125 Y-2.625 J0.25
G1 Y-0.875
G3 X19.875 Y-0.625 I-0.25
G1 X19.4518
G3 X19.3639 Y-0.6611 J-0.125
X19.4 Y-0.5732 I-0.0889 J0.0879
G1 Y0.5732
G3 X19.3639 Y0.6611 I-0.125
X19.4518 Y0.625 I0.0879 J0.0889
G1 X19.875
G3 X20.125 Y0.875 J0.25
G1 Y2.625
G3 X19.875 Y2.875 I-0.25
G1 X19.4518
G3 X19.3639 Y2.8389 J-0.125
X19.4 Y2.9268 I-0.0889 J0.0879
G1 Y4.25
G3 X19.275 Y4.375 I-0.125
G0 Z0.15
M9
G28 G91 Z0
G28 X0 Y0
M30
%
