(Generated by PartKam Version 0.05)

G20 G90 G40

(Inside Slots)
G0 Z0.1
T0 M6
G17
M3
G0 X23.9253 Y3.0602
G1 Z-0.05 F30
G1 X20.4913 Y-2.9998 F20
G3 X20.4857 Y-3.0146 I0.0439 J-0.0249
G3 X20.4847 Y-3.0247 I0.0495 J-0.0101
G3 X20.485 Y-3.0304 I0.0505 J0
G3 X20.4892 Y-3.0456 I0.0502 J0.0057
G3 X20.4979 Y-3.0588 I0.046 J0.0209
G3 X20.5103 Y-3.0687 I0.0373 J0.0341
G3 X20.5251 Y-3.0742 I0.0249 J0.0439
G3 X20.5409 Y-3.0749 I0.0101 J0.0495
G3 X20.5561 Y-3.0707 I-0.0057 J0.0502
G3 X20.5693 Y-3.062 I-0.0209 J0.046
G3 X20.5791 Y-3.0496 I-0.0341 J0.0373
G1 X24.0132 Y3.0104
G3 X24.0193 Y3.0291 I-0.0439 J0.0249
G3 X24.0197 Y3.0353 I-0.0501 J0.0062
G3 X24.0179 Y3.0488 I-0.0505 J0
G3 X24.009 Y3.0664 I-0.0487 J-0.0135
G3 X23.9941 Y3.0793 I-0.0398 J-0.0311
G3 X23.9754 Y3.0854 I-0.0249 J-0.0439
G3 X23.9558 Y3.084 I-0.0062 J-0.0501
G3 X23.9382 Y3.0751 I0.0135 J-0.0487
G3 X23.9253 Y3.0602 I0.0311 J-0.0398
G1 Z-0.1 F30
G1 X20.4913 Y-2.9998 F20
G3 X20.4857 Y-3.0146 I0.0439 J-0.0249
G3 X20.4847 Y-3.0247 I0.0495 J-0.0101
G3 X20.485 Y-3.0304 I0.0505 J0
G3 X20.4892 Y-3.0456 I0.0502 J0.0057
G3 X20.4979 Y-3.0588 I0.046 J0.0209
G3 X20.5103 Y-3.0687 I0.0373 J0.0341
G3 X20.5251 Y-3.0742 I0.0249 J0.0439
G3 X20.5409 Y-3.0749 I0.0101 J0.0495
G3 X20.5561 Y-3.0707 I-0.0057 J0.0502
G3 X20.5693 Y-3.062 I-0.0209 J0.046
G3 X20.5791 Y-3.0496 I-0.0341 J0.0373
G1 X24.0132 Y3.0104
G3 X24.0193 Y3.0291 I-0.0439 J0.0249
G3 X24.0197 Y3.0353 I-0.0501 J0.0062
G3 X24.0179 Y3.0488 I-0.0505 J0
G3 X24.009 Y3.0664 I-0.0487 J-0.0135
G3 X23.9941 Y3.0793 I-0.0398 J-0.0311
G3 X23.9754 Y3.0854 I-0.0249 J-0.0439
G3 X23.9558 Y3.084 I-0.0062 J-0.0501
G3 X23.9382 Y3.0751 I0.0135 J-0.0487
G3 X23.9253 Y3.0602 I0.0311 J-0.0398
G1 Z-0.15 F30
G1 X20.4913 Y-2.9998 F20
G3 X20.4857 Y-3.0146 I0.0439 J-0.0249
G3 X20.4847 Y-3.0247 I0.0495 J-0.0101
G3 X20.485 Y-3.0304 I0.0505 J0
G3 X20.4892 Y-3.0456 I0.0502 J0.0057
G3 X20.4979 Y-3.0588 I0.046 J0.0209
G3 X20.5103 Y-3.0687 I0.0373 J0.0341
G3 X20.5251 Y-3.0742 I0.0249 J0.0439
G3 X20.5409 Y-3.0749 I0.0101 J0.0495
G3 X20.5561 Y-3.0707 I-0.0057 J0.0502
G3 X20.5693 Y-3.062 I-0.0209 J0.046
G3 X20.5791 Y-3.0496 I-0.0341 J0.0373
G1 X24.0132 Y3.0104
G3 X24.0193 Y3.0291 I-0.0439 J0.0249
G3 X24.0197 Y3.0353 I-0.0501 J0.0062
G3 X24.0179 Y3.0488 I-0.0505 J0
G3 X24.009 Y3.0664 I-0.0487 J-0.0135
G3 X23.9941 Y3.0793 I-0.0398 J-0.0311
G3 X23.9754 Y3.0854 I-0.0249 J-0.0439
G3 X23.9558 Y3.084 I-0.0062 J-0.0501
G3 X23.9382 Y3.0751 I0.0135 J-0.0487
G3 X23.9253 Y3.0602 I0.0311 J-0.0398
G1 Z-0.2 F30
G1 X20.4913 Y-2.9998 F20
G3 X20.4857 Y-3.0146 I0.0439 J-0.0249
G3 X20.4847 Y-3.0247 I0.0495 J-0.0101
G3 X20.485 Y-3.0304 I0.0505 J0
G3 X20.4892 Y-3.0456 I0.0502 J0.0057
G3 X20.4979 Y-3.0588 I0.046 J0.0209
G3 X20.5103 Y-3.0687 I0.0373 J0.0341
G3 X20.5251 Y-3.0742 I0.0249 J0.0439
G3 X20.5409 Y-3.0749 I0.0101 J0.0495
G3 X20.5561 Y-3.0707 I-0.0057 J0.0502
G3 X20.5693 Y-3.062 I-0.0209 J0.046
G3 X20.5791 Y-3.0496 I-0.0341 J0.0373
G1 X24.0132 Y3.0104
G3 X24.0193 Y3.0291 I-0.0439 J0.0249
G3 X24.0197 Y3.0353 I-0.0501 J0.0062
G3 X24.0179 Y3.0488 I-0.0505 J0
G3 X24.009 Y3.0664 I-0.0487 J-0.0135
G3 X23.9941 Y3.0793 I-0.0398 J-0.0311
G3 X23.9754 Y3.0854 I-0.0249 J-0.0439
G3 X23.9558 Y3.084 I-0.0062 J-0.0501
G3 X23.9382 Y3.0751 I0.0135 J-0.0487
G3 X23.9253 Y3.0602 I0.0311 J-0.0398
G1 Z-0.25 F30
G1 X20.4913 Y-2.9998 F20
G3 X20.4857 Y-3.0146 I0.0439 J-0.0249
G3 X20.4847 Y-3.0247 I0.0495 J-0.0101
G3 X20.485 Y-3.0304 I0.0505 J0
G3 X20.4892 Y-3.0456 I0.0502 J0.0057
G3 X20.4979 Y-3.0588 I0.046 J0.0209
G3 X20.5103 Y-3.0687 I0.0373 J0.0341
G3 X20.5251 Y-3.0742 I0.0249 J0.0439
G3 X20.5409 Y-3.0749 I0.0101 J0.0495
G3 X20.5561 Y-3.0707 I-0.0057 J0.0502
G3 X20.5693 Y-3.062 I-0.0209 J0.046
G3 X20.5791 Y-3.0496 I-0.0341 J0.0373
G1 X24.0132 Y3.0104
G3 X24.0193 Y3.0291 I-0.0439 J0.0249
G3 X24.0197 Y3.0353 I-0.0501 J0.0062
G3 X24.0179 Y3.0488 I-0.0505 J0
G3 X24.009 Y3.0664 I-0.0487 J-0.0135
G3 X23.9941 Y3.0793 I-0.0398 J-0.0311
G3 X23.9754 Y3.0854 I-0.0249 J-0.0439
G3 X23.9558 Y3.084 I-0.0062 J-0.0501
G3 X23.9382 Y3.0751 I0.0135 J-0.0487
G3 X23.9253 Y3.0602 I0.0311 J-0.0398
G1 Z-0.3 F30
G1 X20.4913 Y-2.9998 F20
G3 X20.4857 Y-3.0146 I0.0439 J-0.0249
G3 X20.4847 Y-3.0247 I0.0495 J-0.0101
G3 X20.485 Y-3.0304 I0.0505 J0
G3 X20.4892 Y-3.0456 I0.0502 J0.0057
G3 X20.4979 Y-3.0588 I0.046 J0.0209
G3 X20.5103 Y-3.0687 I0.0373 J0.0341
G3 X20.5251 Y-3.0742 I0.0249 J0.0439
G3 X20.5409 Y-3.0749 I0.0101 J0.0495
G3 X20.5561 Y-3.0707 I-0.0057 J0.0502
G3 X20.5693 Y-3.062 I-0.0209 J0.046
G3 X20.5791 Y-3.0496 I-0.0341 J0.0373
G1 X24.0132 Y3.0104
G3 X24.0193 Y3.0291 I-0.0439 J0.0249
G3 X24.0197 Y3.0353 I-0.0501 J0.0062
G3 X24.0179 Y3.0488 I-0.0505 J0
G3 X24.009 Y3.0664 I-0.0487 J-0.0135
G3 X23.9941 Y3.0793 I-0.0398 J-0.0311
G3 X23.9754 Y3.0854 I-0.0249 J-0.0439
G3 X23.9558 Y3.084 I-0.0062 J-0.0501
G3 X23.9382 Y3.0751 I0.0135 J-0.0487
G3 X23.9253 Y3.0602 I0.0311 J-0.0398
G0 Z0.1
G0 X-9.1395 Y3.2032
G1 Z-0.05 F30
G1 X-12.5735 Y-2.8568 F20
G3 X-12.5797 Y-2.8755 I0.0439 J-0.0249
G3 X-12.5801 Y-2.8817 I0.0501 J-0.0062
G3 X-12.5783 Y-2.8952 I0.0505 J0
G3 X-12.5694 Y-2.9128 I0.0487 J0.0135
G3 X-12.5545 Y-2.9257 I0.0398 J0.0311
G3 X-12.5358 Y-2.9318 I0.0249 J0.0439
G3 X-12.5161 Y-2.9304 I0.0062 J0.0501
G3 X-12.4985 Y-2.9215 I-0.0135 J0.0487
G3 X-12.4857 Y-2.9066 I-0.0311 J0.0398
G1 X-9.0517 Y3.1534
G3 X-9.0455 Y3.1721 I-0.0439 J0.0249
G3 X-9.0451 Y3.1783 I-0.0501 J0.0062
G3 X-9.0469 Y3.1917 I-0.0505 J0
G3 X-9.0558 Y3.2093 I-0.0487 J-0.0135
G3 X-9.0707 Y3.2222 I-0.0398 J-0.0311
G3 X-9.0894 Y3.2284 I-0.0249 J-0.0439
G3 X-9.1091 Y3.2269 I-0.0062 J-0.0501
G3 X-9.1267 Y3.2181 I0.0135 J-0.0487
G3 X-9.1395 Y3.2032 I0.0311 J-0.0398
G1 Z-0.1 F30
G1 X-12.5735 Y-2.8568 F20
G3 X-12.5797 Y-2.8755 I0.0439 J-0.0249
G3 X-12.5801 Y-2.8817 I0.0501 J-0.0062
G3 X-12.5783 Y-2.8952 I0.0505 J0
G3 X-12.5694 Y-2.9128 I0.0487 J0.0135
G3 X-12.5545 Y-2.9257 I0.0398 J0.0311
G3 X-12.5358 Y-2.9318 I0.0249 J0.0439
G3 X-12.5161 Y-2.9304 I0.0062 J0.0501
G3 X-12.4985 Y-2.9215 I-0.0135 J0.0487
G3 X-12.4857 Y-2.9066 I-0.0311 J0.0398
G1 X-9.0517 Y3.1534
G3 X-9.0455 Y3.1721 I-0.0439 J0.0249
G3 X-9.0451 Y3.1783 I-0.0501 J0.0062
G3 X-9.0469 Y3.1917 I-0.0505 J0
G3 X-9.0558 Y3.2093 I-0.0487 J-0.0135
G3 X-9.0707 Y3.2222 I-0.0398 J-0.0311
G3 X-9.0894 Y3.2284 I-0.0249 J-0.0439
G3 X-9.1091 Y3.2269 I-0.0062 J-0.0501
G3 X-9.1267 Y3.2181 I0.0135 J-0.0487
G3 X-9.1395 Y3.2032 I0.0311 J-0.0398
G1 Z-0.15 F30
G1 X-12.5735 Y-2.8568 F20
G3 X-12.5797 Y-2.8755 I0.0439 J-0.0249
G3 X-12.5801 Y-2.8817 I0.0501 J-0.0062
G3 X-12.5783 Y-2.8952 I0.0505 J0
G3 X-12.5694 Y-2.9128 I0.0487 J0.0135
G3 X-12.5545 Y-2.9257 I0.0398 J0.0311
G3 X-12.5358 Y-2.9318 I0.0249 J0.0439
G3 X-12.5161 Y-2.9304 I0.0062 J0.0501
G3 X-12.4985 Y-2.9215 I-0.0135 J0.0487
G3 X-12.4857 Y-2.9066 I-0.0311 J0.0398
G1 X-9.0517 Y3.1534
G3 X-9.0455 Y3.1721 I-0.0439 J0.0249
G3 X-9.0451 Y3.1783 I-0.0501 J0.0062
G3 X-9.0469 Y3.1917 I-0.0505 J0
G3 X-9.0558 Y3.2093 I-0.0487 J-0.0135
G3 X-9.0707 Y3.2222 I-0.0398 J-0.0311
G3 X-9.0894 Y3.2284 I-0.0249 J-0.0439
G3 X-9.1091 Y3.2269 I-0.0062 J-0.0501
G3 X-9.1267 Y3.2181 I0.0135 J-0.0487
G3 X-9.1395 Y3.2032 I0.0311 J-0.0398
G1 Z-0.2 F30
G1 X-12.5735 Y-2.8568 F20
G3 X-12.5797 Y-2.8755 I0.0439 J-0.0249
G3 X-12.5801 Y-2.8817 I0.0501 J-0.0062
G3 X-12.5783 Y-2.8952 I0.0505 J0
G3 X-12.5694 Y-2.9128 I0.0487 J0.0135
G3 X-12.5545 Y-2.9257 I0.0398 J0.0311
G3 X-12.5358 Y-2.9318 I0.0249 J0.0439
G3 X-12.5161 Y-2.9304 I0.0062 J0.0501
G3 X-12.4985 Y-2.9215 I-0.0135 J0.0487
G3 X-12.4857 Y-2.9066 I-0.0311 J0.0398
G1 X-9.0517 Y3.1534
G3 X-9.0455 Y3.1721 I-0.0439 J0.0249
G3 X-9.0451 Y3.1783 I-0.0501 J0.0062
G3 X-9.0469 Y3.1917 I-0.0505 J0
G3 X-9.0558 Y3.2093 I-0.0487 J-0.0135
G3 X-9.0707 Y3.2222 I-0.0398 J-0.0311
G3 X-9.0894 Y3.2284 I-0.0249 J-0.0439
G3 X-9.1091 Y3.2269 I-0.0062 J-0.0501
G3 X-9.1267 Y3.2181 I0.0135 J-0.0487
G3 X-9.1395 Y3.2032 I0.0311 J-0.0398
G1 Z-0.25 F30
G1 X-12.5735 Y-2.8568 F20
G3 X-12.5797 Y-2.8755 I0.0439 J-0.0249
G3 X-12.5801 Y-2.8817 I0.0501 J-0.0062
G3 X-12.5783 Y-2.8952 I0.0505 J0
G3 X-12.5694 Y-2.9128 I0.0487 J0.0135
G3 X-12.5545 Y-2.9257 I0.0398 J0.0311
G3 X-12.5358 Y-2.9318 I0.0249 J0.0439
G3 X-12.5161 Y-2.9304 I0.0062 J0.0501
G3 X-12.4985 Y-2.9215 I-0.0135 J0.0487
G3 X-12.4857 Y-2.9066 I-0.0311 J0.0398
G1 X-9.0517 Y3.1534
G3 X-9.0455 Y3.1721 I-0.0439 J0.0249
G3 X-9.0451 Y3.1783 I-0.0501 J0.0062
G3 X-9.0469 Y3.1917 I-0.0505 J0
G3 X-9.0558 Y3.2093 I-0.0487 J-0.0135
G3 X-9.0707 Y3.2222 I-0.0398 J-0.0311
G3 X-9.0894 Y3.2284 I-0.0249 J-0.0439
G3 X-9.1091 Y3.2269 I-0.0062 J-0.0501
G3 X-9.1267 Y3.2181 I0.0135 J-0.0487
G3 X-9.1395 Y3.2032 I0.0311 J-0.0398
G1 Z-0.3 F30
G1 X-12.5735 Y-2.8568 F20
G3 X-12.5797 Y-2.8755 I0.0439 J-0.0249
G3 X-12.5801 Y-2.8817 I0.0501 J-0.0062
G3 X-12.5783 Y-2.8952 I0.0505 J0
G3 X-12.5694 Y-2.9128 I0.0487 J0.0135
G3 X-12.5545 Y-2.9257 I0.0398 J0.0311
G3 X-12.5358 Y-2.9318 I0.0249 J0.0439
G3 X-12.5161 Y-2.9304 I0.0062 J0.0501
G3 X-12.4985 Y-2.9215 I-0.0135 J0.0487
G3 X-12.4857 Y-2.9066 I-0.0311 J0.0398
G1 X-9.0517 Y3.1534
G3 X-9.0455 Y3.1721 I-0.0439 J0.0249
G3 X-9.0451 Y3.1783 I-0.0501 J0.0062
G3 X-9.0469 Y3.1917 I-0.0505 J0
G3 X-9.0558 Y3.2093 I-0.0487 J-0.0135
G3 X-9.0707 Y3.2222 I-0.0398 J-0.0311
G3 X-9.0894 Y3.2284 I-0.0249 J-0.0439
G3 X-9.1091 Y3.2269 I-0.0062 J-0.0501
G3 X-9.1267 Y3.2181 I0.0135 J-0.0487
G3 X-9.1395 Y3.2032 I0.0311 J-0.0398
G0 Z0.1
G0 X-25.3458 Y0.0648
G1 Z-0.05 F30
G1 X-24.5767 Y-1.6627 F20
G1 X-23.2156 Y-1.0568
G2 X-23.1694 Y-1.0424 I0.0832 J-0.1868
G2 X-23.121 Y-1.0394 I0.0369 J-0.2011
G2 X-23.0733 Y-1.0478 I-0.0114 J-0.2042
G2 X-23.0289 Y-1.0672 I-0.0591 J-0.1958
G1 X-22.6159 Y-1.3097
G3 X-22.2299 Y-1.5037 I1.6795 J2.8611
G3 X-21.837 Y-1.6395 I1.2007 J2.836
G3 X-21.4294 Y-1.7212 I0.8078 J2.9719
G3 X-20.9982 Y-1.7494 I0.4312 J3.2895
G1 X-20.4982 Y-1.7494
G3 X-20.4789 Y-1.7455 I0 J0.0505
G3 X-20.4625 Y-1.7346 I-0.0193 J0.0467
G3 X-20.4516 Y-1.7182 I-0.0357 J0.0357
G3 X-20.4477 Y-1.6989 I-0.0467 J0.0193
G3 X-20.4516 Y-1.6796 I-0.0505 J0
G3 X-20.4625 Y-1.6632 I-0.0467 J-0.0193
G3 X-20.4789 Y-1.6522 I-0.0357 J-0.0357
G3 X-20.4982 Y-1.6484 I-0.0193 J-0.0467
G1 X-20.9982 Y-1.6484
G2 X-21.4146 Y-1.6212 I0 J3.2037
G2 X-21.8104 Y-1.5418 I0.3887 J2.9656
G2 X-22.192 Y-1.4099 I0.7846 J2.8863
G2 X-22.5648 Y-1.2225 I1.249 J2.9502
G1 X-22.9778 Y-0.9801
G3 X-23.0441 Y-0.9511 I-0.1547 J-0.2635
G3 X-23.1154 Y-0.9386 I-0.0884 J-0.2924
G3 X-23.1876 Y-0.9431 I-0.0171 J-0.305
G3 X-23.2567 Y-0.9645 I0.0551 J-0.3005
G1 X-24.4113 Y-1.4785
G2 X-24.5763 Y-1.4152 I-0.0508 J0.1142
G1 X-25.1616 Y-0.1006
G2 X-25.1724 Y-0.0498 I0.1142 J0.0508
G2 X-25.0983 Y0.0644 I0.125 J0
G1 X-23.9346 Y0.5825
G2 X-23.8487 Y0.5883 I0.0508 J-0.1142
G3 X-23.8356 Y0.587 I0.01 J0.0341
G3 X-23.823 Y0.5906 I-0.0031 J0.0354
G3 X-23.8125 Y0.5985 I-0.0158 J0.0318
G3 X-23.8056 Y0.6097 I-0.0262 J0.0239
G3 X-23.8033 Y0.6224 I-0.0331 J0.0127
G1 X-23.8033 Y0.6225
G3 X-23.8058 Y0.6355 I-0.0355 J-0.0001
G3 X-23.8128 Y0.6466 I-0.033 J-0.0131
G3 X-23.8234 Y0.6544 I-0.026 J-0.0242
G2 X-23.8833 Y0.7162 I0.0542 J0.1126
G1 X-24.6169 Y2.3638
G2 X-24.6236 Y2.383 I0.1142 J0.0508
G3 X-24.6306 Y2.3986 I-0.05 J-0.0131
G3 X-24.6422 Y2.411 I-0.0431 J-0.0286
G3 X-24.6572 Y2.419 I-0.0314 J-0.041
G3 X-24.674 Y2.4216 I-0.0164 J-0.049
G3 X-24.6907 Y2.4187 I0.0003 J-0.0517
G3 X-24.7056 Y2.4106 I0.0171 J-0.0488
G3 X-24.7171 Y2.398 I0.032 J-0.0406
G3 X-24.7238 Y2.3824 I0.0434 J-0.028
G3 X-24.7253 Y2.37 I0.0502 J-0.0124
G3 X-24.7251 Y2.3654 I0.0517 J0
G3 X-24.7209 Y2.349 I0.0515 J0.0046
G1 X-24.0264 Y0.7891
G2 X-24.0155 Y0.7382 I-0.1142 J-0.0508
G2 X-24.0897 Y0.624 I-0.125 J0
G1 X-25.3458 Y0.0648
G1 Z-0.1 F30
G1 X-24.5767 Y-1.6627 F20
G1 X-23.2156 Y-1.0568
G2 X-23.1694 Y-1.0424 I0.0832 J-0.1868
G2 X-23.121 Y-1.0394 I0.0369 J-0.2011
G2 X-23.0733 Y-1.0478 I-0.0114 J-0.2042
G2 X-23.0289 Y-1.0672 I-0.0591 J-0.1958
G1 X-22.6159 Y-1.3097
G3 X-22.2299 Y-1.5037 I1.6795 J2.8611
G3 X-21.837 Y-1.6395 I1.2007 J2.836
G3 X-21.4294 Y-1.7212 I0.8078 J2.9719
G3 X-20.9982 Y-1.7494 I0.4312 J3.2895
G1 X-20.4982 Y-1.7494
G3 X-20.4789 Y-1.7455 I0 J0.0505
G3 X-20.4625 Y-1.7346 I-0.0193 J0.0467
G3 X-20.4516 Y-1.7182 I-0.0357 J0.0357
G3 X-20.4477 Y-1.6989 I-0.0467 J0.0193
G3 X-20.4516 Y-1.6796 I-0.0505 J0
G3 X-20.4625 Y-1.6632 I-0.0467 J-0.0193
G3 X-20.4789 Y-1.6522 I-0.0357 J-0.0357
G3 X-20.4982 Y-1.6484 I-0.0193 J-0.0467
G1 X-20.9982 Y-1.6484
G2 X-21.4146 Y-1.6212 I0 J3.2037
G2 X-21.8104 Y-1.5418 I0.3887 J2.9656
G2 X-22.192 Y-1.4099 I0.7846 J2.8863
G2 X-22.5648 Y-1.2225 I1.249 J2.9502
G1 X-22.9778 Y-0.9801
G3 X-23.0441 Y-0.9511 I-0.1547 J-0.2635
G3 X-23.1154 Y-0.9386 I-0.0884 J-0.2924
G3 X-23.1876 Y-0.9431 I-0.0171 J-0.305
G3 X-23.2567 Y-0.9645 I0.0551 J-0.3005
G1 X-24.4113 Y-1.4785
G2 X-24.5763 Y-1.4152 I-0.0508 J0.1142
G1 X-25.1616 Y-0.1006
G2 X-25.1724 Y-0.0498 I0.1142 J0.0508
G2 X-25.0983 Y0.0644 I0.125 J0
G1 X-23.9346 Y0.5825
G2 X-23.8487 Y0.5883 I0.0508 J-0.1142
G3 X-23.8356 Y0.587 I0.01 J0.0341
G3 X-23.823 Y0.5906 I-0.0031 J0.0354
G3 X-23.8125 Y0.5985 I-0.0158 J0.0318
G3 X-23.8056 Y0.6097 I-0.0262 J0.0239
G3 X-23.8033 Y0.6224 I-0.0331 J0.0127
G1 X-23.8033 Y0.6225
G3 X-23.8058 Y0.6355 I-0.0355 J-0.0001
G3 X-23.8128 Y0.6466 I-0.033 J-0.0131
G3 X-23.8234 Y0.6544 I-0.026 J-0.0242
G2 X-23.8833 Y0.7162 I0.0542 J0.1126
G1 X-24.6169 Y2.3638
G2 X-24.6236 Y2.383 I0.1142 J0.0508
G3 X-24.6306 Y2.3986 I-0.05 J-0.0131
G3 X-24.6422 Y2.411 I-0.0431 J-0.0286
G3 X-24.6572 Y2.419 I-0.0314 J-0.041
G3 X-24.674 Y2.4216 I-0.0164 J-0.049
G3 X-24.6907 Y2.4187 I0.0003 J-0.0517
G3 X-24.7056 Y2.4106 I0.0171 J-0.0488
G3 X-24.7171 Y2.398 I0.032 J-0.0406
G3 X-24.7238 Y2.3824 I0.0434 J-0.028
G3 X-24.7253 Y2.37 I0.0502 J-0.0124
G3 X-24.7251 Y2.3654 I0.0517 J0
G3 X-24.7209 Y2.349 I0.0515 J0.0046
G1 X-24.0264 Y0.7891
G2 X-24.0155 Y0.7382 I-0.1142 J-0.0508
G2 X-24.0897 Y0.624 I-0.125 J0
G1 X-25.3458 Y0.0648
G1 Z-0.15 F30
G1 X-24.5767 Y-1.6627 F20
G1 X-23.2156 Y-1.0568
G2 X-23.1694 Y-1.0424 I0.0832 J-0.1868
G2 X-23.121 Y-1.0394 I0.0369 J-0.2011
G2 X-23.0733 Y-1.0478 I-0.0114 J-0.2042
G2 X-23.0289 Y-1.0672 I-0.0591 J-0.1958
G1 X-22.6159 Y-1.3097
G3 X-22.2299 Y-1.5037 I1.6795 J2.8611
G3 X-21.837 Y-1.6395 I1.2007 J2.836
G3 X-21.4294 Y-1.7212 I0.8078 J2.9719
G3 X-20.9982 Y-1.7494 I0.4312 J3.2895
G1 X-20.4982 Y-1.7494
G3 X-20.4789 Y-1.7455 I0 J0.0505
G3 X-20.4625 Y-1.7346 I-0.0193 J0.0467
G3 X-20.4516 Y-1.7182 I-0.0357 J0.0357
G3 X-20.4477 Y-1.6989 I-0.0467 J0.0193
G3 X-20.4516 Y-1.6796 I-0.0505 J0
G3 X-20.4625 Y-1.6632 I-0.0467 J-0.0193
G3 X-20.4789 Y-1.6522 I-0.0357 J-0.0357
G3 X-20.4982 Y-1.6484 I-0.0193 J-0.0467
G1 X-20.9982 Y-1.6484
G2 X-21.4146 Y-1.6212 I0 J3.2037
G2 X-21.8104 Y-1.5418 I0.3887 J2.9656
G2 X-22.192 Y-1.4099 I0.7846 J2.8863
G2 X-22.5648 Y-1.2225 I1.249 J2.9502
G1 X-22.9778 Y-0.9801
G3 X-23.0441 Y-0.9511 I-0.1547 J-0.2635
G3 X-23.1154 Y-0.9386 I-0.0884 J-0.2924
G3 X-23.1876 Y-0.9431 I-0.0171 J-0.305
G3 X-23.2567 Y-0.9645 I0.0551 J-0.3005
G1 X-24.4113 Y-1.4785
G2 X-24.5763 Y-1.4152 I-0.0508 J0.1142
G1 X-25.1616 Y-0.1006
G2 X-25.1724 Y-0.0498 I0.1142 J0.0508
G2 X-25.0983 Y0.0644 I0.125 J0
G1 X-23.9346 Y0.5825
G2 X-23.8487 Y0.5883 I0.0508 J-0.1142
G3 X-23.8356 Y0.587 I0.01 J0.0341
G3 X-23.823 Y0.5906 I-0.0031 J0.0354
G3 X-23.8125 Y0.5985 I-0.0158 J0.0318
G3 X-23.8056 Y0.6097 I-0.0262 J0.0239
G3 X-23.8033 Y0.6224 I-0.0331 J0.0127
G1 X-23.8033 Y0.6225
G3 X-23.8058 Y0.6355 I-0.0355 J-0.0001
G3 X-23.8128 Y0.6466 I-0.033 J-0.0131
G3 X-23.8234 Y0.6544 I-0.026 J-0.0242
G2 X-23.8833 Y0.7162 I0.0542 J0.1126
G1 X-24.6169 Y2.3638
G2 X-24.6236 Y2.383 I0.1142 J0.0508
G3 X-24.6306 Y2.3986 I-0.05 J-0.0131
G3 X-24.6422 Y2.411 I-0.0431 J-0.0286
G3 X-24.6572 Y2.419 I-0.0314 J-0.041
G3 X-24.674 Y2.4216 I-0.0164 J-0.049
G3 X-24.6907 Y2.4187 I0.0003 J-0.0517
G3 X-24.7056 Y2.4106 I0.0171 J-0.0488
G3 X-24.7171 Y2.398 I0.032 J-0.0406
G3 X-24.7238 Y2.3824 I0.0434 J-0.028
G3 X-24.7253 Y2.37 I0.0502 J-0.0124
G3 X-24.7251 Y2.3654 I0.0517 J0
G3 X-24.7209 Y2.349 I0.0515 J0.0046
G1 X-24.0264 Y0.7891
G2 X-24.0155 Y0.7382 I-0.1142 J-0.0508
G2 X-24.0897 Y0.624 I-0.125 J0
G1 X-25.3458 Y0.0648
G1 Z-0.2 F30
G1 X-24.5767 Y-1.6627 F20
G1 X-23.2156 Y-1.0568
G2 X-23.1694 Y-1.0424 I0.0832 J-0.1868
G2 X-23.121 Y-1.0394 I0.0369 J-0.2011
G2 X-23.0733 Y-1.0478 I-0.0114 J-0.2042
G2 X-23.0289 Y-1.0672 I-0.0591 J-0.1958
G1 X-22.6159 Y-1.3097
G3 X-22.2299 Y-1.5037 I1.6795 J2.8611
G3 X-21.837 Y-1.6395 I1.2007 J2.836
G3 X-21.4294 Y-1.7212 I0.8078 J2.9719
G3 X-20.9982 Y-1.7494 I0.4312 J3.2895
G1 X-20.4982 Y-1.7494
G3 X-20.4789 Y-1.7455 I0 J0.0505
G3 X-20.4625 Y-1.7346 I-0.0193 J0.0467
G3 X-20.4516 Y-1.7182 I-0.0357 J0.0357
G3 X-20.4477 Y-1.6989 I-0.0467 J0.0193
G3 X-20.4516 Y-1.6796 I-0.0505 J0
G3 X-20.4625 Y-1.6632 I-0.0467 J-0.0193
G3 X-20.4789 Y-1.6522 I-0.0357 J-0.0357
G3 X-20.4982 Y-1.6484 I-0.0193 J-0.0467
G1 X-20.9982 Y-1.6484
G2 X-21.4146 Y-1.6212 I0 J3.2037
G2 X-21.8104 Y-1.5418 I0.3887 J2.9656
G2 X-22.192 Y-1.4099 I0.7846 J2.8863
G2 X-22.5648 Y-1.2225 I1.249 J2.9502
G1 X-22.9778 Y-0.9801
G3 X-23.0441 Y-0.9511 I-0.1547 J-0.2635
G3 X-23.1154 Y-0.9386 I-0.0884 J-0.2924
G3 X-23.1876 Y-0.9431 I-0.0171 J-0.305
G3 X-23.2567 Y-0.9645 I0.0551 J-0.3005
G1 X-24.4113 Y-1.4785
G2 X-24.5763 Y-1.4152 I-0.0508 J0.1142
G1 X-25.1616 Y-0.1006
G2 X-25.1724 Y-0.0498 I0.1142 J0.0508
G2 X-25.0983 Y0.0644 I0.125 J0
G1 X-23.9346 Y0.5825
G2 X-23.8487 Y0.5883 I0.0508 J-0.1142
G3 X-23.8356 Y0.587 I0.01 J0.0341
G3 X-23.823 Y0.5906 I-0.0031 J0.0354
G3 X-23.8125 Y0.5985 I-0.0158 J0.0318
G3 X-23.8056 Y0.6097 I-0.0262 J0.0239
G3 X-23.8033 Y0.6224 I-0.0331 J0.0127
G1 X-23.8033 Y0.6225
G3 X-23.8058 Y0.6355 I-0.0355 J-0.0001
G3 X-23.8128 Y0.6466 I-0.033 J-0.0131
G3 X-23.8234 Y0.6544 I-0.026 J-0.0242
G2 X-23.8833 Y0.7162 I0.0542 J0.1126
G1 X-24.6169 Y2.3638
G2 X-24.6236 Y2.383 I0.1142 J0.0508
G3 X-24.6306 Y2.3986 I-0.05 J-0.0131
G3 X-24.6422 Y2.411 I-0.0431 J-0.0286
G3 X-24.6572 Y2.419 I-0.0314 J-0.041
G3 X-24.674 Y2.4216 I-0.0164 J-0.049
G3 X-24.6907 Y2.4187 I0.0003 J-0.0517
G3 X-24.7056 Y2.4106 I0.0171 J-0.0488
G3 X-24.7171 Y2.398 I0.032 J-0.0406
G3 X-24.7238 Y2.3824 I0.0434 J-0.028
G3 X-24.7253 Y2.37 I0.0502 J-0.0124
G3 X-24.7251 Y2.3654 I0.0517 J0
G3 X-24.7209 Y2.349 I0.0515 J0.0046
G1 X-24.0264 Y0.7891
G2 X-24.0155 Y0.7382 I-0.1142 J-0.0508
G2 X-24.0897 Y0.624 I-0.125 J0
G1 X-25.3458 Y0.0648
G1 Z-0.25 F30
G1 X-24.5767 Y-1.6627 F20
G1 X-23.2156 Y-1.0568
G2 X-23.1694 Y-1.0424 I0.0832 J-0.1868
G2 X-23.121 Y-1.0394 I0.0369 J-0.2011
G2 X-23.0733 Y-1.0478 I-0.0114 J-0.2042
G2 X-23.0289 Y-1.0672 I-0.0591 J-0.1958
G1 X-22.6159 Y-1.3097
G3 X-22.2299 Y-1.5037 I1.6795 J2.8611
G3 X-21.837 Y-1.6395 I1.2007 J2.836
G3 X-21.4294 Y-1.7212 I0.8078 J2.9719
G3 X-20.9982 Y-1.7494 I0.4312 J3.2895
G1 X-20.4982 Y-1.7494
G3 X-20.4789 Y-1.7455 I0 J0.0505
G3 X-20.4625 Y-1.7346 I-0.0193 J0.0467
G3 X-20.4516 Y-1.7182 I-0.0357 J0.0357
G3 X-20.4477 Y-1.6989 I-0.0467 J0.0193
G3 X-20.4516 Y-1.6796 I-0.0505 J0
G3 X-20.4625 Y-1.6632 I-0.0467 J-0.0193
G3 X-20.4789 Y-1.6522 I-0.0357 J-0.0357
G3 X-20.4982 Y-1.6484 I-0.0193 J-0.0467
G1 X-20.9982 Y-1.6484
G2 X-21.4146 Y-1.6212 I0 J3.2037
G2 X-21.8104 Y-1.5418 I0.3887 J2.9656
G2 X-22.192 Y-1.4099 I0.7846 J2.8863
G2 X-22.5648 Y-1.2225 I1.249 J2.9502
G1 X-22.9778 Y-0.9801
G3 X-23.0441 Y-0.9511 I-0.1547 J-0.2635
G3 X-23.1154 Y-0.9386 I-0.0884 J-0.2924
G3 X-23.1876 Y-0.9431 I-0.0171 J-0.305
G3 X-23.2567 Y-0.9645 I0.0551 J-0.3005
G1 X-24.4113 Y-1.4785
G2 X-24.5763 Y-1.4152 I-0.0508 J0.1142
G1 X-25.1616 Y-0.1006
G2 X-25.1724 Y-0.0498 I0.1142 J0.0508
G2 X-25.0983 Y0.0644 I0.125 J0
G1 X-23.9346 Y0.5825
G2 X-23.8487 Y0.5883 I0.0508 J-0.1142
G3 X-23.8356 Y0.587 I0.01 J0.0341
G3 X-23.823 Y0.5906 I-0.0031 J0.0354
G3 X-23.8125 Y0.5985 I-0.0158 J0.0318
G3 X-23.8056 Y0.6097 I-0.0262 J0.0239
G3 X-23.8033 Y0.6224 I-0.0331 J0.0127
G1 X-23.8033 Y0.6225
G3 X-23.8058 Y0.6355 I-0.0355 J-0.0001
G3 X-23.8128 Y0.6466 I-0.033 J-0.0131
G3 X-23.8234 Y0.6544 I-0.026 J-0.0242
G2 X-23.8833 Y0.7162 I0.0542 J0.1126
G1 X-24.6169 Y2.3638
G2 X-24.6236 Y2.383 I0.1142 J0.0508
G3 X-24.6306 Y2.3986 I-0.05 J-0.0131
G3 X-24.6422 Y2.411 I-0.0431 J-0.0286
G3 X-24.6572 Y2.419 I-0.0314 J-0.041
G3 X-24.674 Y2.4216 I-0.0164 J-0.049
G3 X-24.6907 Y2.4187 I0.0003 J-0.0517
G3 X-24.7056 Y2.4106 I0.0171 J-0.0488
G3 X-24.7171 Y2.398 I0.032 J-0.0406
G3 X-24.7238 Y2.3824 I0.0434 J-0.028
G3 X-24.7253 Y2.37 I0.0502 J-0.0124
G3 X-24.7251 Y2.3654 I0.0517 J0
G3 X-24.7209 Y2.349 I0.0515 J0.0046
G1 X-24.0264 Y0.7891
G2 X-24.0155 Y0.7382 I-0.1142 J-0.0508
G2 X-24.0897 Y0.624 I-0.125 J0
G1 X-25.3458 Y0.0648
G1 Z-0.3 F30
G1 X-24.5767 Y-1.6627 F20
G1 X-23.2156 Y-1.0568
G2 X-23.1694 Y-1.0424 I0.0832 J-0.1868
G2 X-23.121 Y-1.0394 I0.0369 J-0.2011
G2 X-23.0733 Y-1.0478 I-0.0114 J-0.2042
G2 X-23.0289 Y-1.0672 I-0.0591 J-0.1958
G1 X-22.6159 Y-1.3097
G3 X-22.2299 Y-1.5037 I1.6795 J2.8611
G3 X-21.837 Y-1.6395 I1.2007 J2.836
G3 X-21.4294 Y-1.7212 I0.8078 J2.9719
G3 X-20.9982 Y-1.7494 I0.4312 J3.2895
G1 X-20.4982 Y-1.7494
G3 X-20.4789 Y-1.7455 I0 J0.0505
G3 X-20.4625 Y-1.7346 I-0.0193 J0.0467
G3 X-20.4516 Y-1.7182 I-0.0357 J0.0357
G3 X-20.4477 Y-1.6989 I-0.0467 J0.0193
G3 X-20.4516 Y-1.6796 I-0.0505 J0
G3 X-20.4625 Y-1.6632 I-0.0467 J-0.0193
G3 X-20.4789 Y-1.6522 I-0.0357 J-0.0357
G3 X-20.4982 Y-1.6484 I-0.0193 J-0.0467
G1 X-20.9982 Y-1.6484
G2 X-21.4146 Y-1.6212 I0 J3.2037
G2 X-21.8104 Y-1.5418 I0.3887 J2.9656
G2 X-22.192 Y-1.4099 I0.7846 J2.8863
G2 X-22.5648 Y-1.2225 I1.249 J2.9502
G1 X-22.9778 Y-0.9801
G3 X-23.0441 Y-0.9511 I-0.1547 J-0.2635
G3 X-23.1154 Y-0.9386 I-0.0884 J-0.2924
G3 X-23.1876 Y-0.9431 I-0.0171 J-0.305
G3 X-23.2567 Y-0.9645 I0.0551 J-0.3005
G1 X-24.4113 Y-1.4785
G2 X-24.5763 Y-1.4152 I-0.0508 J0.1142
G1 X-25.1616 Y-0.1006
G2 X-25.1724 Y-0.0498 I0.1142 J0.0508
G2 X-25.0983 Y0.0644 I0.125 J0
G1 X-23.9346 Y0.5825
G2 X-23.8487 Y0.5883 I0.0508 J-0.1142
G3 X-23.8356 Y0.587 I0.01 J0.0341
G3 X-23.823 Y0.5906 I-0.0031 J0.0354
G3 X-23.8125 Y0.5985 I-0.0158 J0.0318
G3 X-23.8056 Y0.6097 I-0.0262 J0.0239
G3 X-23.8033 Y0.6224 I-0.0331 J0.0127
G1 X-23.8033 Y0.6225
G3 X-23.8058 Y0.6355 I-0.0355 J-0.0001
G3 X-23.8128 Y0.6466 I-0.033 J-0.0131
G3 X-23.8234 Y0.6544 I-0.026 J-0.0242
G2 X-23.8833 Y0.7162 I0.0542 J0.1126
G1 X-24.6169 Y2.3638
G2 X-24.6236 Y2.383 I0.1142 J0.0508
G3 X-24.6306 Y2.3986 I-0.05 J-0.0131
G3 X-24.6422 Y2.411 I-0.0431 J-0.0286
G3 X-24.6572 Y2.419 I-0.0314 J-0.041
G3 X-24.674 Y2.4216 I-0.0164 J-0.049
G3 X-24.6907 Y2.4187 I0.0003 J-0.0517
G3 X-24.7056 Y2.4106 I0.0171 J-0.0488
G3 X-24.7171 Y2.398 I0.032 J-0.0406
G3 X-24.7238 Y2.3824 I0.0434 J-0.028
G3 X-24.7253 Y2.37 I0.0502 J-0.0124
G3 X-24.7251 Y2.3654 I0.0517 J0
G3 X-24.7209 Y2.349 I0.0515 J0.0046
G1 X-24.0264 Y0.7891
G2 X-24.0155 Y0.7382 I-0.1142 J-0.0508
G2 X-24.0897 Y0.624 I-0.125 J0
G1 X-25.3458 Y0.0648
G0 Z0.1
G0 X10.9518 Y0.022
G1 Z-0.05 F30
G1 X10.1827 Y1.7495 F20
G1 X8.9266 Y1.1902
G2 X8.7615 Y1.2536 I-0.0508 J0.1142
G1 X8.203 Y2.508
G3 X8.1937 Y2.5222 I-0.0472 J-0.021
G3 X8.1802 Y2.5325 I-0.0378 J-0.0352
G3 X8.1641 Y2.538 I-0.0244 J-0.0456
G3 X8.1471 Y2.5379 I-0.0083 J-0.051
G3 X8.131 Y2.5323 I0.0087 J-0.0509
G3 X8.1177 Y2.5218 I0.0248 J-0.0453
G3 X8.1084 Y2.5075 I0.0382 J-0.0348
G3 X8.1043 Y2.491 I0.0474 J-0.0206
G3 X8.1042 Y2.487 I0.0515 J-0.0041
G3 X8.1058 Y2.4741 I0.0517 J0
G3 X8.1127 Y2.4586 I0.05 J0.0129
G2 X8.1225 Y2.4407 I-0.1044 J-0.0687
G1 X8.72 Y1.0985
G2 X8.7308 Y1.0477 I-0.1142 J-0.0508
G2 X8.7258 Y1.0126 I-0.125 J0
G3 X8.7244 Y1.0026 I0.0341 J-0.01
G3 X8.7245 Y0.9995 I0.0355 J0
G3 X8.7281 Y0.9869 I0.0354 J0.0031
G3 X8.736 Y0.9764 I0.0318 J0.0158
G3 X8.7472 Y0.9695 I0.0239 J0.0262
G3 X8.7601 Y0.9671 I0.0127 J0.0331
G3 X8.773 Y0.9696 I-0.0002 J0.0355
G3 X8.7841 Y0.9767 I-0.0131 J0.033
G3 X8.7919 Y0.9872 I-0.0242 J0.026
G2 X8.8537 Y1.0472 I0.1126 J-0.0542
G1 X10.0173 Y1.5653
G2 X10.1824 Y1.502 I0.0508 J-0.1142
G1 X10.7676 Y0.1874
G2 X10.7785 Y0.1365 I-0.1142 J-0.0508
G2 X10.7043 Y0.0223 I-0.125 J0
G1 X9.5406 Y-0.4958
G2 X9.4547 Y-0.5016 I-0.0508 J0.1142
G3 X9.4417 Y-0.5003 I-0.01 J-0.0341
G3 X9.429 Y-0.5038 I0.0031 J-0.0354
G3 X9.4185 Y-0.5117 I0.0158 J-0.0318
G3 X9.4116 Y-0.5229 I0.0262 J-0.0239
G3 X9.4093 Y-0.5356 I0.0331 J-0.0127
G1 X9.4093 Y-0.5357
G3 X9.4118 Y-0.5487 I0.0355 J0.0001
G3 X9.4188 Y-0.5598 I0.033 J0.0131
G3 X9.4294 Y-0.5676 I0.026 J0.0242
G2 X9.4893 Y-0.6294 I-0.0542 J-0.1126
G1 X10.0869 Y-1.9715
G2 X10.0936 Y-1.9908 I-0.1142 J-0.0508
G3 X10.1006 Y-2.0063 I0.05 J0.0131
G3 X10.1122 Y-2.0187 I0.0431 J0.0286
G3 X10.1272 Y-2.0267 I0.0314 J0.041
G3 X10.144 Y-2.0294 I0.0164 J0.049
G3 X10.1607 Y-2.0265 I-0.0003 J0.0517
G3 X10.1756 Y-2.0183 I-0.0171 J0.0488
G3 X10.1871 Y-2.0057 I-0.032 J0.0406
G3 X10.1938 Y-1.9901 I-0.0434 J0.028
G3 X10.1953 Y-1.9777 I-0.0502 J0.0124
G3 X10.1951 Y-1.9732 I-0.0517 J0
G3 X10.1909 Y-1.9567 I-0.0515 J-0.0046
G1 X9.6324 Y-0.7023
G2 X9.6216 Y-0.6515 I0.1142 J0.0508
G2 X9.6957 Y-0.5373 I0.125 J0
G1 X10.9518 Y0.022
G1 Z-0.1 F30
G1 X10.1827 Y1.7495 F20
G1 X8.9266 Y1.1902
G2 X8.7615 Y1.2536 I-0.0508 J0.1142
G1 X8.203 Y2.508
G3 X8.1937 Y2.5222 I-0.0472 J-0.021
G3 X8.1802 Y2.5325 I-0.0378 J-0.0352
G3 X8.1641 Y2.538 I-0.0244 J-0.0456
G3 X8.1471 Y2.5379 I-0.0083 J-0.051
G3 X8.131 Y2.5323 I0.0087 J-0.0509
G3 X8.1177 Y2.5218 I0.0248 J-0.0453
G3 X8.1084 Y2.5075 I0.0382 J-0.0348
G3 X8.1043 Y2.491 I0.0474 J-0.0206
G3 X8.1042 Y2.487 I0.0515 J-0.0041
G3 X8.1058 Y2.4741 I0.0517 J0
G3 X8.1127 Y2.4586 I0.05 J0.0129
G2 X8.1225 Y2.4407 I-0.1044 J-0.0687
G1 X8.72 Y1.0985
G2 X8.7308 Y1.0477 I-0.1142 J-0.0508
G2 X8.7258 Y1.0126 I-0.125 J0
G3 X8.7244 Y1.0026 I0.0341 J-0.01
G3 X8.7245 Y0.9995 I0.0355 J0
G3 X8.7281 Y0.9869 I0.0354 J0.0031
G3 X8.736 Y0.9764 I0.0318 J0.0158
G3 X8.7472 Y0.9695 I0.0239 J0.0262
G3 X8.7601 Y0.9671 I0.0127 J0.0331
G3 X8.773 Y0.9696 I-0.0002 J0.0355
G3 X8.7841 Y0.9767 I-0.0131 J0.033
G3 X8.7919 Y0.9872 I-0.0242 J0.026
G2 X8.8537 Y1.0472 I0.1126 J-0.0542
G1 X10.0173 Y1.5653
G2 X10.1824 Y1.502 I0.0508 J-0.1142
G1 X10.7676 Y0.1874
G2 X10.7785 Y0.1365 I-0.1142 J-0.0508
G2 X10.7043 Y0.0223 I-0.125 J0
G1 X9.5406 Y-0.4958
G2 X9.4547 Y-0.5016 I-0.0508 J0.1142
G3 X9.4417 Y-0.5003 I-0.01 J-0.0341
G3 X9.429 Y-0.5038 I0.0031 J-0.0354
G3 X9.4185 Y-0.5117 I0.0158 J-0.0318
G3 X9.4116 Y-0.5229 I0.0262 J-0.0239
G3 X9.4093 Y-0.5356 I0.0331 J-0.0127
G1 X9.4093 Y-0.5357
G3 X9.4118 Y-0.5487 I0.0355 J0.0001
G3 X9.4188 Y-0.5598 I0.033 J0.0131
G3 X9.4294 Y-0.5676 I0.026 J0.0242
G2 X9.4893 Y-0.6294 I-0.0542 J-0.1126
G1 X10.0869 Y-1.9715
G2 X10.0936 Y-1.9908 I-0.1142 J-0.0508
G3 X10.1006 Y-2.0063 I0.05 J0.0131
G3 X10.1122 Y-2.0187 I0.0431 J0.0286
G3 X10.1272 Y-2.0267 I0.0314 J0.041
G3 X10.144 Y-2.0294 I0.0164 J0.049
G3 X10.1607 Y-2.0265 I-0.0003 J0.0517
G3 X10.1756 Y-2.0183 I-0.0171 J0.0488
G3 X10.1871 Y-2.0057 I-0.032 J0.0406
G3 X10.1938 Y-1.9901 I-0.0434 J0.028
G3 X10.1953 Y-1.9777 I-0.0502 J0.0124
G3 X10.1951 Y-1.9732 I-0.0517 J0
G3 X10.1909 Y-1.9567 I-0.0515 J-0.0046
G1 X9.6324 Y-0.7023
G2 X9.6216 Y-0.6515 I0.1142 J0.0508
G2 X9.6957 Y-0.5373 I0.125 J0
G1 X10.9518 Y0.022
G1 Z-0.15 F30
G1 X10.1827 Y1.7495 F20
G1 X8.9266 Y1.1902
G2 X8.7615 Y1.2536 I-0.0508 J0.1142
G1 X8.203 Y2.508
G3 X8.1937 Y2.5222 I-0.0472 J-0.021
G3 X8.1802 Y2.5325 I-0.0378 J-0.0352
G3 X8.1641 Y2.538 I-0.0244 J-0.0456
G3 X8.1471 Y2.5379 I-0.0083 J-0.051
G3 X8.131 Y2.5323 I0.0087 J-0.0509
G3 X8.1177 Y2.5218 I0.0248 J-0.0453
G3 X8.1084 Y2.5075 I0.0382 J-0.0348
G3 X8.1043 Y2.491 I0.0474 J-0.0206
G3 X8.1042 Y2.487 I0.0515 J-0.0041
G3 X8.1058 Y2.4741 I0.0517 J0
G3 X8.1127 Y2.4586 I0.05 J0.0129
G2 X8.1225 Y2.4407 I-0.1044 J-0.0687
G1 X8.72 Y1.0985
G2 X8.7308 Y1.0477 I-0.1142 J-0.0508
G2 X8.7258 Y1.0126 I-0.125 J0
G3 X8.7244 Y1.0026 I0.0341 J-0.01
G3 X8.7245 Y0.9995 I0.0355 J0
G3 X8.7281 Y0.9869 I0.0354 J0.0031
G3 X8.736 Y0.9764 I0.0318 J0.0158
G3 X8.7472 Y0.9695 I0.0239 J0.0262
G3 X8.7601 Y0.9671 I0.0127 J0.0331
G3 X8.773 Y0.9696 I-0.0002 J0.0355
G3 X8.7841 Y0.9767 I-0.0131 J0.033
G3 X8.7919 Y0.9872 I-0.0242 J0.026
G2 X8.8537 Y1.0472 I0.1126 J-0.0542
G1 X10.0173 Y1.5653
G2 X10.1824 Y1.502 I0.0508 J-0.1142
G1 X10.7676 Y0.1874
G2 X10.7785 Y0.1365 I-0.1142 J-0.0508
G2 X10.7043 Y0.0223 I-0.125 J0
G1 X9.5406 Y-0.4958
G2 X9.4547 Y-0.5016 I-0.0508 J0.1142
G3 X9.4417 Y-0.5003 I-0.01 J-0.0341
G3 X9.429 Y-0.5038 I0.0031 J-0.0354
G3 X9.4185 Y-0.5117 I0.0158 J-0.0318
G3 X9.4116 Y-0.5229 I0.0262 J-0.0239
G3 X9.4093 Y-0.5356 I0.0331 J-0.0127
G1 X9.4093 Y-0.5357
G3 X9.4118 Y-0.5487 I0.0355 J0.0001
G3 X9.4188 Y-0.5598 I0.033 J0.0131
G3 X9.4294 Y-0.5676 I0.026 J0.0242
G2 X9.4893 Y-0.6294 I-0.0542 J-0.1126
G1 X10.0869 Y-1.9715
G2 X10.0936 Y-1.9908 I-0.1142 J-0.0508
G3 X10.1006 Y-2.0063 I0.05 J0.0131
G3 X10.1122 Y-2.0187 I0.0431 J0.0286
G3 X10.1272 Y-2.0267 I0.0314 J0.041
G3 X10.144 Y-2.0294 I0.0164 J0.049
G3 X10.1607 Y-2.0265 I-0.0003 J0.0517
G3 X10.1756 Y-2.0183 I-0.0171 J0.0488
G3 X10.1871 Y-2.0057 I-0.032 J0.0406
G3 X10.1938 Y-1.9901 I-0.0434 J0.028
G3 X10.1953 Y-1.9777 I-0.0502 J0.0124
G3 X10.1951 Y-1.9732 I-0.0517 J0
G3 X10.1909 Y-1.9567 I-0.0515 J-0.0046
G1 X9.6324 Y-0.7023
G2 X9.6216 Y-0.6515 I0.1142 J0.0508
G2 X9.6957 Y-0.5373 I0.125 J0
G1 X10.9518 Y0.022
G1 Z-0.2 F30
G1 X10.1827 Y1.7495 F20
G1 X8.9266 Y1.1902
G2 X8.7615 Y1.2536 I-0.0508 J0.1142
G1 X8.203 Y2.508
G3 X8.1937 Y2.5222 I-0.0472 J-0.021
G3 X8.1802 Y2.5325 I-0.0378 J-0.0352
G3 X8.1641 Y2.538 I-0.0244 J-0.0456
G3 X8.1471 Y2.5379 I-0.0083 J-0.051
G3 X8.131 Y2.5323 I0.0087 J-0.0509
G3 X8.1177 Y2.5218 I0.0248 J-0.0453
G3 X8.1084 Y2.5075 I0.0382 J-0.0348
G3 X8.1043 Y2.491 I0.0474 J-0.0206
G3 X8.1042 Y2.487 I0.0515 J-0.0041
G3 X8.1058 Y2.4741 I0.0517 J0
G3 X8.1127 Y2.4586 I0.05 J0.0129
G2 X8.1225 Y2.4407 I-0.1044 J-0.0687
G1 X8.72 Y1.0985
G2 X8.7308 Y1.0477 I-0.1142 J-0.0508
G2 X8.7258 Y1.0126 I-0.125 J0
G3 X8.7244 Y1.0026 I0.0341 J-0.01
G3 X8.7245 Y0.9995 I0.0355 J0
G3 X8.7281 Y0.9869 I0.0354 J0.0031
G3 X8.736 Y0.9764 I0.0318 J0.0158
G3 X8.7472 Y0.9695 I0.0239 J0.0262
G3 X8.7601 Y0.9671 I0.0127 J0.0331
G3 X8.773 Y0.9696 I-0.0002 J0.0355
G3 X8.7841 Y0.9767 I-0.0131 J0.033
G3 X8.7919 Y0.9872 I-0.0242 J0.026
G2 X8.8537 Y1.0472 I0.1126 J-0.0542
G1 X10.0173 Y1.5653
G2 X10.1824 Y1.502 I0.0508 J-0.1142
G1 X10.7676 Y0.1874
G2 X10.7785 Y0.1365 I-0.1142 J-0.0508
G2 X10.7043 Y0.0223 I-0.125 J0
G1 X9.5406 Y-0.4958
G2 X9.4547 Y-0.5016 I-0.0508 J0.1142
G3 X9.4417 Y-0.5003 I-0.01 J-0.0341
G3 X9.429 Y-0.5038 I0.0031 J-0.0354
G3 X9.4185 Y-0.5117 I0.0158 J-0.0318
G3 X9.4116 Y-0.5229 I0.0262 J-0.0239
G3 X9.4093 Y-0.5356 I0.0331 J-0.0127
G1 X9.4093 Y-0.5357
G3 X9.4118 Y-0.5487 I0.0355 J0.0001
G3 X9.4188 Y-0.5598 I0.033 J0.0131
G3 X9.4294 Y-0.5676 I0.026 J0.0242
G2 X9.4893 Y-0.6294 I-0.0542 J-0.1126
G1 X10.0869 Y-1.9715
G2 X10.0936 Y-1.9908 I-0.1142 J-0.0508
G3 X10.1006 Y-2.0063 I0.05 J0.0131
G3 X10.1122 Y-2.0187 I0.0431 J0.0286
G3 X10.1272 Y-2.0267 I0.0314 J0.041
G3 X10.144 Y-2.0294 I0.0164 J0.049
G3 X10.1607 Y-2.0265 I-0.0003 J0.0517
G3 X10.1756 Y-2.0183 I-0.0171 J0.0488
G3 X10.1871 Y-2.0057 I-0.032 J0.0406
G3 X10.1938 Y-1.9901 I-0.0434 J0.028
G3 X10.1953 Y-1.9777 I-0.0502 J0.0124
G3 X10.1951 Y-1.9732 I-0.0517 J0
G3 X10.1909 Y-1.9567 I-0.0515 J-0.0046
G1 X9.6324 Y-0.7023
G2 X9.6216 Y-0.6515 I0.1142 J0.0508
G2 X9.6957 Y-0.5373 I0.125 J0
G1 X10.9518 Y0.022
G1 Z-0.25 F30
G1 X10.1827 Y1.7495 F20
G1 X8.9266 Y1.1902
G2 X8.7615 Y1.2536 I-0.0508 J0.1142
G1 X8.203 Y2.508
G3 X8.1937 Y2.5222 I-0.0472 J-0.021
G3 X8.1802 Y2.5325 I-0.0378 J-0.0352
G3 X8.1641 Y2.538 I-0.0244 J-0.0456
G3 X8.1471 Y2.5379 I-0.0083 J-0.051
G3 X8.131 Y2.5323 I0.0087 J-0.0509
G3 X8.1177 Y2.5218 I0.0248 J-0.0453
G3 X8.1084 Y2.5075 I0.0382 J-0.0348
G3 X8.1043 Y2.491 I0.0474 J-0.0206
G3 X8.1042 Y2.487 I0.0515 J-0.0041
G3 X8.1058 Y2.4741 I0.0517 J0
G3 X8.1127 Y2.4586 I0.05 J0.0129
G2 X8.1225 Y2.4407 I-0.1044 J-0.0687
G1 X8.72 Y1.0985
G2 X8.7308 Y1.0477 I-0.1142 J-0.0508
G2 X8.7258 Y1.0126 I-0.125 J0
G3 X8.7244 Y1.0026 I0.0341 J-0.01
G3 X8.7245 Y0.9995 I0.0355 J0
G3 X8.7281 Y0.9869 I0.0354 J0.0031
G3 X8.736 Y0.9764 I0.0318 J0.0158
G3 X8.7472 Y0.9695 I0.0239 J0.0262
G3 X8.7601 Y0.9671 I0.0127 J0.0331
G3 X8.773 Y0.9696 I-0.0002 J0.0355
G3 X8.7841 Y0.9767 I-0.0131 J0.033
G3 X8.7919 Y0.9872 I-0.0242 J0.026
G2 X8.8537 Y1.0472 I0.1126 J-0.0542
G1 X10.0173 Y1.5653
G2 X10.1824 Y1.502 I0.0508 J-0.1142
G1 X10.7676 Y0.1874
G2 X10.7785 Y0.1365 I-0.1142 J-0.0508
G2 X10.7043 Y0.0223 I-0.125 J0
G1 X9.5406 Y-0.4958
G2 X9.4547 Y-0.5016 I-0.0508 J0.1142
G3 X9.4417 Y-0.5003 I-0.01 J-0.0341
G3 X9.429 Y-0.5038 I0.0031 J-0.0354
G3 X9.4185 Y-0.5117 I0.0158 J-0.0318
G3 X9.4116 Y-0.5229 I0.0262 J-0.0239
G3 X9.4093 Y-0.5356 I0.0331 J-0.0127
G1 X9.4093 Y-0.5357
G3 X9.4118 Y-0.5487 I0.0355 J0.0001
G3 X9.4188 Y-0.5598 I0.033 J0.0131
G3 X9.4294 Y-0.5676 I0.026 J0.0242
G2 X9.4893 Y-0.6294 I-0.0542 J-0.1126
G1 X10.0869 Y-1.9715
G2 X10.0936 Y-1.9908 I-0.1142 J-0.0508
G3 X10.1006 Y-2.0063 I0.05 J0.0131
G3 X10.1122 Y-2.0187 I0.0431 J0.0286
G3 X10.1272 Y-2.0267 I0.0314 J0.041
G3 X10.144 Y-2.0294 I0.0164 J0.049
G3 X10.1607 Y-2.0265 I-0.0003 J0.0517
G3 X10.1756 Y-2.0183 I-0.0171 J0.0488
G3 X10.1871 Y-2.0057 I-0.032 J0.0406
G3 X10.1938 Y-1.9901 I-0.0434 J0.028
G3 X10.1953 Y-1.9777 I-0.0502 J0.0124
G3 X10.1951 Y-1.9732 I-0.0517 J0
G3 X10.1909 Y-1.9567 I-0.0515 J-0.0046
G1 X9.6324 Y-0.7023
G2 X9.6216 Y-0.6515 I0.1142 J0.0508
G2 X9.6957 Y-0.5373 I0.125 J0
G1 X10.9518 Y0.022
G1 Z-0.3 F30
G1 X10.1827 Y1.7495 F20
G1 X8.9266 Y1.1902
G2 X8.7615 Y1.2536 I-0.0508 J0.1142
G1 X8.203 Y2.508
G3 X8.1937 Y2.5222 I-0.0472 J-0.021
G3 X8.1802 Y2.5325 I-0.0378 J-0.0352
G3 X8.1641 Y2.538 I-0.0244 J-0.0456
G3 X8.1471 Y2.5379 I-0.0083 J-0.051
G3 X8.131 Y2.5323 I0.0087 J-0.0509
G3 X8.1177 Y2.5218 I0.0248 J-0.0453
G3 X8.1084 Y2.5075 I0.0382 J-0.0348
G3 X8.1043 Y2.491 I0.0474 J-0.0206
G3 X8.1042 Y2.487 I0.0515 J-0.0041
G3 X8.1058 Y2.4741 I0.0517 J0
G3 X8.1127 Y2.4586 I0.05 J0.0129
G2 X8.1225 Y2.4407 I-0.1044 J-0.0687
G1 X8.72 Y1.0985
G2 X8.7308 Y1.0477 I-0.1142 J-0.0508
G2 X8.7258 Y1.0126 I-0.125 J0
G3 X8.7244 Y1.0026 I0.0341 J-0.01
G3 X8.7245 Y0.9995 I0.0355 J0
G3 X8.7281 Y0.9869 I0.0354 J0.0031
G3 X8.736 Y0.9764 I0.0318 J0.0158
G3 X8.7472 Y0.9695 I0.0239 J0.0262
G3 X8.7601 Y0.9671 I0.0127 J0.0331
G3 X8.773 Y0.9696 I-0.0002 J0.0355
G3 X8.7841 Y0.9767 I-0.0131 J0.033
G3 X8.7919 Y0.9872 I-0.0242 J0.026
G2 X8.8537 Y1.0472 I0.1126 J-0.0542
G1 X10.0173 Y1.5653
G2 X10.1824 Y1.502 I0.0508 J-0.1142
G1 X10.7676 Y0.1874
G2 X10.7785 Y0.1365 I-0.1142 J-0.0508
G2 X10.7043 Y0.0223 I-0.125 J0
G1 X9.5406 Y-0.4958
G2 X9.4547 Y-0.5016 I-0.0508 J0.1142
G3 X9.4417 Y-0.5003 I-0.01 J-0.0341
G3 X9.429 Y-0.5038 I0.0031 J-0.0354
G3 X9.4185 Y-0.5117 I0.0158 J-0.0318
G3 X9.4116 Y-0.5229 I0.0262 J-0.0239
G3 X9.4093 Y-0.5356 I0.0331 J-0.0127
G1 X9.4093 Y-0.5357
G3 X9.4118 Y-0.5487 I0.0355 J0.0001
G3 X9.4188 Y-0.5598 I0.033 J0.0131
G3 X9.4294 Y-0.5676 I0.026 J0.0242
G2 X9.4893 Y-0.6294 I-0.0542 J-0.1126
G1 X10.0869 Y-1.9715
G2 X10.0936 Y-1.9908 I-0.1142 J-0.0508
G3 X10.1006 Y-2.0063 I0.05 J0.0131
G3 X10.1122 Y-2.0187 I0.0431 J0.0286
G3 X10.1272 Y-2.0267 I0.0314 J0.041
G3 X10.144 Y-2.0294 I0.0164 J0.049
G3 X10.1607 Y-2.0265 I-0.0003 J0.0517
G3 X10.1756 Y-2.0183 I-0.0171 J0.0488
G3 X10.1871 Y-2.0057 I-0.032 J0.0406
G3 X10.1938 Y-1.9901 I-0.0434 J0.028
G3 X10.1953 Y-1.9777 I-0.0502 J0.0124
G3 X10.1951 Y-1.9732 I-0.0517 J0
G3 X10.1909 Y-1.9567 I-0.0515 J-0.0046
G1 X9.6324 Y-0.7023
G2 X9.6216 Y-0.6515 I0.1142 J0.0508
G2 X9.6957 Y-0.5373 I0.125 J0
G1 X10.9518 Y0.022
G0 Z0.1
G0 X-3.6457 Y2.4461
G1 Z-0.05 F30
G1 X-3.6457 Y0.6418 F20
G2 X-3.6754 Y0.561 I-0.125 J0
G3 X-3.6819 Y0.5496 I0.0271 J-0.023
G3 X-3.6838 Y0.538 I0.0336 J-0.0115
G3 X-3.6838 Y0.5366 I0.0355 J0
G3 X-3.6808 Y0.5238 I0.0355 J0.0015
G3 X-3.6734 Y0.5129 I0.0325 J0.0143
G3 X-3.6626 Y0.5055 I0.0251 J0.0251
G3 X-3.6498 Y0.5026 I0.0143 J0.0325
G3 X-3.6368 Y0.5045 I0.0015 J0.0355
G3 X-3.6254 Y0.511 I-0.0115 J0.0336
G2 X-3.5445 Y0.5406 I0.0808 J-0.0953
G1 X-2.436 Y0.5406
G2 X-2.3551 Y0.511 I0 J-0.125
G3 X-2.3437 Y0.5045 I0.023 J0.0271
G3 X-2.3307 Y0.5026 I0.0115 J0.0336
G3 X-2.3179 Y0.5055 I-0.0015 J0.0355
G3 X-2.3071 Y0.5129 I-0.0143 J0.0325
G3 X-2.2997 Y0.5238 I-0.0251 J0.0251
G3 X-2.2967 Y0.5366 I-0.0325 J0.0143
G3 X-2.2967 Y0.538 I-0.0355 J0.0015
G3 X-2.2986 Y0.5496 I-0.0355 J0
G3 X-2.3051 Y0.561 I-0.0336 J-0.0115
G2 X-2.3347 Y0.6418 I0.0953 J0.0808
G1 X-2.3347 Y2.4461
G3 X-2.3386 Y2.4654 I-0.0505 J0
G3 X-2.3495 Y2.4818 I-0.0467 J-0.0193
G3 X-2.3659 Y2.4928 I-0.0357 J-0.0357
G3 X-2.3852 Y2.4966 I-0.0193 J-0.0467
G3 X-2.4046 Y2.4928 I0 J-0.0505
G3 X-2.421 Y2.4818 I0.0193 J-0.0467
G3 X-2.4319 Y2.4654 I0.0357 J-0.0357
G3 X-2.4357 Y2.4461 I0.0467 J-0.0193
G1 X-2.4357 Y0.7666
G2 X-2.5607 Y0.6416 I-0.125 J0
G1 X-3.4197 Y0.6416
G2 X-3.5447 Y0.7666 I0 J0.125
G1 X-3.5447 Y2.4461
G3 X-3.5486 Y2.4654 I-0.0505 J0
G3 X-3.5595 Y2.4818 I-0.0467 J-0.0193
G3 X-3.5759 Y2.4928 I-0.0357 J-0.0357
G3 X-3.5952 Y2.4966 I-0.0193 J-0.0467
G3 X-3.6146 Y2.4928 I0 J-0.0505
G3 X-3.631 Y2.4818 I0.0193 J-0.0467
G3 X-3.6419 Y2.4654 I0.0357 J-0.0357
G3 X-3.6457 Y2.4461 I0.0467 J-0.0193
G1 Z-0.1 F30
G1 X-3.6457 Y0.6418 F20
G2 X-3.6754 Y0.561 I-0.125 J0
G3 X-3.6819 Y0.5496 I0.0271 J-0.023
G3 X-3.6838 Y0.538 I0.0336 J-0.0115
G3 X-3.6838 Y0.5366 I0.0355 J0
G3 X-3.6808 Y0.5238 I0.0355 J0.0015
G3 X-3.6734 Y0.5129 I0.0325 J0.0143
G3 X-3.6626 Y0.5055 I0.0251 J0.0251
G3 X-3.6498 Y0.5026 I0.0143 J0.0325
G3 X-3.6368 Y0.5045 I0.0015 J0.0355
G3 X-3.6254 Y0.511 I-0.0115 J0.0336
G2 X-3.5445 Y0.5406 I0.0808 J-0.0953
G1 X-2.436 Y0.5406
G2 X-2.3551 Y0.511 I0 J-0.125
G3 X-2.3437 Y0.5045 I0.023 J0.0271
G3 X-2.3307 Y0.5026 I0.0115 J0.0336
G3 X-2.3179 Y0.5055 I-0.0015 J0.0355
G3 X-2.3071 Y0.5129 I-0.0143 J0.0325
G3 X-2.2997 Y0.5238 I-0.0251 J0.0251
G3 X-2.2967 Y0.5366 I-0.0325 J0.0143
G3 X-2.2967 Y0.538 I-0.0355 J0.0015
G3 X-2.2986 Y0.5496 I-0.0355 J0
G3 X-2.3051 Y0.561 I-0.0336 J-0.0115
G2 X-2.3347 Y0.6418 I0.0953 J0.0808
G1 X-2.3347 Y2.4461
G3 X-2.3386 Y2.4654 I-0.0505 J0
G3 X-2.3495 Y2.4818 I-0.0467 J-0.0193
G3 X-2.3659 Y2.4928 I-0.0357 J-0.0357
G3 X-2.3852 Y2.4966 I-0.0193 J-0.0467
G3 X-2.4046 Y2.4928 I0 J-0.0505
G3 X-2.421 Y2.4818 I0.0193 J-0.0467
G3 X-2.4319 Y2.4654 I0.0357 J-0.0357
G3 X-2.4357 Y2.4461 I0.0467 J-0.0193
G1 X-2.4357 Y0.7666
G2 X-2.5607 Y0.6416 I-0.125 J0
G1 X-3.4197 Y0.6416
G2 X-3.5447 Y0.7666 I0 J0.125
G1 X-3.5447 Y2.4461
G3 X-3.5486 Y2.4654 I-0.0505 J0
G3 X-3.5595 Y2.4818 I-0.0467 J-0.0193
G3 X-3.5759 Y2.4928 I-0.0357 J-0.0357
G3 X-3.5952 Y2.4966 I-0.0193 J-0.0467
G3 X-3.6146 Y2.4928 I0 J-0.0505
G3 X-3.631 Y2.4818 I0.0193 J-0.0467
G3 X-3.6419 Y2.4654 I0.0357 J-0.0357
G3 X-3.6457 Y2.4461 I0.0467 J-0.0193
G1 Z-0.15 F30
G1 X-3.6457 Y0.6418 F20
G2 X-3.6754 Y0.561 I-0.125 J0
G3 X-3.6819 Y0.5496 I0.0271 J-0.023
G3 X-3.6838 Y0.538 I0.0336 J-0.0115
G3 X-3.6838 Y0.5366 I0.0355 J0
G3 X-3.6808 Y0.5238 I0.0355 J0.0015
G3 X-3.6734 Y0.5129 I0.0325 J0.0143
G3 X-3.6626 Y0.5055 I0.0251 J0.0251
G3 X-3.6498 Y0.5026 I0.0143 J0.0325
G3 X-3.6368 Y0.5045 I0.0015 J0.0355
G3 X-3.6254 Y0.511 I-0.0115 J0.0336
G2 X-3.5445 Y0.5406 I0.0808 J-0.0953
G1 X-2.436 Y0.5406
G2 X-2.3551 Y0.511 I0 J-0.125
G3 X-2.3437 Y0.5045 I0.023 J0.0271
G3 X-2.3307 Y0.5026 I0.0115 J0.0336
G3 X-2.3179 Y0.5055 I-0.0015 J0.0355
G3 X-2.3071 Y0.5129 I-0.0143 J0.0325
G3 X-2.2997 Y0.5238 I-0.0251 J0.0251
G3 X-2.2967 Y0.5366 I-0.0325 J0.0143
G3 X-2.2967 Y0.538 I-0.0355 J0.0015
G3 X-2.2986 Y0.5496 I-0.0355 J0
G3 X-2.3051 Y0.561 I-0.0336 J-0.0115
G2 X-2.3347 Y0.6418 I0.0953 J0.0808
G1 X-2.3347 Y2.4461
G3 X-2.3386 Y2.4654 I-0.0505 J0
G3 X-2.3495 Y2.4818 I-0.0467 J-0.0193
G3 X-2.3659 Y2.4928 I-0.0357 J-0.0357
G3 X-2.3852 Y2.4966 I-0.0193 J-0.0467
G3 X-2.4046 Y2.4928 I0 J-0.0505
G3 X-2.421 Y2.4818 I0.0193 J-0.0467
G3 X-2.4319 Y2.4654 I0.0357 J-0.0357
G3 X-2.4357 Y2.4461 I0.0467 J-0.0193
G1 X-2.4357 Y0.7666
G2 X-2.5607 Y0.6416 I-0.125 J0
G1 X-3.4197 Y0.6416
G2 X-3.5447 Y0.7666 I0 J0.125
G1 X-3.5447 Y2.4461
G3 X-3.5486 Y2.4654 I-0.0505 J0
G3 X-3.5595 Y2.4818 I-0.0467 J-0.0193
G3 X-3.5759 Y2.4928 I-0.0357 J-0.0357
G3 X-3.5952 Y2.4966 I-0.0193 J-0.0467
G3 X-3.6146 Y2.4928 I0 J-0.0505
G3 X-3.631 Y2.4818 I0.0193 J-0.0467
G3 X-3.6419 Y2.4654 I0.0357 J-0.0357
G3 X-3.6457 Y2.4461 I0.0467 J-0.0193
G1 Z-0.2 F30
G1 X-3.6457 Y0.6418 F20
G2 X-3.6754 Y0.561 I-0.125 J0
G3 X-3.6819 Y0.5496 I0.0271 J-0.023
G3 X-3.6838 Y0.538 I0.0336 J-0.0115
G3 X-3.6838 Y0.5366 I0.0355 J0
G3 X-3.6808 Y0.5238 I0.0355 J0.0015
G3 X-3.6734 Y0.5129 I0.0325 J0.0143
G3 X-3.6626 Y0.5055 I0.0251 J0.0251
G3 X-3.6498 Y0.5026 I0.0143 J0.0325
G3 X-3.6368 Y0.5045 I0.0015 J0.0355
G3 X-3.6254 Y0.511 I-0.0115 J0.0336
G2 X-3.5445 Y0.5406 I0.0808 J-0.0953
G1 X-2.436 Y0.5406
G2 X-2.3551 Y0.511 I0 J-0.125
G3 X-2.3437 Y0.5045 I0.023 J0.0271
G3 X-2.3307 Y0.5026 I0.0115 J0.0336
G3 X-2.3179 Y0.5055 I-0.0015 J0.0355
G3 X-2.3071 Y0.5129 I-0.0143 J0.0325
G3 X-2.2997 Y0.5238 I-0.0251 J0.0251
G3 X-2.2967 Y0.5366 I-0.0325 J0.0143
G3 X-2.2967 Y0.538 I-0.0355 J0.0015
G3 X-2.2986 Y0.5496 I-0.0355 J0
G3 X-2.3051 Y0.561 I-0.0336 J-0.0115
G2 X-2.3347 Y0.6418 I0.0953 J0.0808
G1 X-2.3347 Y2.4461
G3 X-2.3386 Y2.4654 I-0.0505 J0
G3 X-2.3495 Y2.4818 I-0.0467 J-0.0193
G3 X-2.3659 Y2.4928 I-0.0357 J-0.0357
G3 X-2.3852 Y2.4966 I-0.0193 J-0.0467
G3 X-2.4046 Y2.4928 I0 J-0.0505
G3 X-2.421 Y2.4818 I0.0193 J-0.0467
G3 X-2.4319 Y2.4654 I0.0357 J-0.0357
G3 X-2.4357 Y2.4461 I0.0467 J-0.0193
G1 X-2.4357 Y0.7666
G2 X-2.5607 Y0.6416 I-0.125 J0
G1 X-3.4197 Y0.6416
G2 X-3.5447 Y0.7666 I0 J0.125
G1 X-3.5447 Y2.4461
G3 X-3.5486 Y2.4654 I-0.0505 J0
G3 X-3.5595 Y2.4818 I-0.0467 J-0.0193
G3 X-3.5759 Y2.4928 I-0.0357 J-0.0357
G3 X-3.5952 Y2.4966 I-0.0193 J-0.0467
G3 X-3.6146 Y2.4928 I0 J-0.0505
G3 X-3.631 Y2.4818 I0.0193 J-0.0467
G3 X-3.6419 Y2.4654 I0.0357 J-0.0357
G3 X-3.6457 Y2.4461 I0.0467 J-0.0193
G1 Z-0.25 F30
G1 X-3.6457 Y0.6418 F20
G2 X-3.6754 Y0.561 I-0.125 J0
G3 X-3.6819 Y0.5496 I0.0271 J-0.023
G3 X-3.6838 Y0.538 I0.0336 J-0.0115
G3 X-3.6838 Y0.5366 I0.0355 J0
G3 X-3.6808 Y0.5238 I0.0355 J0.0015
G3 X-3.6734 Y0.5129 I0.0325 J0.0143
G3 X-3.6626 Y0.5055 I0.0251 J0.0251
G3 X-3.6498 Y0.5026 I0.0143 J0.0325
G3 X-3.6368 Y0.5045 I0.0015 J0.0355
G3 X-3.6254 Y0.511 I-0.0115 J0.0336
G2 X-3.5445 Y0.5406 I0.0808 J-0.0953
G1 X-2.436 Y0.5406
G2 X-2.3551 Y0.511 I0 J-0.125
G3 X-2.3437 Y0.5045 I0.023 J0.0271
G3 X-2.3307 Y0.5026 I0.0115 J0.0336
G3 X-2.3179 Y0.5055 I-0.0015 J0.0355
G3 X-2.3071 Y0.5129 I-0.0143 J0.0325
G3 X-2.2997 Y0.5238 I-0.0251 J0.0251
G3 X-2.2967 Y0.5366 I-0.0325 J0.0143
G3 X-2.2967 Y0.538 I-0.0355 J0.0015
G3 X-2.2986 Y0.5496 I-0.0355 J0
G3 X-2.3051 Y0.561 I-0.0336 J-0.0115
G2 X-2.3347 Y0.6418 I0.0953 J0.0808
G1 X-2.3347 Y2.4461
G3 X-2.3386 Y2.4654 I-0.0505 J0
G3 X-2.3495 Y2.4818 I-0.0467 J-0.0193
G3 X-2.3659 Y2.4928 I-0.0357 J-0.0357
G3 X-2.3852 Y2.4966 I-0.0193 J-0.0467
G3 X-2.4046 Y2.4928 I0 J-0.0505
G3 X-2.421 Y2.4818 I0.0193 J-0.0467
G3 X-2.4319 Y2.4654 I0.0357 J-0.0357
G3 X-2.4357 Y2.4461 I0.0467 J-0.0193
G1 X-2.4357 Y0.7666
G2 X-2.5607 Y0.6416 I-0.125 J0
G1 X-3.4197 Y0.6416
G2 X-3.5447 Y0.7666 I0 J0.125
G1 X-3.5447 Y2.4461
G3 X-3.5486 Y2.4654 I-0.0505 J0
G3 X-3.5595 Y2.4818 I-0.0467 J-0.0193
G3 X-3.5759 Y2.4928 I-0.0357 J-0.0357
G3 X-3.5952 Y2.4966 I-0.0193 J-0.0467
G3 X-3.6146 Y2.4928 I0 J-0.0505
G3 X-3.631 Y2.4818 I0.0193 J-0.0467
G3 X-3.6419 Y2.4654 I0.0357 J-0.0357
G3 X-3.6457 Y2.4461 I0.0467 J-0.0193
G1 Z-0.3 F30
G1 X-3.6457 Y0.6418 F20
G2 X-3.6754 Y0.561 I-0.125 J0
G3 X-3.6819 Y0.5496 I0.0271 J-0.023
G3 X-3.6838 Y0.538 I0.0336 J-0.0115
G3 X-3.6838 Y0.5366 I0.0355 J0
G3 X-3.6808 Y0.5238 I0.0355 J0.0015
G3 X-3.6734 Y0.5129 I0.0325 J0.0143
G3 X-3.6626 Y0.5055 I0.0251 J0.0251
G3 X-3.6498 Y0.5026 I0.0143 J0.0325
G3 X-3.6368 Y0.5045 I0.0015 J0.0355
G3 X-3.6254 Y0.511 I-0.0115 J0.0336
G2 X-3.5445 Y0.5406 I0.0808 J-0.0953
G1 X-2.436 Y0.5406
G2 X-2.3551 Y0.511 I0 J-0.125
G3 X-2.3437 Y0.5045 I0.023 J0.0271
G3 X-2.3307 Y0.5026 I0.0115 J0.0336
G3 X-2.3179 Y0.5055 I-0.0015 J0.0355
G3 X-2.3071 Y0.5129 I-0.0143 J0.0325
G3 X-2.2997 Y0.5238 I-0.0251 J0.0251
G3 X-2.2967 Y0.5366 I-0.0325 J0.0143
G3 X-2.2967 Y0.538 I-0.0355 J0.0015
G3 X-2.2986 Y0.5496 I-0.0355 J0
G3 X-2.3051 Y0.561 I-0.0336 J-0.0115
G2 X-2.3347 Y0.6418 I0.0953 J0.0808
G1 X-2.3347 Y2.4461
G3 X-2.3386 Y2.4654 I-0.0505 J0
G3 X-2.3495 Y2.4818 I-0.0467 J-0.0193
G3 X-2.3659 Y2.4928 I-0.0357 J-0.0357
G3 X-2.3852 Y2.4966 I-0.0193 J-0.0467
G3 X-2.4046 Y2.4928 I0 J-0.0505
G3 X-2.421 Y2.4818 I0.0193 J-0.0467
G3 X-2.4319 Y2.4654 I0.0357 J-0.0357
G3 X-2.4357 Y2.4461 I0.0467 J-0.0193
G1 X-2.4357 Y0.7666
G2 X-2.5607 Y0.6416 I-0.125 J0
G1 X-3.4197 Y0.6416
G2 X-3.5447 Y0.7666 I0 J0.125
G1 X-3.5447 Y2.4461
G3 X-3.5486 Y2.4654 I-0.0505 J0
G3 X-3.5595 Y2.4818 I-0.0467 J-0.0193
G3 X-3.5759 Y2.4928 I-0.0357 J-0.0357
G3 X-3.5952 Y2.4966 I-0.0193 J-0.0467
G3 X-3.6146 Y2.4928 I0 J-0.0505
G3 X-3.631 Y2.4818 I0.0193 J-0.0467
G3 X-3.6419 Y2.4654 I0.0357 J-0.0357
G3 X-3.6457 Y2.4461 I0.0467 J-0.0193
G0 Z0.1
G0 X0.8543 Y2.4461
G1 Z-0.05 F30
G1 X0.8543 Y0.6418 F20
G2 X0.8246 Y0.561 I-0.125 J0
G3 X0.8181 Y0.5496 I0.0271 J-0.023
G3 X0.8162 Y0.538 I0.0336 J-0.0115
G3 X0.8162 Y0.5366 I0.0355 J0
G3 X0.8192 Y0.5238 I0.0355 J0.0015
G3 X0.8266 Y0.5129 I0.0325 J0.0143
G3 X0.8374 Y0.5055 I0.0251 J0.0251
G3 X0.8502 Y0.5026 I0.0143 J0.0325
G3 X0.8632 Y0.5045 I0.0015 J0.0355
G3 X0.8746 Y0.511 I-0.0115 J0.0336
G2 X0.9555 Y0.5406 I0.0808 J-0.0953
G1 X2.064 Y0.5406
G2 X2.1449 Y0.511 I0 J-0.125
G3 X2.1563 Y0.5045 I0.023 J0.0271
G3 X2.1693 Y0.5026 I0.0115 J0.0336
G3 X2.1821 Y0.5055 I-0.0015 J0.0355
G3 X2.1929 Y0.5129 I-0.0143 J0.0325
G3 X2.2003 Y0.5238 I-0.0251 J0.0251
G3 X2.2033 Y0.5366 I-0.0325 J0.0143
G3 X2.2033 Y0.538 I-0.0355 J0.0015
G3 X2.2014 Y0.5496 I-0.0355 J0
G3 X2.1949 Y0.561 I-0.0336 J-0.0115
G2 X2.1653 Y0.6418 I0.0953 J0.0808
G1 X2.1653 Y2.4461
G3 X2.1614 Y2.4654 I-0.0505 J0
G3 X2.1505 Y2.4818 I-0.0467 J-0.0193
G3 X2.1341 Y2.4928 I-0.0357 J-0.0357
G3 X2.1148 Y2.4966 I-0.0193 J-0.0467
G3 X2.0954 Y2.4928 I0 J-0.0505
G3 X2.079 Y2.4818 I0.0193 J-0.0467
G3 X2.0681 Y2.4654 I0.0357 J-0.0357
G3 X2.0643 Y2.4461 I0.0467 J-0.0193
G1 X2.0643 Y0.7666
G2 X1.9393 Y0.6416 I-0.125 J0
G1 X1.0803 Y0.6416
G2 X0.9553 Y0.7666 I0 J0.125
G1 X0.9553 Y2.4461
G3 X0.9514 Y2.4654 I-0.0505 J0
G3 X0.9405 Y2.4818 I-0.0467 J-0.0193
G3 X0.9241 Y2.4928 I-0.0357 J-0.0357
G3 X0.9048 Y2.4966 I-0.0193 J-0.0467
G3 X0.8854 Y2.4928 I0 J-0.0505
G3 X0.869 Y2.4818 I0.0193 J-0.0467
G3 X0.8581 Y2.4654 I0.0357 J-0.0357
G3 X0.8543 Y2.4461 I0.0467 J-0.0193
G1 Z-0.1 F30
G1 X0.8543 Y0.6418 F20
G2 X0.8246 Y0.561 I-0.125 J0
G3 X0.8181 Y0.5496 I0.0271 J-0.023
G3 X0.8162 Y0.538 I0.0336 J-0.0115
G3 X0.8162 Y0.5366 I0.0355 J0
G3 X0.8192 Y0.5238 I0.0355 J0.0015
G3 X0.8266 Y0.5129 I0.0325 J0.0143
G3 X0.8374 Y0.5055 I0.0251 J0.0251
G3 X0.8502 Y0.5026 I0.0143 J0.0325
G3 X0.8632 Y0.5045 I0.0015 J0.0355
G3 X0.8746 Y0.511 I-0.0115 J0.0336
G2 X0.9555 Y0.5406 I0.0808 J-0.0953
G1 X2.064 Y0.5406
G2 X2.1449 Y0.511 I0 J-0.125
G3 X2.1563 Y0.5045 I0.023 J0.0271
G3 X2.1693 Y0.5026 I0.0115 J0.0336
G3 X2.1821 Y0.5055 I-0.0015 J0.0355
G3 X2.1929 Y0.5129 I-0.0143 J0.0325
G3 X2.2003 Y0.5238 I-0.0251 J0.0251
G3 X2.2033 Y0.5366 I-0.0325 J0.0143
G3 X2.2033 Y0.538 I-0.0355 J0.0015
G3 X2.2014 Y0.5496 I-0.0355 J0
G3 X2.1949 Y0.561 I-0.0336 J-0.0115
G2 X2.1653 Y0.6418 I0.0953 J0.0808
G1 X2.1653 Y2.4461
G3 X2.1614 Y2.4654 I-0.0505 J0
G3 X2.1505 Y2.4818 I-0.0467 J-0.0193
G3 X2.1341 Y2.4928 I-0.0357 J-0.0357
G3 X2.1148 Y2.4966 I-0.0193 J-0.0467
G3 X2.0954 Y2.4928 I0 J-0.0505
G3 X2.079 Y2.4818 I0.0193 J-0.0467
G3 X2.0681 Y2.4654 I0.0357 J-0.0357
G3 X2.0643 Y2.4461 I0.0467 J-0.0193
G1 X2.0643 Y0.7666
G2 X1.9393 Y0.6416 I-0.125 J0
G1 X1.0803 Y0.6416
G2 X0.9553 Y0.7666 I0 J0.125
G1 X0.9553 Y2.4461
G3 X0.9514 Y2.4654 I-0.0505 J0
G3 X0.9405 Y2.4818 I-0.0467 J-0.0193
G3 X0.9241 Y2.4928 I-0.0357 J-0.0357
G3 X0.9048 Y2.4966 I-0.0193 J-0.0467
G3 X0.8854 Y2.4928 I0 J-0.0505
G3 X0.869 Y2.4818 I0.0193 J-0.0467
G3 X0.8581 Y2.4654 I0.0357 J-0.0357
G3 X0.8543 Y2.4461 I0.0467 J-0.0193
G1 Z-0.15 F30
G1 X0.8543 Y0.6418 F20
G2 X0.8246 Y0.561 I-0.125 J0
G3 X0.8181 Y0.5496 I0.0271 J-0.023
G3 X0.8162 Y0.538 I0.0336 J-0.0115
G3 X0.8162 Y0.5366 I0.0355 J0
G3 X0.8192 Y0.5238 I0.0355 J0.0015
G3 X0.8266 Y0.5129 I0.0325 J0.0143
G3 X0.8374 Y0.5055 I0.0251 J0.0251
G3 X0.8502 Y0.5026 I0.0143 J0.0325
G3 X0.8632 Y0.5045 I0.0015 J0.0355
G3 X0.8746 Y0.511 I-0.0115 J0.0336
G2 X0.9555 Y0.5406 I0.0808 J-0.0953
G1 X2.064 Y0.5406
G2 X2.1449 Y0.511 I0 J-0.125
G3 X2.1563 Y0.5045 I0.023 J0.0271
G3 X2.1693 Y0.5026 I0.0115 J0.0336
G3 X2.1821 Y0.5055 I-0.0015 J0.0355
G3 X2.1929 Y0.5129 I-0.0143 J0.0325
G3 X2.2003 Y0.5238 I-0.0251 J0.0251
G3 X2.2033 Y0.5366 I-0.0325 J0.0143
G3 X2.2033 Y0.538 I-0.0355 J0.0015
G3 X2.2014 Y0.5496 I-0.0355 J0
G3 X2.1949 Y0.561 I-0.0336 J-0.0115
G2 X2.1653 Y0.6418 I0.0953 J0.0808
G1 X2.1653 Y2.4461
G3 X2.1614 Y2.4654 I-0.0505 J0
G3 X2.1505 Y2.4818 I-0.0467 J-0.0193
G3 X2.1341 Y2.4928 I-0.0357 J-0.0357
G3 X2.1148 Y2.4966 I-0.0193 J-0.0467
G3 X2.0954 Y2.4928 I0 J-0.0505
G3 X2.079 Y2.4818 I0.0193 J-0.0467
G3 X2.0681 Y2.4654 I0.0357 J-0.0357
G3 X2.0643 Y2.4461 I0.0467 J-0.0193
G1 X2.0643 Y0.7666
G2 X1.9393 Y0.6416 I-0.125 J0
G1 X1.0803 Y0.6416
G2 X0.9553 Y0.7666 I0 J0.125
G1 X0.9553 Y2.4461
G3 X0.9514 Y2.4654 I-0.0505 J0
G3 X0.9405 Y2.4818 I-0.0467 J-0.0193
G3 X0.9241 Y2.4928 I-0.0357 J-0.0357
G3 X0.9048 Y2.4966 I-0.0193 J-0.0467
G3 X0.8854 Y2.4928 I0 J-0.0505
G3 X0.869 Y2.4818 I0.0193 J-0.0467
G3 X0.8581 Y2.4654 I0.0357 J-0.0357
G3 X0.8543 Y2.4461 I0.0467 J-0.0193
G1 Z-0.2 F30
G1 X0.8543 Y0.6418 F20
G2 X0.8246 Y0.561 I-0.125 J0
G3 X0.8181 Y0.5496 I0.0271 J-0.023
G3 X0.8162 Y0.538 I0.0336 J-0.0115
G3 X0.8162 Y0.5366 I0.0355 J0
G3 X0.8192 Y0.5238 I0.0355 J0.0015
G3 X0.8266 Y0.5129 I0.0325 J0.0143
G3 X0.8374 Y0.5055 I0.0251 J0.0251
G3 X0.8502 Y0.5026 I0.0143 J0.0325
G3 X0.8632 Y0.5045 I0.0015 J0.0355
G3 X0.8746 Y0.511 I-0.0115 J0.0336
G2 X0.9555 Y0.5406 I0.0808 J-0.0953
G1 X2.064 Y0.5406
G2 X2.1449 Y0.511 I0 J-0.125
G3 X2.1563 Y0.5045 I0.023 J0.0271
G3 X2.1693 Y0.5026 I0.0115 J0.0336
G3 X2.1821 Y0.5055 I-0.0015 J0.0355
G3 X2.1929 Y0.5129 I-0.0143 J0.0325
G3 X2.2003 Y0.5238 I-0.0251 J0.0251
G3 X2.2033 Y0.5366 I-0.0325 J0.0143
G3 X2.2033 Y0.538 I-0.0355 J0.0015
G3 X2.2014 Y0.5496 I-0.0355 J0
G3 X2.1949 Y0.561 I-0.0336 J-0.0115
G2 X2.1653 Y0.6418 I0.0953 J0.0808
G1 X2.1653 Y2.4461
G3 X2.1614 Y2.4654 I-0.0505 J0
G3 X2.1505 Y2.4818 I-0.0467 J-0.0193
G3 X2.1341 Y2.4928 I-0.0357 J-0.0357
G3 X2.1148 Y2.4966 I-0.0193 J-0.0467
G3 X2.0954 Y2.4928 I0 J-0.0505
G3 X2.079 Y2.4818 I0.0193 J-0.0467
G3 X2.0681 Y2.4654 I0.0357 J-0.0357
G3 X2.0643 Y2.4461 I0.0467 J-0.0193
G1 X2.0643 Y0.7666
G2 X1.9393 Y0.6416 I-0.125 J0
G1 X1.0803 Y0.6416
G2 X0.9553 Y0.7666 I0 J0.125
G1 X0.9553 Y2.4461
G3 X0.9514 Y2.4654 I-0.0505 J0
G3 X0.9405 Y2.4818 I-0.0467 J-0.0193
G3 X0.9241 Y2.4928 I-0.0357 J-0.0357
G3 X0.9048 Y2.4966 I-0.0193 J-0.0467
G3 X0.8854 Y2.4928 I0 J-0.0505
G3 X0.869 Y2.4818 I0.0193 J-0.0467
G3 X0.8581 Y2.4654 I0.0357 J-0.0357
G3 X0.8543 Y2.4461 I0.0467 J-0.0193
G1 Z-0.25 F30
G1 X0.8543 Y0.6418 F20
G2 X0.8246 Y0.561 I-0.125 J0
G3 X0.8181 Y0.5496 I0.0271 J-0.023
G3 X0.8162 Y0.538 I0.0336 J-0.0115
G3 X0.8162 Y0.5366 I0.0355 J0
G3 X0.8192 Y0.5238 I0.0355 J0.0015
G3 X0.8266 Y0.5129 I0.0325 J0.0143
G3 X0.8374 Y0.5055 I0.0251 J0.0251
G3 X0.8502 Y0.5026 I0.0143 J0.0325
G3 X0.8632 Y0.5045 I0.0015 J0.0355
G3 X0.8746 Y0.511 I-0.0115 J0.0336
G2 X0.9555 Y0.5406 I0.0808 J-0.0953
G1 X2.064 Y0.5406
G2 X2.1449 Y0.511 I0 J-0.125
G3 X2.1563 Y0.5045 I0.023 J0.0271
G3 X2.1693 Y0.5026 I0.0115 J0.0336
G3 X2.1821 Y0.5055 I-0.0015 J0.0355
G3 X2.1929 Y0.5129 I-0.0143 J0.0325
G3 X2.2003 Y0.5238 I-0.0251 J0.0251
G3 X2.2033 Y0.5366 I-0.0325 J0.0143
G3 X2.2033 Y0.538 I-0.0355 J0.0015
G3 X2.2014 Y0.5496 I-0.0355 J0
G3 X2.1949 Y0.561 I-0.0336 J-0.0115
G2 X2.1653 Y0.6418 I0.0953 J0.0808
G1 X2.1653 Y2.4461
G3 X2.1614 Y2.4654 I-0.0505 J0
G3 X2.1505 Y2.4818 I-0.0467 J-0.0193
G3 X2.1341 Y2.4928 I-0.0357 J-0.0357
G3 X2.1148 Y2.4966 I-0.0193 J-0.0467
G3 X2.0954 Y2.4928 I0 J-0.0505
G3 X2.079 Y2.4818 I0.0193 J-0.0467
G3 X2.0681 Y2.4654 I0.0357 J-0.0357
G3 X2.0643 Y2.4461 I0.0467 J-0.0193
G1 X2.0643 Y0.7666
G2 X1.9393 Y0.6416 I-0.125 J0
G1 X1.0803 Y0.6416
G2 X0.9553 Y0.7666 I0 J0.125
G1 X0.9553 Y2.4461
G3 X0.9514 Y2.4654 I-0.0505 J0
G3 X0.9405 Y2.4818 I-0.0467 J-0.0193
G3 X0.9241 Y2.4928 I-0.0357 J-0.0357
G3 X0.9048 Y2.4966 I-0.0193 J-0.0467
G3 X0.8854 Y2.4928 I0 J-0.0505
G3 X0.869 Y2.4818 I0.0193 J-0.0467
G3 X0.8581 Y2.4654 I0.0357 J-0.0357
G3 X0.8543 Y2.4461 I0.0467 J-0.0193
G1 Z-0.3 F30
G1 X0.8543 Y0.6418 F20
G2 X0.8246 Y0.561 I-0.125 J0
G3 X0.8181 Y0.5496 I0.0271 J-0.023
G3 X0.8162 Y0.538 I0.0336 J-0.0115
G3 X0.8162 Y0.5366 I0.0355 J0
G3 X0.8192 Y0.5238 I0.0355 J0.0015
G3 X0.8266 Y0.5129 I0.0325 J0.0143
G3 X0.8374 Y0.5055 I0.0251 J0.0251
G3 X0.8502 Y0.5026 I0.0143 J0.0325
G3 X0.8632 Y0.5045 I0.0015 J0.0355
G3 X0.8746 Y0.511 I-0.0115 J0.0336
G2 X0.9555 Y0.5406 I0.0808 J-0.0953
G1 X2.064 Y0.5406
G2 X2.1449 Y0.511 I0 J-0.125
G3 X2.1563 Y0.5045 I0.023 J0.0271
G3 X2.1693 Y0.5026 I0.0115 J0.0336
G3 X2.1821 Y0.5055 I-0.0015 J0.0355
G3 X2.1929 Y0.5129 I-0.0143 J0.0325
G3 X2.2003 Y0.5238 I-0.0251 J0.0251
G3 X2.2033 Y0.5366 I-0.0325 J0.0143
G3 X2.2033 Y0.538 I-0.0355 J0.0015
G3 X2.2014 Y0.5496 I-0.0355 J0
G3 X2.1949 Y0.561 I-0.0336 J-0.0115
G2 X2.1653 Y0.6418 I0.0953 J0.0808
G1 X2.1653 Y2.4461
G3 X2.1614 Y2.4654 I-0.0505 J0
G3 X2.1505 Y2.4818 I-0.0467 J-0.0193
G3 X2.1341 Y2.4928 I-0.0357 J-0.0357
G3 X2.1148 Y2.4966 I-0.0193 J-0.0467
G3 X2.0954 Y2.4928 I0 J-0.0505
G3 X2.079 Y2.4818 I0.0193 J-0.0467
G3 X2.0681 Y2.4654 I0.0357 J-0.0357
G3 X2.0643 Y2.4461 I0.0467 J-0.0193
G1 X2.0643 Y0.7666
G2 X1.9393 Y0.6416 I-0.125 J0
G1 X1.0803 Y0.6416
G2 X0.9553 Y0.7666 I0 J0.125
G1 X0.9553 Y2.4461
G3 X0.9514 Y2.4654 I-0.0505 J0
G3 X0.9405 Y2.4818 I-0.0467 J-0.0193
G3 X0.9241 Y2.4928 I-0.0357 J-0.0357
G3 X0.9048 Y2.4966 I-0.0193 J-0.0467
G3 X0.8854 Y2.4928 I0 J-0.0505
G3 X0.869 Y2.4818 I0.0193 J-0.0467
G3 X0.8581 Y2.4654 I0.0357 J-0.0357
G3 X0.8543 Y2.4461 I0.0467 J-0.0193
G0 Z0.1
G0 X-15.3972 Y-2.0539
G1 Z-0.05 F30
G1 X-15.3972 Y-0.5539 F20
G2 X-15.3476 Y-0.0284 I2.8043 J0
G2 X-15.2069 Y0.442 I2.3657 J-0.4513
G2 X-14.9738 Y0.8741 I2.2251 J-0.9217
G2 X-14.6373 Y1.2807 I2.3194 J-1.5763
G2 X-14.2307 Y1.6171 I1.983 J-1.983
G2 X-13.7986 Y1.8503 I1.3538 J-1.9919
G2 X-13.3282 Y1.991 I0.9217 J-2.2251
G2 X-12.8027 Y2.0406 I0.5254 J-2.7547
G3 X-12.7834 Y2.0445 I0 J0.0505
G3 X-12.767 Y2.0554 I-0.0193 J0.0467
G3 X-12.7561 Y2.0718 I-0.0357 J0.0357
G3 X-12.7522 Y2.0911 I-0.0467 J0.0193
G3 X-12.7561 Y2.1104 I-0.0505 J0
G3 X-12.767 Y2.1268 I-0.0467 J-0.0193
G3 X-12.7834 Y2.1378 I-0.0357 J-0.0357
G3 X-12.8027 Y2.1416 I-0.0193 J-0.0467
G3 X-13.3527 Y2.0896 I0 J-2.9351
G3 X-13.8377 Y1.9446 I0.4652 J-2.439
G3 X-14.2831 Y1.7042 I0.9502 J-2.2939
G3 X-14.7088 Y1.3521 I1.6498 J-2.4276
G3 X-15.0609 Y0.9265 I2.0755 J-2.0755
G3 X-15.3012 Y0.481 I2.0536 J-1.3957
G3 X-15.4463 Y-0.0039 I2.2939 J-0.9502
G3 X-15.4982 Y-0.5539 I2.8832 J-0.5499
G1 X-15.4982 Y-2.0539
G3 X-15.4944 Y-2.0732 I0.0505 J0
G3 X-15.4835 Y-2.0896 I0.0467 J0.0193
G3 X-15.4671 Y-2.1005 I0.0357 J0.0357
G3 X-15.4477 Y-2.1044 I0.0193 J0.0467
G3 X-15.4284 Y-2.1005 I0 J0.0505
G3 X-15.412 Y-2.0896 I-0.0193 J0.0467
G3 X-15.4011 Y-2.0732 I-0.0357 J0.0357
G3 X-15.3972 Y-2.0539 I-0.0467 J0.0193
G1 Z-0.1 F30
G1 X-15.3972 Y-0.5539 F20
G2 X-15.3476 Y-0.0284 I2.8043 J0
G2 X-15.2069 Y0.442 I2.3657 J-0.4513
G2 X-14.9738 Y0.8741 I2.2251 J-0.9217
G2 X-14.6373 Y1.2807 I2.3194 J-1.5763
G2 X-14.2307 Y1.6171 I1.983 J-1.983
G2 X-13.7986 Y1.8503 I1.3538 J-1.9919
G2 X-13.3282 Y1.991 I0.9217 J-2.2251
G2 X-12.8027 Y2.0406 I0.5254 J-2.7547
G3 X-12.7834 Y2.0445 I0 J0.0505
G3 X-12.767 Y2.0554 I-0.0193 J0.0467
G3 X-12.7561 Y2.0718 I-0.0357 J0.0357
G3 X-12.7522 Y2.0911 I-0.0467 J0.0193
G3 X-12.7561 Y2.1104 I-0.0505 J0
G3 X-12.767 Y2.1268 I-0.0467 J-0.0193
G3 X-12.7834 Y2.1378 I-0.0357 J-0.0357
G3 X-12.8027 Y2.1416 I-0.0193 J-0.0467
G3 X-13.3527 Y2.0896 I0 J-2.9351
G3 X-13.8377 Y1.9446 I0.4652 J-2.439
G3 X-14.2831 Y1.7042 I0.9502 J-2.2939
G3 X-14.7088 Y1.3521 I1.6498 J-2.4276
G3 X-15.0609 Y0.9265 I2.0755 J-2.0755
G3 X-15.3012 Y0.481 I2.0536 J-1.3957
G3 X-15.4463 Y-0.0039 I2.2939 J-0.9502
G3 X-15.4982 Y-0.5539 I2.8832 J-0.5499
G1 X-15.4982 Y-2.0539
G3 X-15.4944 Y-2.0732 I0.0505 J0
G3 X-15.4835 Y-2.0896 I0.0467 J0.0193
G3 X-15.4671 Y-2.1005 I0.0357 J0.0357
G3 X-15.4477 Y-2.1044 I0.0193 J0.0467
G3 X-15.4284 Y-2.1005 I0 J0.0505
G3 X-15.412 Y-2.0896 I-0.0193 J0.0467
G3 X-15.4011 Y-2.0732 I-0.0357 J0.0357
G3 X-15.3972 Y-2.0539 I-0.0467 J0.0193
G1 Z-0.15 F30
G1 X-15.3972 Y-0.5539 F20
G2 X-15.3476 Y-0.0284 I2.8043 J0
G2 X-15.2069 Y0.442 I2.3657 J-0.4513
G2 X-14.9738 Y0.8741 I2.2251 J-0.9217
G2 X-14.6373 Y1.2807 I2.3194 J-1.5763
G2 X-14.2307 Y1.6171 I1.983 J-1.983
G2 X-13.7986 Y1.8503 I1.3538 J-1.9919
G2 X-13.3282 Y1.991 I0.9217 J-2.2251
G2 X-12.8027 Y2.0406 I0.5254 J-2.7547
G3 X-12.7834 Y2.0445 I0 J0.0505
G3 X-12.767 Y2.0554 I-0.0193 J0.0467
G3 X-12.7561 Y2.0718 I-0.0357 J0.0357
G3 X-12.7522 Y2.0911 I-0.0467 J0.0193
G3 X-12.7561 Y2.1104 I-0.0505 J0
G3 X-12.767 Y2.1268 I-0.0467 J-0.0193
G3 X-12.7834 Y2.1378 I-0.0357 J-0.0357
G3 X-12.8027 Y2.1416 I-0.0193 J-0.0467
G3 X-13.3527 Y2.0896 I0 J-2.9351
G3 X-13.8377 Y1.9446 I0.4652 J-2.439
G3 X-14.2831 Y1.7042 I0.9502 J-2.2939
G3 X-14.7088 Y1.3521 I1.6498 J-2.4276
G3 X-15.0609 Y0.9265 I2.0755 J-2.0755
G3 X-15.3012 Y0.481 I2.0536 J-1.3957
G3 X-15.4463 Y-0.0039 I2.2939 J-0.9502
G3 X-15.4982 Y-0.5539 I2.8832 J-0.5499
G1 X-15.4982 Y-2.0539
G3 X-15.4944 Y-2.0732 I0.0505 J0
G3 X-15.4835 Y-2.0896 I0.0467 J0.0193
G3 X-15.4671 Y-2.1005 I0.0357 J0.0357
G3 X-15.4477 Y-2.1044 I0.0193 J0.0467
G3 X-15.4284 Y-2.1005 I0 J0.0505
G3 X-15.412 Y-2.0896 I-0.0193 J0.0467
G3 X-15.4011 Y-2.0732 I-0.0357 J0.0357
G3 X-15.3972 Y-2.0539 I-0.0467 J0.0193
G1 Z-0.2 F30
G1 X-15.3972 Y-0.5539 F20
G2 X-15.3476 Y-0.0284 I2.8043 J0
G2 X-15.2069 Y0.442 I2.3657 J-0.4513
G2 X-14.9738 Y0.8741 I2.2251 J-0.9217
G2 X-14.6373 Y1.2807 I2.3194 J-1.5763
G2 X-14.2307 Y1.6171 I1.983 J-1.983
G2 X-13.7986 Y1.8503 I1.3538 J-1.9919
G2 X-13.3282 Y1.991 I0.9217 J-2.2251
G2 X-12.8027 Y2.0406 I0.5254 J-2.7547
G3 X-12.7834 Y2.0445 I0 J0.0505
G3 X-12.767 Y2.0554 I-0.0193 J0.0467
G3 X-12.7561 Y2.0718 I-0.0357 J0.0357
G3 X-12.7522 Y2.0911 I-0.0467 J0.0193
G3 X-12.7561 Y2.1104 I-0.0505 J0
G3 X-12.767 Y2.1268 I-0.0467 J-0.0193
G3 X-12.7834 Y2.1378 I-0.0357 J-0.0357
G3 X-12.8027 Y2.1416 I-0.0193 J-0.0467
G3 X-13.3527 Y2.0896 I0 J-2.9351
G3 X-13.8377 Y1.9446 I0.4652 J-2.439
G3 X-14.2831 Y1.7042 I0.9502 J-2.2939
G3 X-14.7088 Y1.3521 I1.6498 J-2.4276
G3 X-15.0609 Y0.9265 I2.0755 J-2.0755
G3 X-15.3012 Y0.481 I2.0536 J-1.3957
G3 X-15.4463 Y-0.0039 I2.2939 J-0.9502
G3 X-15.4982 Y-0.5539 I2.8832 J-0.5499
G1 X-15.4982 Y-2.0539
G3 X-15.4944 Y-2.0732 I0.0505 J0
G3 X-15.4835 Y-2.0896 I0.0467 J0.0193
G3 X-15.4671 Y-2.1005 I0.0357 J0.0357
G3 X-15.4477 Y-2.1044 I0.0193 J0.0467
G3 X-15.4284 Y-2.1005 I0 J0.0505
G3 X-15.412 Y-2.0896 I-0.0193 J0.0467
G3 X-15.4011 Y-2.0732 I-0.0357 J0.0357
G3 X-15.3972 Y-2.0539 I-0.0467 J0.0193
G1 Z-0.25 F30
G1 X-15.3972 Y-0.5539 F20
G2 X-15.3476 Y-0.0284 I2.8043 J0
G2 X-15.2069 Y0.442 I2.3657 J-0.4513
G2 X-14.9738 Y0.8741 I2.2251 J-0.9217
G2 X-14.6373 Y1.2807 I2.3194 J-1.5763
G2 X-14.2307 Y1.6171 I1.983 J-1.983
G2 X-13.7986 Y1.8503 I1.3538 J-1.9919
G2 X-13.3282 Y1.991 I0.9217 J-2.2251
G2 X-12.8027 Y2.0406 I0.5254 J-2.7547
G3 X-12.7834 Y2.0445 I0 J0.0505
G3 X-12.767 Y2.0554 I-0.0193 J0.0467
G3 X-12.7561 Y2.0718 I-0.0357 J0.0357
G3 X-12.7522 Y2.0911 I-0.0467 J0.0193
G3 X-12.7561 Y2.1104 I-0.0505 J0
G3 X-12.767 Y2.1268 I-0.0467 J-0.0193
G3 X-12.7834 Y2.1378 I-0.0357 J-0.0357
G3 X-12.8027 Y2.1416 I-0.0193 J-0.0467
G3 X-13.3527 Y2.0896 I0 J-2.9351
G3 X-13.8377 Y1.9446 I0.4652 J-2.439
G3 X-14.2831 Y1.7042 I0.9502 J-2.2939
G3 X-14.7088 Y1.3521 I1.6498 J-2.4276
G3 X-15.0609 Y0.9265 I2.0755 J-2.0755
G3 X-15.3012 Y0.481 I2.0536 J-1.3957
G3 X-15.4463 Y-0.0039 I2.2939 J-0.9502
G3 X-15.4982 Y-0.5539 I2.8832 J-0.5499
G1 X-15.4982 Y-2.0539
G3 X-15.4944 Y-2.0732 I0.0505 J0
G3 X-15.4835 Y-2.0896 I0.0467 J0.0193
G3 X-15.4671 Y-2.1005 I0.0357 J0.0357
G3 X-15.4477 Y-2.1044 I0.0193 J0.0467
G3 X-15.4284 Y-2.1005 I0 J0.0505
G3 X-15.412 Y-2.0896 I-0.0193 J0.0467
G3 X-15.4011 Y-2.0732 I-0.0357 J0.0357
G3 X-15.3972 Y-2.0539 I-0.0467 J0.0193
G1 Z-0.3 F30
G1 X-15.3972 Y-0.5539 F20
G2 X-15.3476 Y-0.0284 I2.8043 J0
G2 X-15.2069 Y0.442 I2.3657 J-0.4513
G2 X-14.9738 Y0.8741 I2.2251 J-0.9217
G2 X-14.6373 Y1.2807 I2.3194 J-1.5763
G2 X-14.2307 Y1.6171 I1.983 J-1.983
G2 X-13.7986 Y1.8503 I1.3538 J-1.9919
G2 X-13.3282 Y1.991 I0.9217 J-2.2251
G2 X-12.8027 Y2.0406 I0.5254 J-2.7547
G3 X-12.7834 Y2.0445 I0 J0.0505
G3 X-12.767 Y2.0554 I-0.0193 J0.0467
G3 X-12.7561 Y2.0718 I-0.0357 J0.0357
G3 X-12.7522 Y2.0911 I-0.0467 J0.0193
G3 X-12.7561 Y2.1104 I-0.0505 J0
G3 X-12.767 Y2.1268 I-0.0467 J-0.0193
G3 X-12.7834 Y2.1378 I-0.0357 J-0.0357
G3 X-12.8027 Y2.1416 I-0.0193 J-0.0467
G3 X-13.3527 Y2.0896 I0 J-2.9351
G3 X-13.8377 Y1.9446 I0.4652 J-2.439
G3 X-14.2831 Y1.7042 I0.9502 J-2.2939
G3 X-14.7088 Y1.3521 I1.6498 J-2.4276
G3 X-15.0609 Y0.9265 I2.0755 J-2.0755
G3 X-15.3012 Y0.481 I2.0536 J-1.3957
G3 X-15.4463 Y-0.0039 I2.2939 J-0.9502
G3 X-15.4982 Y-0.5539 I2.8832 J-0.5499
G1 X-15.4982 Y-2.0539
G3 X-15.4944 Y-2.0732 I0.0505 J0
G3 X-15.4835 Y-2.0896 I0.0467 J0.0193
G3 X-15.4671 Y-2.1005 I0.0357 J0.0357
G3 X-15.4477 Y-2.1044 I0.0193 J0.0467
G3 X-15.4284 Y-2.1005 I0 J0.0505
G3 X-15.412 Y-2.0896 I-0.0193 J0.0467
G3 X-15.4011 Y-2.0732 I-0.0357 J0.0357
G3 X-15.3972 Y-2.0539 I-0.0467 J0.0193
G0 Z0.1
G0 X14.0178 Y-2.0539
G1 Z-0.05 F30
G1 X14.0178 Y-0.5539 F20
G3 X13.9947 Y-0.1952 I-2.7963 J0
G3 X13.9275 Y0.1442 I-2.5783 J-0.3335
G3 X13.816 Y0.4717 I-2.5112 J-0.6729
G3 X13.6566 Y0.7939 I-2.581 J-1.076
G3 X13.4573 Y1.0929 I-2.4217 J-1.3982
G3 X13.2295 Y1.3533 I-2.0662 J-1.578
G3 X12.9691 Y1.5812 I-1.8383 J-1.8383
G3 X12.67 Y1.7805 I-1.6972 J-2.2223
G3 X12.3478 Y1.9398 I-1.3982 J-2.4217
G3 X12.0203 Y2.0514 I-1.0004 J-2.3996
G3 X11.6809 Y2.1185 I-0.6729 J-2.5112
G3 X11.3223 Y2.1416 I-0.3587 J-2.7732
G1 X10.8223 Y2.1416
G3 X10.8029 Y2.1378 I0 J-0.0505
G3 X10.7865 Y2.1268 I0.0193 J-0.0467
G3 X10.7756 Y2.1104 I0.0357 J-0.0357
G3 X10.7718 Y2.0911 I0.0467 J-0.0193
G3 X10.7756 Y2.0718 I0.0505 J0
G3 X10.7865 Y2.0554 I0.0467 J0.0193
G3 X10.8029 Y2.0445 I0.0357 J0.0357
G3 X10.8223 Y2.0406 I0.0193 J0.0467
G1 X11.3223 Y2.0406
G2 X11.6664 Y2.0185 I0 J-2.6828
G2 X11.9941 Y1.9536 I-0.322 J-2.49
G2 X12.3104 Y1.8459 I-0.6498 J-2.4252
G2 X12.6195 Y1.693 I-1.0323 J-2.4762
G2 X12.9064 Y1.5018 I-1.3414 J-2.3233
G2 X13.1579 Y1.2818 I-1.5239 J-1.9954
G2 X13.3779 Y1.0303 I-1.7753 J-1.7753
G2 X13.5692 Y0.7434 I-2.1321 J-1.6283
G2 X13.722 Y0.4343 I-2.3233 J-1.3414
G2 X13.8298 Y0.118 I-2.3174 J-0.9661
G2 X13.8946 Y-0.2098 I-2.4252 J-0.6498
G2 X13.9168 Y-0.5539 I-2.6606 J-0.3441
G1 X13.9168 Y-2.0539
G3 X13.9206 Y-2.0732 I0.0505 J0
G3 X13.9315 Y-2.0896 I0.0467 J0.0193
G3 X13.9479 Y-2.1005 I0.0357 J0.0357
G3 X13.9673 Y-2.1044 I0.0193 J0.0467
G3 X13.9866 Y-2.1005 I0 J0.0505
G3 X14.003 Y-2.0896 I-0.0193 J0.0467
G3 X14.0139 Y-2.0732 I-0.0357 J0.0357
G3 X14.0178 Y-2.0539 I-0.0467 J0.0193
G1 Z-0.1 F30
G1 X14.0178 Y-0.5539 F20
G3 X13.9947 Y-0.1952 I-2.7963 J0
G3 X13.9275 Y0.1442 I-2.5783 J-0.3335
G3 X13.816 Y0.4717 I-2.5112 J-0.6729
G3 X13.6566 Y0.7939 I-2.581 J-1.076
G3 X13.4573 Y1.0929 I-2.4217 J-1.3982
G3 X13.2295 Y1.3533 I-2.0662 J-1.578
G3 X12.9691 Y1.5812 I-1.8383 J-1.8383
G3 X12.67 Y1.7805 I-1.6972 J-2.2223
G3 X12.3478 Y1.9398 I-1.3982 J-2.4217
G3 X12.0203 Y2.0514 I-1.0004 J-2.3996
G3 X11.6809 Y2.1185 I-0.6729 J-2.5112
G3 X11.3223 Y2.1416 I-0.3587 J-2.7732
G1 X10.8223 Y2.1416
G3 X10.8029 Y2.1378 I0 J-0.0505
G3 X10.7865 Y2.1268 I0.0193 J-0.0467
G3 X10.7756 Y2.1104 I0.0357 J-0.0357
G3 X10.7718 Y2.0911 I0.0467 J-0.0193
G3 X10.7756 Y2.0718 I0.0505 J0
G3 X10.7865 Y2.0554 I0.0467 J0.0193
G3 X10.8029 Y2.0445 I0.0357 J0.0357
G3 X10.8223 Y2.0406 I0.0193 J0.0467
G1 X11.3223 Y2.0406
G2 X11.6664 Y2.0185 I0 J-2.6828
G2 X11.9941 Y1.9536 I-0.322 J-2.49
G2 X12.3104 Y1.8459 I-0.6498 J-2.4252
G2 X12.6195 Y1.693 I-1.0323 J-2.4762
G2 X12.9064 Y1.5018 I-1.3414 J-2.3233
G2 X13.1579 Y1.2818 I-1.5239 J-1.9954
G2 X13.3779 Y1.0303 I-1.7753 J-1.7753
G2 X13.5692 Y0.7434 I-2.1321 J-1.6283
G2 X13.722 Y0.4343 I-2.3233 J-1.3414
G2 X13.8298 Y0.118 I-2.3174 J-0.9661
G2 X13.8946 Y-0.2098 I-2.4252 J-0.6498
G2 X13.9168 Y-0.5539 I-2.6606 J-0.3441
G1 X13.9168 Y-2.0539
G3 X13.9206 Y-2.0732 I0.0505 J0
G3 X13.9315 Y-2.0896 I0.0467 J0.0193
G3 X13.9479 Y-2.1005 I0.0357 J0.0357
G3 X13.9673 Y-2.1044 I0.0193 J0.0467
G3 X13.9866 Y-2.1005 I0 J0.0505
G3 X14.003 Y-2.0896 I-0.0193 J0.0467
G3 X14.0139 Y-2.0732 I-0.0357 J0.0357
G3 X14.0178 Y-2.0539 I-0.0467 J0.0193
G1 Z-0.15 F30
G1 X14.0178 Y-0.5539 F20
G3 X13.9947 Y-0.1952 I-2.7963 J0
G3 X13.9275 Y0.1442 I-2.5783 J-0.3335
G3 X13.816 Y0.4717 I-2.5112 J-0.6729
G3 X13.6566 Y0.7939 I-2.581 J-1.076
G3 X13.4573 Y1.0929 I-2.4217 J-1.3982
G3 X13.2295 Y1.3533 I-2.0662 J-1.578
G3 X12.9691 Y1.5812 I-1.8383 J-1.8383
G3 X12.67 Y1.7805 I-1.6972 J-2.2223
G3 X12.3478 Y1.9398 I-1.3982 J-2.4217
G3 X12.0203 Y2.0514 I-1.0004 J-2.3996
G3 X11.6809 Y2.1185 I-0.6729 J-2.5112
G3 X11.3223 Y2.1416 I-0.3587 J-2.7732
G1 X10.8223 Y2.1416
G3 X10.8029 Y2.1378 I0 J-0.0505
G3 X10.7865 Y2.1268 I0.0193 J-0.0467
G3 X10.7756 Y2.1104 I0.0357 J-0.0357
G3 X10.7718 Y2.0911 I0.0467 J-0.0193
G3 X10.7756 Y2.0718 I0.0505 J0
G3 X10.7865 Y2.0554 I0.0467 J0.0193
G3 X10.8029 Y2.0445 I0.0357 J0.0357
G3 X10.8223 Y2.0406 I0.0193 J0.0467
G1 X11.3223 Y2.0406
G2 X11.6664 Y2.0185 I0 J-2.6828
G2 X11.9941 Y1.9536 I-0.322 J-2.49
G2 X12.3104 Y1.8459 I-0.6498 J-2.4252
G2 X12.6195 Y1.693 I-1.0323 J-2.4762
G2 X12.9064 Y1.5018 I-1.3414 J-2.3233
G2 X13.1579 Y1.2818 I-1.5239 J-1.9954
G2 X13.3779 Y1.0303 I-1.7753 J-1.7753
G2 X13.5692 Y0.7434 I-2.1321 J-1.6283
G2 X13.722 Y0.4343 I-2.3233 J-1.3414
G2 X13.8298 Y0.118 I-2.3174 J-0.9661
G2 X13.8946 Y-0.2098 I-2.4252 J-0.6498
G2 X13.9168 Y-0.5539 I-2.6606 J-0.3441
G1 X13.9168 Y-2.0539
G3 X13.9206 Y-2.0732 I0.0505 J0
G3 X13.9315 Y-2.0896 I0.0467 J0.0193
G3 X13.9479 Y-2.1005 I0.0357 J0.0357
G3 X13.9673 Y-2.1044 I0.0193 J0.0467
G3 X13.9866 Y-2.1005 I0 J0.0505
G3 X14.003 Y-2.0896 I-0.0193 J0.0467
G3 X14.0139 Y-2.0732 I-0.0357 J0.0357
G3 X14.0178 Y-2.0539 I-0.0467 J0.0193
G1 Z-0.2 F30
G1 X14.0178 Y-0.5539 F20
G3 X13.9947 Y-0.1952 I-2.7963 J0
G3 X13.9275 Y0.1442 I-2.5783 J-0.3335
G3 X13.816 Y0.4717 I-2.5112 J-0.6729
G3 X13.6566 Y0.7939 I-2.581 J-1.076
G3 X13.4573 Y1.0929 I-2.4217 J-1.3982
G3 X13.2295 Y1.3533 I-2.0662 J-1.578
G3 X12.9691 Y1.5812 I-1.8383 J-1.8383
G3 X12.67 Y1.7805 I-1.6972 J-2.2223
G3 X12.3478 Y1.9398 I-1.3982 J-2.4217
G3 X12.0203 Y2.0514 I-1.0004 J-2.3996
G3 X11.6809 Y2.1185 I-0.6729 J-2.5112
G3 X11.3223 Y2.1416 I-0.3587 J-2.7732
G1 X10.8223 Y2.1416
G3 X10.8029 Y2.1378 I0 J-0.0505
G3 X10.7865 Y2.1268 I0.0193 J-0.0467
G3 X10.7756 Y2.1104 I0.0357 J-0.0357
G3 X10.7718 Y2.0911 I0.0467 J-0.0193
G3 X10.7756 Y2.0718 I0.0505 J0
G3 X10.7865 Y2.0554 I0.0467 J0.0193
G3 X10.8029 Y2.0445 I0.0357 J0.0357
G3 X10.8223 Y2.0406 I0.0193 J0.0467
G1 X11.3223 Y2.0406
G2 X11.6664 Y2.0185 I0 J-2.6828
G2 X11.9941 Y1.9536 I-0.322 J-2.49
G2 X12.3104 Y1.8459 I-0.6498 J-2.4252
G2 X12.6195 Y1.693 I-1.0323 J-2.4762
G2 X12.9064 Y1.5018 I-1.3414 J-2.3233
G2 X13.1579 Y1.2818 I-1.5239 J-1.9954
G2 X13.3779 Y1.0303 I-1.7753 J-1.7753
G2 X13.5692 Y0.7434 I-2.1321 J-1.6283
G2 X13.722 Y0.4343 I-2.3233 J-1.3414
G2 X13.8298 Y0.118 I-2.3174 J-0.9661
G2 X13.8946 Y-0.2098 I-2.4252 J-0.6498
G2 X13.9168 Y-0.5539 I-2.6606 J-0.3441
G1 X13.9168 Y-2.0539
G3 X13.9206 Y-2.0732 I0.0505 J0
G3 X13.9315 Y-2.0896 I0.0467 J0.0193
G3 X13.9479 Y-2.1005 I0.0357 J0.0357
G3 X13.9673 Y-2.1044 I0.0193 J0.0467
G3 X13.9866 Y-2.1005 I0 J0.0505
G3 X14.003 Y-2.0896 I-0.0193 J0.0467
G3 X14.0139 Y-2.0732 I-0.0357 J0.0357
G3 X14.0178 Y-2.0539 I-0.0467 J0.0193
G1 Z-0.25 F30
G1 X14.0178 Y-0.5539 F20
G3 X13.9947 Y-0.1952 I-2.7963 J0
G3 X13.9275 Y0.1442 I-2.5783 J-0.3335
G3 X13.816 Y0.4717 I-2.5112 J-0.6729
G3 X13.6566 Y0.7939 I-2.581 J-1.076
G3 X13.4573 Y1.0929 I-2.4217 J-1.3982
G3 X13.2295 Y1.3533 I-2.0662 J-1.578
G3 X12.9691 Y1.5812 I-1.8383 J-1.8383
G3 X12.67 Y1.7805 I-1.6972 J-2.2223
G3 X12.3478 Y1.9398 I-1.3982 J-2.4217
G3 X12.0203 Y2.0514 I-1.0004 J-2.3996
G3 X11.6809 Y2.1185 I-0.6729 J-2.5112
G3 X11.3223 Y2.1416 I-0.3587 J-2.7732
G1 X10.8223 Y2.1416
G3 X10.8029 Y2.1378 I0 J-0.0505
G3 X10.7865 Y2.1268 I0.0193 J-0.0467
G3 X10.7756 Y2.1104 I0.0357 J-0.0357
G3 X10.7718 Y2.0911 I0.0467 J-0.0193
G3 X10.7756 Y2.0718 I0.0505 J0
G3 X10.7865 Y2.0554 I0.0467 J0.0193
G3 X10.8029 Y2.0445 I0.0357 J0.0357
G3 X10.8223 Y2.0406 I0.0193 J0.0467
G1 X11.3223 Y2.0406
G2 X11.6664 Y2.0185 I0 J-2.6828
G2 X11.9941 Y1.9536 I-0.322 J-2.49
G2 X12.3104 Y1.8459 I-0.6498 J-2.4252
G2 X12.6195 Y1.693 I-1.0323 J-2.4762
G2 X12.9064 Y1.5018 I-1.3414 J-2.3233
G2 X13.1579 Y1.2818 I-1.5239 J-1.9954
G2 X13.3779 Y1.0303 I-1.7753 J-1.7753
G2 X13.5692 Y0.7434 I-2.1321 J-1.6283
G2 X13.722 Y0.4343 I-2.3233 J-1.3414
G2 X13.8298 Y0.118 I-2.3174 J-0.9661
G2 X13.8946 Y-0.2098 I-2.4252 J-0.6498
G2 X13.9168 Y-0.5539 I-2.6606 J-0.3441
G1 X13.9168 Y-2.0539
G3 X13.9206 Y-2.0732 I0.0505 J0
G3 X13.9315 Y-2.0896 I0.0467 J0.0193
G3 X13.9479 Y-2.1005 I0.0357 J0.0357
G3 X13.9673 Y-2.1044 I0.0193 J0.0467
G3 X13.9866 Y-2.1005 I0 J0.0505
G3 X14.003 Y-2.0896 I-0.0193 J0.0467
G3 X14.0139 Y-2.0732 I-0.0357 J0.0357
G3 X14.0178 Y-2.0539 I-0.0467 J0.0193
G1 Z-0.3 F30
G1 X14.0178 Y-0.5539 F20
G3 X13.9947 Y-0.1952 I-2.7963 J0
G3 X13.9275 Y0.1442 I-2.5783 J-0.3335
G3 X13.816 Y0.4717 I-2.5112 J-0.6729
G3 X13.6566 Y0.7939 I-2.581 J-1.076
G3 X13.4573 Y1.0929 I-2.4217 J-1.3982
G3 X13.2295 Y1.3533 I-2.0662 J-1.578
G3 X12.9691 Y1.5812 I-1.8383 J-1.8383
G3 X12.67 Y1.7805 I-1.6972 J-2.2223
G3 X12.3478 Y1.9398 I-1.3982 J-2.4217
G3 X12.0203 Y2.0514 I-1.0004 J-2.3996
G3 X11.6809 Y2.1185 I-0.6729 J-2.5112
G3 X11.3223 Y2.1416 I-0.3587 J-2.7732
G1 X10.8223 Y2.1416
G3 X10.8029 Y2.1378 I0 J-0.0505
G3 X10.7865 Y2.1268 I0.0193 J-0.0467
G3 X10.7756 Y2.1104 I0.0357 J-0.0357
G3 X10.7718 Y2.0911 I0.0467 J-0.0193
G3 X10.7756 Y2.0718 I0.0505 J0
G3 X10.7865 Y2.0554 I0.0467 J0.0193
G3 X10.8029 Y2.0445 I0.0357 J0.0357
G3 X10.8223 Y2.0406 I0.0193 J0.0467
G1 X11.3223 Y2.0406
G2 X11.6664 Y2.0185 I0 J-2.6828
G2 X11.9941 Y1.9536 I-0.322 J-2.49
G2 X12.3104 Y1.8459 I-0.6498 J-2.4252
G2 X12.6195 Y1.693 I-1.0323 J-2.4762
G2 X12.9064 Y1.5018 I-1.3414 J-2.3233
G2 X13.1579 Y1.2818 I-1.5239 J-1.9954
G2 X13.3779 Y1.0303 I-1.7753 J-1.7753
G2 X13.5692 Y0.7434 I-2.1321 J-1.6283
G2 X13.722 Y0.4343 I-2.3233 J-1.3414
G2 X13.8298 Y0.118 I-2.3174 J-0.9661
G2 X13.8946 Y-0.2098 I-2.4252 J-0.6498
G2 X13.9168 Y-0.5539 I-2.6606 J-0.3441
G1 X13.9168 Y-2.0539
G3 X13.9206 Y-2.0732 I0.0505 J0
G3 X13.9315 Y-2.0896 I0.0467 J0.0193
G3 X13.9479 Y-2.1005 I0.0357 J0.0357
G3 X13.9673 Y-2.1044 I0.0193 J0.0467
G3 X13.9866 Y-2.1005 I0 J0.0505
G3 X14.003 Y-2.0896 I-0.0193 J0.0467
G3 X14.0139 Y-2.0732 I-0.0357 J0.0357
G3 X14.0178 Y-2.0539 I-0.0467 J0.0193

(Inside Cutout)
G0 Z0.1
G0 X-1.699 Y-0.0693
G1 Z-0.05 F30
G1 X-2.8076 Y-0.0693 F20
G2 X-2.8884 Y-0.0396 I0 J0.125
G3 X-2.8998 Y-0.0331 I-0.023 J-0.0271
G3 X-2.9128 Y-0.0312 I-0.0115 J-0.0336
G3 X-2.9256 Y-0.0342 I0.0015 J-0.0355
G3 X-2.9364 Y-0.0416 I0.0143 J-0.0325
G3 X-2.9439 Y-0.0525 I0.0251 J-0.0251
G3 X-2.9468 Y-0.0652 I0.0325 J-0.0143
G3 X-2.9468 Y-0.0667 I0.0355 J-0.0015
G3 X-2.9449 Y-0.0782 I0.0355 J0
G3 X-2.9384 Y-0.0897 I0.0336 J0.0115
G2 X-2.9088 Y-0.1705 I-0.0953 J-0.0808
G1 X-2.9088 Y-1.2791
G2 X-2.9384 Y-1.3599 I-0.125 J0
G3 X-2.9449 Y-1.3713 I0.0271 J-0.023
G3 X-2.9468 Y-1.3829 I0.0336 J-0.0115
G3 X-2.9468 Y-1.3843 I0.0355 J0
G3 X-2.9439 Y-1.3971 I0.0355 J0.0015
G3 X-2.9364 Y-1.408 I0.0325 J0.0143
G3 X-2.9256 Y-1.4154 I0.0251 J0.0251
G3 X-2.9128 Y-1.4183 I0.0143 J0.0325
G3 X-2.8998 Y-1.4164 I0.0015 J0.0355
G3 X-2.8884 Y-1.4099 I-0.0115 J0.0336
G2 X-2.8076 Y-1.3803 I0.0808 J-0.0953
G1 X-1.699 Y-1.3803
G2 X-1.6181 Y-1.4099 I0 J-0.125
G3 X-1.6067 Y-1.4164 I0.023 J0.0271
G3 X-1.5937 Y-1.4183 I0.0115 J0.0336
G3 X-1.5809 Y-1.4154 I-0.0015 J0.0355
G3 X-1.5701 Y-1.408 I-0.0143 J0.0325
G3 X-1.5627 Y-1.3971 I-0.0251 J0.0251
G3 X-1.5597 Y-1.3843 I-0.0325 J0.0143
G3 X-1.5597 Y-1.3829 I-0.0355 J0.0015
G3 X-1.5616 Y-1.3713 I-0.0355 J0
G3 X-1.5681 Y-1.3599 I-0.0336 J-0.0115
G2 X-1.5978 Y-1.2791 I0.0953 J0.0808
G1 X-1.5978 Y-0.1705
G2 X-1.5681 Y-0.0897 I0.125 J0
G3 X-1.5616 Y-0.0782 I-0.0271 J0.023
G3 X-1.5597 Y-0.0667 I-0.0336 J0.0115
G3 X-1.5597 Y-0.0652 I-0.0355 J0
G3 X-1.5627 Y-0.0525 I-0.0355 J-0.0015
G3 X-1.5701 Y-0.0416 I-0.0325 J-0.0143
G3 X-1.5809 Y-0.0342 I-0.0251 J-0.0251
G3 X-1.5937 Y-0.0312 I-0.0143 J-0.0325
G3 X-1.6067 Y-0.0331 I-0.0015 J-0.0355
G3 X-1.6181 Y-0.0396 I0.0115 J-0.0336
G2 X-1.699 Y-0.0693 I-0.0808 J0.0953
G1 Z-0.1 F30
G1 X-2.8076 Y-0.0693 F20
G2 X-2.8884 Y-0.0396 I0 J0.125
G3 X-2.8998 Y-0.0331 I-0.023 J-0.0271
G3 X-2.9128 Y-0.0312 I-0.0115 J-0.0336
G3 X-2.9256 Y-0.0342 I0.0015 J-0.0355
G3 X-2.9364 Y-0.0416 I0.0143 J-0.0325
G3 X-2.9439 Y-0.0525 I0.0251 J-0.0251
G3 X-2.9468 Y-0.0652 I0.0325 J-0.0143
G3 X-2.9468 Y-0.0667 I0.0355 J-0.0015
G3 X-2.9449 Y-0.0782 I0.0355 J0
G3 X-2.9384 Y-0.0897 I0.0336 J0.0115
G2 X-2.9088 Y-0.1705 I-0.0953 J-0.0808
G1 X-2.9088 Y-1.2791
G2 X-2.9384 Y-1.3599 I-0.125 J0
G3 X-2.9449 Y-1.3713 I0.0271 J-0.023
G3 X-2.9468 Y-1.3829 I0.0336 J-0.0115
G3 X-2.9468 Y-1.3843 I0.0355 J0
G3 X-2.9439 Y-1.3971 I0.0355 J0.0015
G3 X-2.9364 Y-1.408 I0.0325 J0.0143
G3 X-2.9256 Y-1.4154 I0.0251 J0.0251
G3 X-2.9128 Y-1.4183 I0.0143 J0.0325
G3 X-2.8998 Y-1.4164 I0.0015 J0.0355
G3 X-2.8884 Y-1.4099 I-0.0115 J0.0336
G2 X-2.8076 Y-1.3803 I0.0808 J-0.0953
G1 X-1.699 Y-1.3803
G2 X-1.6181 Y-1.4099 I0 J-0.125
G3 X-1.6067 Y-1.4164 I0.023 J0.0271
G3 X-1.5937 Y-1.4183 I0.0115 J0.0336
G3 X-1.5809 Y-1.4154 I-0.0015 J0.0355
G3 X-1.5701 Y-1.408 I-0.0143 J0.0325
G3 X-1.5627 Y-1.3971 I-0.0251 J0.0251
G3 X-1.5597 Y-1.3843 I-0.0325 J0.0143
G3 X-1.5597 Y-1.3829 I-0.0355 J0.0015
G3 X-1.5616 Y-1.3713 I-0.0355 J0
G3 X-1.5681 Y-1.3599 I-0.0336 J-0.0115
G2 X-1.5978 Y-1.2791 I0.0953 J0.0808
G1 X-1.5978 Y-0.1705
G2 X-1.5681 Y-0.0897 I0.125 J0
G3 X-1.5616 Y-0.0782 I-0.0271 J0.023
G3 X-1.5597 Y-0.0667 I-0.0336 J0.0115
G3 X-1.5597 Y-0.0652 I-0.0355 J0
G3 X-1.5627 Y-0.0525 I-0.0355 J-0.0015
G3 X-1.5701 Y-0.0416 I-0.0325 J-0.0143
G3 X-1.5809 Y-0.0342 I-0.0251 J-0.0251
G3 X-1.5937 Y-0.0312 I-0.0143 J-0.0325
G3 X-1.6067 Y-0.0331 I-0.0015 J-0.0355
G3 X-1.6181 Y-0.0396 I0.0115 J-0.0336
G2 X-1.699 Y-0.0693 I-0.0808 J0.0953
G1 Z-0.15 F30
G1 X-2.8076 Y-0.0693 F20
G2 X-2.8884 Y-0.0396 I0 J0.125
G3 X-2.8998 Y-0.0331 I-0.023 J-0.0271
G3 X-2.9128 Y-0.0312 I-0.0115 J-0.0336
G3 X-2.9256 Y-0.0342 I0.0015 J-0.0355
G3 X-2.9364 Y-0.0416 I0.0143 J-0.0325
G3 X-2.9439 Y-0.0525 I0.0251 J-0.0251
G3 X-2.9468 Y-0.0652 I0.0325 J-0.0143
G3 X-2.9468 Y-0.0667 I0.0355 J-0.0015
G3 X-2.9449 Y-0.0782 I0.0355 J0
G3 X-2.9384 Y-0.0897 I0.0336 J0.0115
G2 X-2.9088 Y-0.1705 I-0.0953 J-0.0808
G1 X-2.9088 Y-1.2791
G2 X-2.9384 Y-1.3599 I-0.125 J0
G3 X-2.9449 Y-1.3713 I0.0271 J-0.023
G3 X-2.9468 Y-1.3829 I0.0336 J-0.0115
G3 X-2.9468 Y-1.3843 I0.0355 J0
G3 X-2.9439 Y-1.3971 I0.0355 J0.0015
G3 X-2.9364 Y-1.408 I0.0325 J0.0143
G3 X-2.9256 Y-1.4154 I0.0251 J0.0251
G3 X-2.9128 Y-1.4183 I0.0143 J0.0325
G3 X-2.8998 Y-1.4164 I0.0015 J0.0355
G3 X-2.8884 Y-1.4099 I-0.0115 J0.0336
G2 X-2.8076 Y-1.3803 I0.0808 J-0.0953
G1 X-1.699 Y-1.3803
G2 X-1.6181 Y-1.4099 I0 J-0.125
G3 X-1.6067 Y-1.4164 I0.023 J0.0271
G3 X-1.5937 Y-1.4183 I0.0115 J0.0336
G3 X-1.5809 Y-1.4154 I-0.0015 J0.0355
G3 X-1.5701 Y-1.408 I-0.0143 J0.0325
G3 X-1.5627 Y-1.3971 I-0.0251 J0.0251
G3 X-1.5597 Y-1.3843 I-0.0325 J0.0143
G3 X-1.5597 Y-1.3829 I-0.0355 J0.0015
G3 X-1.5616 Y-1.3713 I-0.0355 J0
G3 X-1.5681 Y-1.3599 I-0.0336 J-0.0115
G2 X-1.5978 Y-1.2791 I0.0953 J0.0808
G1 X-1.5978 Y-0.1705
G2 X-1.5681 Y-0.0897 I0.125 J0
G3 X-1.5616 Y-0.0782 I-0.0271 J0.023
G3 X-1.5597 Y-0.0667 I-0.0336 J0.0115
G3 X-1.5597 Y-0.0652 I-0.0355 J0
G3 X-1.5627 Y-0.0525 I-0.0355 J-0.0015
G3 X-1.5701 Y-0.0416 I-0.0325 J-0.0143
G3 X-1.5809 Y-0.0342 I-0.0251 J-0.0251
G3 X-1.5937 Y-0.0312 I-0.0143 J-0.0325
G3 X-1.6067 Y-0.0331 I-0.0015 J-0.0355
G3 X-1.6181 Y-0.0396 I0.0115 J-0.0336
G2 X-1.699 Y-0.0693 I-0.0808 J0.0953
G1 Z-0.2 F30
G1 X-2.8076 Y-0.0693 F20
G2 X-2.8884 Y-0.0396 I0 J0.125
G3 X-2.8998 Y-0.0331 I-0.023 J-0.0271
G3 X-2.9128 Y-0.0312 I-0.0115 J-0.0336
G3 X-2.9256 Y-0.0342 I0.0015 J-0.0355
G3 X-2.9364 Y-0.0416 I0.0143 J-0.0325
G3 X-2.9439 Y-0.0525 I0.0251 J-0.0251
G3 X-2.9468 Y-0.0652 I0.0325 J-0.0143
G3 X-2.9468 Y-0.0667 I0.0355 J-0.0015
G3 X-2.9449 Y-0.0782 I0.0355 J0
G3 X-2.9384 Y-0.0897 I0.0336 J0.0115
G2 X-2.9088 Y-0.1705 I-0.0953 J-0.0808
G1 X-2.9088 Y-1.2791
G2 X-2.9384 Y-1.3599 I-0.125 J0
G3 X-2.9449 Y-1.3713 I0.0271 J-0.023
G3 X-2.9468 Y-1.3829 I0.0336 J-0.0115
G3 X-2.9468 Y-1.3843 I0.0355 J0
G3 X-2.9439 Y-1.3971 I0.0355 J0.0015
G3 X-2.9364 Y-1.408 I0.0325 J0.0143
G3 X-2.9256 Y-1.4154 I0.0251 J0.0251
G3 X-2.9128 Y-1.4183 I0.0143 J0.0325
G3 X-2.8998 Y-1.4164 I0.0015 J0.0355
G3 X-2.8884 Y-1.4099 I-0.0115 J0.0336
G2 X-2.8076 Y-1.3803 I0.0808 J-0.0953
G1 X-1.699 Y-1.3803
G2 X-1.6181 Y-1.4099 I0 J-0.125
G3 X-1.6067 Y-1.4164 I0.023 J0.0271
G3 X-1.5937 Y-1.4183 I0.0115 J0.0336
G3 X-1.5809 Y-1.4154 I-0.0015 J0.0355
G3 X-1.5701 Y-1.408 I-0.0143 J0.0325
G3 X-1.5627 Y-1.3971 I-0.0251 J0.0251
G3 X-1.5597 Y-1.3843 I-0.0325 J0.0143
G3 X-1.5597 Y-1.3829 I-0.0355 J0.0015
G3 X-1.5616 Y-1.3713 I-0.0355 J0
G3 X-1.5681 Y-1.3599 I-0.0336 J-0.0115
G2 X-1.5978 Y-1.2791 I0.0953 J0.0808
G1 X-1.5978 Y-0.1705
G2 X-1.5681 Y-0.0897 I0.125 J0
G3 X-1.5616 Y-0.0782 I-0.0271 J0.023
G3 X-1.5597 Y-0.0667 I-0.0336 J0.0115
G3 X-1.5597 Y-0.0652 I-0.0355 J0
G3 X-1.5627 Y-0.0525 I-0.0355 J-0.0015
G3 X-1.5701 Y-0.0416 I-0.0325 J-0.0143
G3 X-1.5809 Y-0.0342 I-0.0251 J-0.0251
G3 X-1.5937 Y-0.0312 I-0.0143 J-0.0325
G3 X-1.6067 Y-0.0331 I-0.0015 J-0.0355
G3 X-1.6181 Y-0.0396 I0.0115 J-0.0336
G2 X-1.699 Y-0.0693 I-0.0808 J0.0953
G1 Z-0.25 F30
G1 X-2.8076 Y-0.0693 F20
G2 X-2.8884 Y-0.0396 I0 J0.125
G3 X-2.8998 Y-0.0331 I-0.023 J-0.0271
G3 X-2.9128 Y-0.0312 I-0.0115 J-0.0336
G3 X-2.9256 Y-0.0342 I0.0015 J-0.0355
G3 X-2.9364 Y-0.0416 I0.0143 J-0.0325
G3 X-2.9439 Y-0.0525 I0.0251 J-0.0251
G3 X-2.9468 Y-0.0652 I0.0325 J-0.0143
G3 X-2.9468 Y-0.0667 I0.0355 J-0.0015
G3 X-2.9449 Y-0.0782 I0.0355 J0
G3 X-2.9384 Y-0.0897 I0.0336 J0.0115
G2 X-2.9088 Y-0.1705 I-0.0953 J-0.0808
G1 X-2.9088 Y-1.2791
G2 X-2.9384 Y-1.3599 I-0.125 J0
G3 X-2.9449 Y-1.3713 I0.0271 J-0.023
G3 X-2.9468 Y-1.3829 I0.0336 J-0.0115
G3 X-2.9468 Y-1.3843 I0.0355 J0
G3 X-2.9439 Y-1.3971 I0.0355 J0.0015
G3 X-2.9364 Y-1.408 I0.0325 J0.0143
G3 X-2.9256 Y-1.4154 I0.0251 J0.0251
G3 X-2.9128 Y-1.4183 I0.0143 J0.0325
G3 X-2.8998 Y-1.4164 I0.0015 J0.0355
G3 X-2.8884 Y-1.4099 I-0.0115 J0.0336
G2 X-2.8076 Y-1.3803 I0.0808 J-0.0953
G1 X-1.699 Y-1.3803
G2 X-1.6181 Y-1.4099 I0 J-0.125
G3 X-1.6067 Y-1.4164 I0.023 J0.0271
G3 X-1.5937 Y-1.4183 I0.0115 J0.0336
G3 X-1.5809 Y-1.4154 I-0.0015 J0.0355
G3 X-1.5701 Y-1.408 I-0.0143 J0.0325
G3 X-1.5627 Y-1.3971 I-0.0251 J0.0251
G3 X-1.5597 Y-1.3843 I-0.0325 J0.0143
G3 X-1.5597 Y-1.3829 I-0.0355 J0.0015
G3 X-1.5616 Y-1.3713 I-0.0355 J0
G3 X-1.5681 Y-1.3599 I-0.0336 J-0.0115
G2 X-1.5978 Y-1.2791 I0.0953 J0.0808
G1 X-1.5978 Y-0.1705
G2 X-1.5681 Y-0.0897 I0.125 J0
G3 X-1.5616 Y-0.0782 I-0.0271 J0.023
G3 X-1.5597 Y-0.0667 I-0.0336 J0.0115
G3 X-1.5597 Y-0.0652 I-0.0355 J0
G3 X-1.5627 Y-0.0525 I-0.0355 J-0.0015
G3 X-1.5701 Y-0.0416 I-0.0325 J-0.0143
G3 X-1.5809 Y-0.0342 I-0.0251 J-0.0251
G3 X-1.5937 Y-0.0312 I-0.0143 J-0.0325
G3 X-1.6067 Y-0.0331 I-0.0015 J-0.0355
G3 X-1.6181 Y-0.0396 I0.0115 J-0.0336
G2 X-1.699 Y-0.0693 I-0.0808 J0.0953
G1 Z-0.3 F30
G1 X-2.8076 Y-0.0693 F20
G2 X-2.8884 Y-0.0396 I0 J0.125
G3 X-2.8998 Y-0.0331 I-0.023 J-0.0271
G3 X-2.9128 Y-0.0312 I-0.0115 J-0.0336
G3 X-2.9256 Y-0.0342 I0.0015 J-0.0355
G3 X-2.9364 Y-0.0416 I0.0143 J-0.0325
G3 X-2.9439 Y-0.0525 I0.0251 J-0.0251
G3 X-2.9468 Y-0.0652 I0.0325 J-0.0143
G3 X-2.9468 Y-0.0667 I0.0355 J-0.0015
G3 X-2.9449 Y-0.0782 I0.0355 J0
G3 X-2.9384 Y-0.0897 I0.0336 J0.0115
G2 X-2.9088 Y-0.1705 I-0.0953 J-0.0808
G1 X-2.9088 Y-1.2791
G2 X-2.9384 Y-1.3599 I-0.125 J0
G3 X-2.9449 Y-1.3713 I0.0271 J-0.023
G3 X-2.9468 Y-1.3829 I0.0336 J-0.0115
G3 X-2.9468 Y-1.3843 I0.0355 J0
G3 X-2.9439 Y-1.3971 I0.0355 J0.0015
G3 X-2.9364 Y-1.408 I0.0325 J0.0143
G3 X-2.9256 Y-1.4154 I0.0251 J0.0251
G3 X-2.9128 Y-1.4183 I0.0143 J0.0325
G3 X-2.8998 Y-1.4164 I0.0015 J0.0355
G3 X-2.8884 Y-1.4099 I-0.0115 J0.0336
G2 X-2.8076 Y-1.3803 I0.0808 J-0.0953
G1 X-1.699 Y-1.3803
G2 X-1.6181 Y-1.4099 I0 J-0.125
G3 X-1.6067 Y-1.4164 I0.023 J0.0271
G3 X-1.5937 Y-1.4183 I0.0115 J0.0336
G3 X-1.5809 Y-1.4154 I-0.0015 J0.0355
G3 X-1.5701 Y-1.408 I-0.0143 J0.0325
G3 X-1.5627 Y-1.3971 I-0.0251 J0.0251
G3 X-1.5597 Y-1.3843 I-0.0325 J0.0143
G3 X-1.5597 Y-1.3829 I-0.0355 J0.0015
G3 X-1.5616 Y-1.3713 I-0.0355 J0
G3 X-1.5681 Y-1.3599 I-0.0336 J-0.0115
G2 X-1.5978 Y-1.2791 I0.0953 J0.0808
G1 X-1.5978 Y-0.1705
G2 X-1.5681 Y-0.0897 I0.125 J0
G3 X-1.5616 Y-0.0782 I-0.0271 J0.023
G3 X-1.5597 Y-0.0667 I-0.0336 J0.0115
G3 X-1.5597 Y-0.0652 I-0.0355 J0
G3 X-1.5627 Y-0.0525 I-0.0355 J-0.0015
G3 X-1.5701 Y-0.0416 I-0.0325 J-0.0143
G3 X-1.5809 Y-0.0342 I-0.0251 J-0.0251
G3 X-1.5937 Y-0.0312 I-0.0143 J-0.0325
G3 X-1.6067 Y-0.0331 I-0.0015 J-0.0355
G3 X-1.6181 Y-0.0396 I0.0115 J-0.0336
G2 X-1.699 Y-0.0693 I-0.0808 J0.0953

(Drill Holes)
G0 Z0.1
G0 X-6.9902 Y0.9461
G1 Z-0.3 F30
G1 Z0 F30
G0 Z0.1
G0 X-8.9622 Y1.0913
G1 Z-0.3 F30
G1 Z0 F30
G0 Z0.1
G0 X-8.3967 Y-0.9533
G1 Z-0.3 F30
G1 Z0 F30
G0 Z0.1
G0 X5.2583 Y2.0253
G1 Z-0.3 F30
G1 Z0 F30
G0 Z0.1
G0 X7.5291 Y-1.8717
G1 Z-0.3 F30
G1 Z0 F30
G0 Z0.1
G0 X-15.5768 Y2.0253
G1 Z-0.3 F30
G1 Z0 F30
G0 Z0.1
G0 X-13.3059 Y-1.8717
G1 Z-0.3 F30
G1 Z0 F30
G0 Z0.1
G0 X13.2993 Y-1.8717
G1 Z-0.3 F30
G1 Z0 F30
G0 Z0.1
G0 X15.5702 Y2.0253
G1 Z-0.3 F30
G1 Z0 F30

(Cut Around Edge)
G0 Z0.1
G0 X-32.0033 Y-2.8607
G1 Z-0.1 F30
G1 X-31.2351 Y-2.8607 F60
G1 Z-0.05 F30
G1 X-30.7351 Y-2.8607 F60
G1 Z-0.1 F30
G1 X-16.4797 Y-2.8607 F60
G3 X-16.4648 Y-2.9624 I1.2035 J0.125
G3 X-16.4035 Y-3.1674 I1.0311 J0.1967
G3 X-16.3018 Y-3.3557 I0.9697 J0.4017
G3 X-16.1567 Y-3.5312 I1.0007 J0.6801
G3 X-15.9812 Y-3.6764 I0.8556 J0.8556
G3 X-15.7929 Y-3.778 I0.59 J0.8681
G3 X-15.5879 Y-3.8393 I0.4017 J0.9697
G3 X-15.3612 Y-3.8607 I0.2267 J1.1885
G3 X-15.1345 Y-3.8393 I0 J1.21
G3 X-14.9295 Y-3.778 I-0.1967 J1.0311
G3 X-14.7412 Y-3.6764 I-0.4017 J0.9697
G3 X-14.5657 Y-3.5312 I-0.6801 J1.0007
G3 X-14.4205 Y-3.3557 I-0.8556 J0.8556
G3 X-14.3189 Y-3.1674 I-0.8681 J0.59
G3 X-14.2576 Y-2.9624 I-0.9697 J0.4017
G3 X-14.2427 Y-2.8607 I-1.1885 J0.2267
G1 X-13.3987 Y-2.8607
G3 X-13.3838 Y-2.9624 I1.2035 J0.125
G3 X-13.3225 Y-3.1674 I1.0311 J0.1967
G3 X-13.2208 Y-3.3557 I0.9697 J0.4017
G3 X-13.0757 Y-3.5312 I1.0007 J0.6801
G3 X-12.9002 Y-3.6764 I0.8556 J0.8556
G3 X-12.7119 Y-3.778 I0.59 J0.8681
G3 X-12.5069 Y-3.8393 I0.4017 J0.9697
G3 X-12.2802 Y-3.8607 I0.2267 J1.1885
G3 X-12.0535 Y-3.8393 I0 J1.21
G3 X-11.8485 Y-3.778 I-0.1967 J1.0311
G3 X-11.6602 Y-3.6764 I-0.4017 J0.9697
G3 X-11.4847 Y-3.5312 I-0.6801 J1.0007
G3 X-11.3395 Y-3.3557 I-0.8556 J0.8556
G3 X-11.2379 Y-3.1674 I-0.8681 J0.59
G3 X-11.1766 Y-2.9624 I-0.9697 J0.4017
G3 X-11.1617 Y-2.8607 I-1.1885 J0.2267
G1 X-6.6251 Y-2.8607
G3 X-6.5001 Y-2.7357 I0 J0.125
G1 X-6.5001 Y-1.8139
G2 X-6.4898 Y-1.7622 I0.135 J0
G2 X-6.4606 Y-1.7184 I0.1247 J-0.0517
G2 X-6.4168 Y-1.6892 I0.0955 J-0.0955
G2 X-6.3651 Y-1.6789 I0.0517 J-0.1247
G1 X-5.3851 Y-1.6789
G2 X-5.3334 Y-1.6892 I0 J-0.135
G2 X-5.2896 Y-1.7184 I-0.0517 J-0.1247
G2 X-5.2604 Y-1.7622 I-0.0955 J-0.0955
G2 X-5.2501 Y-1.8139 I-0.1247 J-0.0517
G1 X-5.2501 Y-2.7357
G3 X-5.1251 Y-2.8607 I0.125 J0
G1 X-1.5399 Y-2.8607
G1 Z-0.05 F30
G1 X-1.0399 Y-2.8607 F60
G1 Z-0.1 F30
G1 X2.987 Y-2.8607 F60
G3 X3.112 Y-2.7357 I0 J0.125
G1 X3.112 Y-1.8139
G2 X3.1166 Y-1.7789 I0.135 J0
G2 X3.1301 Y-1.7464 I0.1304 J-0.0349
G2 X3.1515 Y-1.7184 I0.1169 J-0.0675
G2 X3.1795 Y-1.697 I0.0955 J-0.0955
G2 X3.2121 Y-1.6835 I0.0675 J-0.1169
G2 X3.247 Y-1.6789 I0.0349 J-0.1304
G1 X4.227 Y-1.6789
G2 X4.2787 Y-1.6892 I0 J-0.135
G2 X4.3225 Y-1.7184 I-0.0517 J-0.1247
G2 X4.3517 Y-1.7622 I-0.0955 J-0.0955
G2 X4.362 Y-1.8139 I-0.1247 J-0.0517
G1 X4.362 Y-2.7357
G3 X4.487 Y-2.8607 I0.125 J0
G1 X9.0934 Y-2.8607
G3 X9.1084 Y-2.9624 I1.2035 J0.125
G3 X9.1697 Y-3.1674 I1.0311 J0.1967
G3 X9.2713 Y-3.3557 I0.9697 J0.4017
G3 X9.4164 Y-3.5312 I1.0007 J0.6801
G3 X9.5919 Y-3.6764 I0.8556 J0.8556
G3 X9.7802 Y-3.778 I0.59 J0.8681
G3 X9.9852 Y-3.8393 I0.4017 J0.9697
G3 X10.2119 Y-3.8607 I0.2267 J1.1885
G3 X10.4386 Y-3.8393 I0 J1.21
G3 X10.6436 Y-3.778 I-0.1967 J1.0311
G3 X10.832 Y-3.6764 I-0.4017 J0.9697
G3 X11.0074 Y-3.5312 I-0.6801 J1.0007
G3 X11.1526 Y-3.3557 I-0.8556 J0.8556
G3 X11.2542 Y-3.1674 I-0.8681 J0.59
G3 X11.3155 Y-2.9624 I-0.9697 J0.4017
G3 X11.3305 Y-2.8607 I-1.1885 J0.2267
G1 X12.8517 Y-2.8607
G3 X12.8667 Y-2.9624 I1.2035 J0.125
G3 X12.928 Y-3.1674 I1.0311 J0.1967
G3 X13.0296 Y-3.3557 I0.9697 J0.4017
G3 X13.1747 Y-3.5312 I1.0007 J0.6801
G3 X13.3502 Y-3.6764 I0.8556 J0.8556
G3 X13.5385 Y-3.778 I0.59 J0.8681
G3 X13.7435 Y-3.8393 I0.4017 J0.9697
G3 X13.9702 Y-3.8607 I0.2267 J1.1885
G3 X14.1969 Y-3.8393 I0 J1.21
G3 X14.402 Y-3.778 I-0.1967 J1.0311
G3 X14.5903 Y-3.6764 I-0.4017 J0.9697
G3 X14.7657 Y-3.5312 I-0.6801 J1.0007
G3 X14.9109 Y-3.3557 I-0.8556 J0.8556
G3 X15.0125 Y-3.1674 I-0.8681 J0.59
G3 X15.0738 Y-2.9624 I-0.9697 J0.4017
G3 X15.0888 Y-2.8607 I-1.1885 J0.2267
G1 X19.4138 Y-2.8607
G3 X19.4287 Y-2.9624 I1.2035 J0.125
G3 X19.49 Y-3.1674 I1.0311 J0.1967
G3 X19.5917 Y-3.3557 I0.9697 J0.4017
G3 X19.7368 Y-3.5312 I1.0007 J0.6801
G3 X19.9123 Y-3.6764 I0.8556 J0.8556
G3 X20.1006 Y-3.778 I0.59 J0.8681
G3 X20.3056 Y-3.8393 I0.4017 J0.9697
G3 X20.5323 Y-3.8607 I0.2267 J1.1885
G3 X20.759 Y-3.8393 I0 J1.21
G3 X20.964 Y-3.778 I-0.1967 J1.0311
G3 X21.1523 Y-3.6764 I-0.4017 J0.9697
G3 X21.3278 Y-3.5312 I-0.6801 J1.0007
G3 X21.473 Y-3.3557 I-0.8556 J0.8556
G3 X21.5746 Y-3.1674 I-0.8681 J0.59
G3 X21.6359 Y-2.9624 I-0.9697 J0.4017
G3 X21.6508 Y-2.8607 I-1.1885 J0.2267
G1 X29.9884 Y-2.8607
G1 Z-0.05 F30
G1 X30.4884 Y-2.8607 F60
G1 Z-0.1 F30
G1 X31.9967 Y-2.8607 F60
G3 X32.4206 Y-2.8413 I0 J4.6391
G3 X32.8183 Y-2.7853 I-0.3785 J4.125
G3 X33.2087 Y-2.6901 I-0.7457 J3.9092
G3 X33.5801 Y-2.5583 I-1.0908 J3.6617
G3 X33.9359 Y-2.3889 I-1.4621 J3.5299
G3 X34.2793 Y-2.1801 I-1.8936 J3.5003
G3 X34.6001 Y-1.9385 I-2.3284 J3.426
G3 X34.9135 Y-1.6525 I-2.9669 J3.5664
G3 X35.1995 Y-1.3391 I-3.2804 J3.2804
G3 X35.4411 Y-1.0183 I-3.1844 J2.6492
G3 X35.6499 Y-0.6749 I-3.2915 J2.237
G3 X35.8193 Y-0.3191 I-3.3605 J1.8179
G3 X35.9512 Y0.0523 I-3.5299 J1.4621
G3 X36.0463 Y0.4428 I-3.814 J1.1361
G3 X36.1023 Y0.8404 I-4.0689 J0.7761
G3 X36.1217 Y1.2643 I-4.6197 J0.4238
G1 X36.1217 Y2.8893
G3 X35.9967 Y3.0143 I-0.125 J0
G1 X34.0984 Y3.0143
G1 Z-0.05 F30
G1 X33.5984 Y3.0143 F60
G1 Z-0.1 F30
G1 X24.8383 Y3.0143 F60
G3 X24.8234 Y3.116 I-1.2035 J-0.125
G3 X24.7621 Y3.321 I-1.0311 J-0.1967
G3 X24.6605 Y3.5093 I-0.9697 J-0.4017
G3 X24.5153 Y3.6848 I-1.0007 J-0.6801
G3 X24.3398 Y3.8299 I-0.8556 J-0.8556
G3 X24.1515 Y3.9316 I-0.59 J-0.8681
G3 X23.9465 Y3.9929 I-0.4017 J-0.9697
G3 X23.7198 Y4.0143 I-0.2267 J-1.1885
G3 X23.4931 Y3.9929 I0 J-1.21
G3 X23.2881 Y3.9316 I0.1967 J-1.0311
G3 X23.0998 Y3.8299 I0.4017 J-0.9697
G3 X22.9243 Y3.6848 I0.6801 J-1.0007
G3 X22.7792 Y3.5093 I0.8556 J-0.8556
G3 X22.6775 Y3.321 I0.8681 J-0.59
G3 X22.6162 Y3.116 I0.9697 J-0.4017
G3 X22.6013 Y3.0143 I1.1885 J-0.2267
G1 X9.3222 Y3.0143
G3 X9.3072 Y3.116 I-1.2035 J-0.125
G3 X9.2459 Y3.321 I-1.0311 J-0.1967
G3 X9.1443 Y3.5093 I-0.9697 J-0.4017
G3 X8.9991 Y3.6848 I-1.0007 J-0.6801
G3 X8.8237 Y3.8299 I-0.8556 J-0.8556
G3 X8.6354 Y3.9316 I-0.59 J-0.8681
G3 X8.4303 Y3.9929 I-0.4017 J-0.9697
G3 X8.2036 Y4.0143 I-0.2267 J-1.1885
G3 X7.9769 Y3.9929 I0 J-1.21
G3 X7.7719 Y3.9316 I0.1967 J-1.0311
G3 X7.5836 Y3.8299 I0.4017 J-0.9697
G3 X7.4081 Y3.6848 I0.6801 J-1.0007
G3 X7.263 Y3.5093 I0.8556 J-0.8556
G3 X7.1614 Y3.321 I0.8681 J-0.59
G3 X7.1001 Y3.116 I0.9697 J-0.4017
G3 X7.0851 Y3.0143 I1.1885 J-0.2267
G1 X4.487 Y3.0143
G3 X4.362 Y2.8893 I0 J-0.125
G1 X4.362 Y2.2061
G2 X4.3517 Y2.1545 I-0.135 J0
G2 X4.3225 Y2.1107 I-0.1247 J0.0517
G2 X4.2787 Y2.0814 I-0.0955 J0.0955
G2 X4.227 Y2.0711 I-0.0517 J0.1247
G1 X3.247 Y2.0711
G2 X3.2121 Y2.0757 I0 J0.135
G2 X3.1795 Y2.0892 I0.0349 J0.1304
G2 X3.1515 Y2.1107 I0.0675 J0.1169
G2 X3.1301 Y2.1386 I0.0955 J0.0955
G2 X3.1166 Y2.1712 I0.1169 J0.0675
G2 X3.112 Y2.2061 I0.1304 J0.0349
G1 X3.112 Y2.8893
G3 X2.987 Y3.0143 I-0.125 J0
G1 X-0.3165 Y3.0143
G1 Z-0.05 F30
G1 X-0.8165 Y3.0143 F60
G1 Z-0.1 F30
G1 X-5.1251 Y3.0143 F60
G3 X-5.2501 Y2.8893 I0 J-0.125
G1 X-5.2501 Y2.2061
G2 X-5.2604 Y2.1545 I-0.135 J0
G2 X-5.2896 Y2.1107 I-0.1247 J0.0517
G2 X-5.3334 Y2.0814 I-0.0955 J0.0955
G2 X-5.3851 Y2.0711 I-0.0517 J0.1247
G1 X-6.3651 Y2.0711
G2 X-6.4168 Y2.0814 I0 J0.135
G2 X-6.4606 Y2.1107 I0.0517 J0.1247
G2 X-6.4898 Y2.1545 I0.0955 J0.0955
G2 X-6.5001 Y2.2061 I0.1247 J0.0517
G1 X-6.5001 Y2.8893
G3 X-6.6251 Y3.0143 I-0.125 J0
G1 X-7.9742 Y3.0143
G3 X-7.9891 Y3.116 I-1.2035 J-0.125
G3 X-8.0504 Y3.321 I-1.0311 J-0.1967
G3 X-8.152 Y3.5093 I-0.9697 J-0.4017
G3 X-8.2972 Y3.6848 I-1.0007 J-0.6801
G3 X-8.4727 Y3.8299 I-0.8556 J-0.8556
G3 X-8.661 Y3.9316 I-0.59 J-0.8681
G3 X-8.866 Y3.9929 I-0.4017 J-0.9697
G3 X-9.0927 Y4.0143 I-0.2267 J-1.1885
G3 X-9.3194 Y3.9929 I0 J-1.21
G3 X-9.5244 Y3.9316 I0.1967 J-1.0311
G3 X-9.7127 Y3.8299 I0.4017 J-0.9697
G3 X-9.8882 Y3.6848 I0.6801 J-1.0007
G3 X-10.0333 Y3.5093 I0.8556 J-0.8556
G3 X-10.135 Y3.321 I0.8681 J-0.59
G3 X-10.1963 Y3.116 I0.9697 J-0.4017
G3 X-10.2112 Y3.0143 I1.1885 J-0.2267
G1 X-23.5256 Y3.0143
G3 X-23.5405 Y3.116 I-1.2035 J-0.125
G3 X-23.6018 Y3.321 I-1.0311 J-0.1967
G3 X-23.7034 Y3.5093 I-0.9697 J-0.4017
G3 X-23.8486 Y3.6848 I-1.0007 J-0.6801
G3 X-24.0241 Y3.8299 I-0.8556 J-0.8556
G3 X-24.2124 Y3.9316 I-0.59 J-0.8681
G3 X-24.4174 Y3.9929 I-0.4017 J-0.9697
G3 X-24.6441 Y4.0143 I-0.2267 J-1.1885
G3 X-24.8708 Y3.9929 I0 J-1.21
G3 X-25.0758 Y3.9316 I0.1967 J-1.0311
G3 X-25.2641 Y3.8299 I0.4017 J-0.9697
G3 X-25.4396 Y3.6848 I0.6801 J-1.0007
G3 X-25.5847 Y3.5093 I0.8556 J-0.8556
G3 X-25.6864 Y3.321 I0.8681 J-0.59
G3 X-25.7477 Y3.116 I0.9697 J-0.4017
G3 X-25.7626 Y3.0143 I1.1885 J-0.2267
G1 X-33.5435 Y3.0143
G1 Z-0.05 F30
G1 X-34.0435 Y3.0143 F60
G1 Z-0.1 F30
G1 X-36.0033 Y3.0143 F60
G3 X-36.1283 Y2.8893 I0 J-0.125
G1 X-36.1283 Y1.2643
G3 X-36.1089 Y0.8404 I4.6391 J0
G3 X-36.0528 Y0.4428 I4.125 J0.3785
G3 X-35.9577 Y0.0523 I3.9092 J0.7457
G3 X-35.8259 Y-0.3191 I3.6617 J1.0908
G3 X-35.6565 Y-0.6749 I3.5299 J1.4621
G3 X-35.4476 Y-1.0183 I3.5003 J1.8936
G3 X-35.2061 Y-1.3391 I3.426 J2.3284
G3 X-34.9201 Y-1.6525 I3.5664 J2.9669
G3 X-34.6067 Y-1.9385 I3.2804 J3.2804
G3 X-34.2858 Y-2.1801 I2.6492 J3.1844
G3 X-33.9424 Y-2.3889 I2.237 J3.2915
G3 X-33.5866 Y-2.5583 I1.8179 J3.3605
G3 X-33.2153 Y-2.6901 I1.4621 J3.5299
G3 X-32.8248 Y-2.7853 I1.1361 J3.814
G3 X-32.4271 Y-2.8413 I0.7761 J4.0689
G3 X-32.0033 Y-2.8607 I0.4238 J4.6197
G1 Z-0.2 F30
G1 X-31.2351 Y-2.8607 F60
G1 Z-0.05 F30
G1 X-30.7351 Y-2.8607 F60
G1 Z-0.2 F30
G1 X-16.4797 Y-2.8607 F60
G3 X-16.4648 Y-2.9624 I1.2035 J0.125
G3 X-16.4035 Y-3.1674 I1.0311 J0.1967
G3 X-16.3018 Y-3.3557 I0.9697 J0.4017
G3 X-16.1567 Y-3.5312 I1.0007 J0.6801
G3 X-15.9812 Y-3.6764 I0.8556 J0.8556
G3 X-15.7929 Y-3.778 I0.59 J0.8681
G3 X-15.5879 Y-3.8393 I0.4017 J0.9697
G3 X-15.3612 Y-3.8607 I0.2267 J1.1885
G3 X-15.1345 Y-3.8393 I0 J1.21
G3 X-14.9295 Y-3.778 I-0.1967 J1.0311
G3 X-14.7412 Y-3.6764 I-0.4017 J0.9697
G3 X-14.5657 Y-3.5312 I-0.6801 J1.0007
G3 X-14.4205 Y-3.3557 I-0.8556 J0.8556
G3 X-14.3189 Y-3.1674 I-0.8681 J0.59
G3 X-14.2576 Y-2.9624 I-0.9697 J0.4017
G3 X-14.2427 Y-2.8607 I-1.1885 J0.2267
G1 X-13.3987 Y-2.8607
G3 X-13.3838 Y-2.9624 I1.2035 J0.125
G3 X-13.3225 Y-3.1674 I1.0311 J0.1967
G3 X-13.2208 Y-3.3557 I0.9697 J0.4017
G3 X-13.0757 Y-3.5312 I1.0007 J0.6801
G3 X-12.9002 Y-3.6764 I0.8556 J0.8556
G3 X-12.7119 Y-3.778 I0.59 J0.8681
G3 X-12.5069 Y-3.8393 I0.4017 J0.9697
G3 X-12.2802 Y-3.8607 I0.2267 J1.1885
G3 X-12.0535 Y-3.8393 I0 J1.21
G3 X-11.8485 Y-3.778 I-0.1967 J1.0311
G3 X-11.6602 Y-3.6764 I-0.4017 J0.9697
G3 X-11.4847 Y-3.5312 I-0.6801 J1.0007
G3 X-11.3395 Y-3.3557 I-0.8556 J0.8556
G3 X-11.2379 Y-3.1674 I-0.8681 J0.59
G3 X-11.1766 Y-2.9624 I-0.9697 J0.4017
G3 X-11.1617 Y-2.8607 I-1.1885 J0.2267
G1 X-6.6251 Y-2.8607
G3 X-6.5001 Y-2.7357 I0 J0.125
G1 X-6.5001 Y-1.8139
G2 X-6.4898 Y-1.7622 I0.135 J0
G2 X-6.4606 Y-1.7184 I0.1247 J-0.0517
G2 X-6.4168 Y-1.6892 I0.0955 J-0.0955
G2 X-6.3651 Y-1.6789 I0.0517 J-0.1247
G1 X-5.3851 Y-1.6789
G2 X-5.3334 Y-1.6892 I0 J-0.135
G2 X-5.2896 Y-1.7184 I-0.0517 J-0.1247
G2 X-5.2604 Y-1.7622 I-0.0955 J-0.0955
G2 X-5.2501 Y-1.8139 I-0.1247 J-0.0517
G1 X-5.2501 Y-2.7357
G3 X-5.1251 Y-2.8607 I0.125 J0
G1 X-1.5399 Y-2.8607
G1 Z-0.05 F30
G1 X-1.0399 Y-2.8607 F60
G1 Z-0.2 F30
G1 X2.987 Y-2.8607 F60
G3 X3.112 Y-2.7357 I0 J0.125
G1 X3.112 Y-1.8139
G2 X3.1166 Y-1.7789 I0.135 J0
G2 X3.1301 Y-1.7464 I0.1304 J-0.0349
G2 X3.1515 Y-1.7184 I0.1169 J-0.0675
G2 X3.1795 Y-1.697 I0.0955 J-0.0955
G2 X3.2121 Y-1.6835 I0.0675 J-0.1169
G2 X3.247 Y-1.6789 I0.0349 J-0.1304
G1 X4.227 Y-1.6789
G2 X4.2787 Y-1.6892 I0 J-0.135
G2 X4.3225 Y-1.7184 I-0.0517 J-0.1247
G2 X4.3517 Y-1.7622 I-0.0955 J-0.0955
G2 X4.362 Y-1.8139 I-0.1247 J-0.0517
G1 X4.362 Y-2.7357
G3 X4.487 Y-2.8607 I0.125 J0
G1 X9.0934 Y-2.8607
G3 X9.1084 Y-2.9624 I1.2035 J0.125
G3 X9.1697 Y-3.1674 I1.0311 J0.1967
G3 X9.2713 Y-3.3557 I0.9697 J0.4017
G3 X9.4164 Y-3.5312 I1.0007 J0.6801
G3 X9.5919 Y-3.6764 I0.8556 J0.8556
G3 X9.7802 Y-3.778 I0.59 J0.8681
G3 X9.9852 Y-3.8393 I0.4017 J0.9697
G3 X10.2119 Y-3.8607 I0.2267 J1.1885
G3 X10.4386 Y-3.8393 I0 J1.21
G3 X10.6436 Y-3.778 I-0.1967 J1.0311
G3 X10.832 Y-3.6764 I-0.4017 J0.9697
G3 X11.0074 Y-3.5312 I-0.6801 J1.0007
G3 X11.1526 Y-3.3557 I-0.8556 J0.8556
G3 X11.2542 Y-3.1674 I-0.8681 J0.59
G3 X11.3155 Y-2.9624 I-0.9697 J0.4017
G3 X11.3305 Y-2.8607 I-1.1885 J0.2267
G1 X12.8517 Y-2.8607
G3 X12.8667 Y-2.9624 I1.2035 J0.125
G3 X12.928 Y-3.1674 I1.0311 J0.1967
G3 X13.0296 Y-3.3557 I0.9697 J0.4017
G3 X13.1747 Y-3.5312 I1.0007 J0.6801
G3 X13.3502 Y-3.6764 I0.8556 J0.8556
G3 X13.5385 Y-3.778 I0.59 J0.8681
G3 X13.7435 Y-3.8393 I0.4017 J0.9697
G3 X13.9702 Y-3.8607 I0.2267 J1.1885
G3 X14.1969 Y-3.8393 I0 J1.21
G3 X14.402 Y-3.778 I-0.1967 J1.0311
G3 X14.5903 Y-3.6764 I-0.4017 J0.9697
G3 X14.7657 Y-3.5312 I-0.6801 J1.0007
G3 X14.9109 Y-3.3557 I-0.8556 J0.8556
G3 X15.0125 Y-3.1674 I-0.8681 J0.59
G3 X15.0738 Y-2.9624 I-0.9697 J0.4017
G3 X15.0888 Y-2.8607 I-1.1885 J0.2267
G1 X19.4138 Y-2.8607
G3 X19.4287 Y-2.9624 I1.2035 J0.125
G3 X19.49 Y-3.1674 I1.0311 J0.1967
G3 X19.5917 Y-3.3557 I0.9697 J0.4017
G3 X19.7368 Y-3.5312 I1.0007 J0.6801
G3 X19.9123 Y-3.6764 I0.8556 J0.8556
G3 X20.1006 Y-3.778 I0.59 J0.8681
G3 X20.3056 Y-3.8393 I0.4017 J0.9697
G3 X20.5323 Y-3.8607 I0.2267 J1.1885
G3 X20.759 Y-3.8393 I0 J1.21
G3 X20.964 Y-3.778 I-0.1967 J1.0311
G3 X21.1523 Y-3.6764 I-0.4017 J0.9697
G3 X21.3278 Y-3.5312 I-0.6801 J1.0007
G3 X21.473 Y-3.3557 I-0.8556 J0.8556
G3 X21.5746 Y-3.1674 I-0.8681 J0.59
G3 X21.6359 Y-2.9624 I-0.9697 J0.4017
G3 X21.6508 Y-2.8607 I-1.1885 J0.2267
G1 X29.9884 Y-2.8607
G1 Z-0.05 F30
G1 X30.4884 Y-2.8607 F60
G1 Z-0.2 F30
G1 X31.9967 Y-2.8607 F60
G3 X32.4206 Y-2.8413 I0 J4.6391
G3 X32.8183 Y-2.7853 I-0.3785 J4.125
G3 X33.2087 Y-2.6901 I-0.7457 J3.9092
G3 X33.5801 Y-2.5583 I-1.0908 J3.6617
G3 X33.9359 Y-2.3889 I-1.4621 J3.5299
G3 X34.2793 Y-2.1801 I-1.8936 J3.5003
G3 X34.6001 Y-1.9385 I-2.3284 J3.426
G3 X34.9135 Y-1.6525 I-2.9669 J3.5664
G3 X35.1995 Y-1.3391 I-3.2804 J3.2804
G3 X35.4411 Y-1.0183 I-3.1844 J2.6492
G3 X35.6499 Y-0.6749 I-3.2915 J2.237
G3 X35.8193 Y-0.3191 I-3.3605 J1.8179
G3 X35.9512 Y0.0523 I-3.5299 J1.4621
G3 X36.0463 Y0.4428 I-3.814 J1.1361
G3 X36.1023 Y0.8404 I-4.0689 J0.7761
G3 X36.1217 Y1.2643 I-4.6197 J0.4238
G1 X36.1217 Y2.8893
G3 X35.9967 Y3.0143 I-0.125 J0
G1 X34.0984 Y3.0143
G1 Z-0.05 F30
G1 X33.5984 Y3.0143 F60
G1 Z-0.2 F30
G1 X24.8383 Y3.0143 F60
G3 X24.8234 Y3.116 I-1.2035 J-0.125
G3 X24.7621 Y3.321 I-1.0311 J-0.1967
G3 X24.6605 Y3.5093 I-0.9697 J-0.4017
G3 X24.5153 Y3.6848 I-1.0007 J-0.6801
G3 X24.3398 Y3.8299 I-0.8556 J-0.8556
G3 X24.1515 Y3.9316 I-0.59 J-0.8681
G3 X23.9465 Y3.9929 I-0.4017 J-0.9697
G3 X23.7198 Y4.0143 I-0.2267 J-1.1885
G3 X23.4931 Y3.9929 I0 J-1.21
G3 X23.2881 Y3.9316 I0.1967 J-1.0311
G3 X23.0998 Y3.8299 I0.4017 J-0.9697
G3 X22.9243 Y3.6848 I0.6801 J-1.0007
G3 X22.7792 Y3.5093 I0.8556 J-0.8556
G3 X22.6775 Y3.321 I0.8681 J-0.59
G3 X22.6162 Y3.116 I0.9697 J-0.4017
G3 X22.6013 Y3.0143 I1.1885 J-0.2267
G1 X9.3222 Y3.0143
G3 X9.3072 Y3.116 I-1.2035 J-0.125
G3 X9.2459 Y3.321 I-1.0311 J-0.1967
G3 X9.1443 Y3.5093 I-0.9697 J-0.4017
G3 X8.9991 Y3.6848 I-1.0007 J-0.6801
G3 X8.8237 Y3.8299 I-0.8556 J-0.8556
G3 X8.6354 Y3.9316 I-0.59 J-0.8681
G3 X8.4303 Y3.9929 I-0.4017 J-0.9697
G3 X8.2036 Y4.0143 I-0.2267 J-1.1885
G3 X7.9769 Y3.9929 I0 J-1.21
G3 X7.7719 Y3.9316 I0.1967 J-1.0311
G3 X7.5836 Y3.8299 I0.4017 J-0.9697
G3 X7.4081 Y3.6848 I0.6801 J-1.0007
G3 X7.263 Y3.5093 I0.8556 J-0.8556
G3 X7.1614 Y3.321 I0.8681 J-0.59
G3 X7.1001 Y3.116 I0.9697 J-0.4017
G3 X7.0851 Y3.0143 I1.1885 J-0.2267
G1 X4.487 Y3.0143
G3 X4.362 Y2.8893 I0 J-0.125
G1 X4.362 Y2.2061
G2 X4.3517 Y2.1545 I-0.135 J0
G2 X4.3225 Y2.1107 I-0.1247 J0.0517
G2 X4.2787 Y2.0814 I-0.0955 J0.0955
G2 X4.227 Y2.0711 I-0.0517 J0.1247
G1 X3.247 Y2.0711
G2 X3.2121 Y2.0757 I0 J0.135
G2 X3.1795 Y2.0892 I0.0349 J0.1304
G2 X3.1515 Y2.1107 I0.0675 J0.1169
G2 X3.1301 Y2.1386 I0.0955 J0.0955
G2 X3.1166 Y2.1712 I0.1169 J0.0675
G2 X3.112 Y2.2061 I0.1304 J0.0349
G1 X3.112 Y2.8893
G3 X2.987 Y3.0143 I-0.125 J0
G1 X-0.3165 Y3.0143
G1 Z-0.05 F30
G1 X-0.8165 Y3.0143 F60
G1 Z-0.2 F30
G1 X-5.1251 Y3.0143 F60
G3 X-5.2501 Y2.8893 I0 J-0.125
G1 X-5.2501 Y2.2061
G2 X-5.2604 Y2.1545 I-0.135 J0
